/* XPM */
static char *d7c9e65f6073420cba8824a559d8d303T6USL24DPCFfcIAM[] = {
/* columns rows colors chars-per-pixel */
"148 152 110 2 ",
"   c #242525",
".  c #363736",
"X  c #30383E",
"o  c #3C3C3E",
"O  c #363B44",
"+  c #3A3D47",
"@  c #3B3E49",
"#  c #3D4247",
"$  c #3E424C",
"%  c #444444",
"&  c #42454E",
"*  c #43484F",
"=  c #484A4F",
"-  c #424651",
";  c #464A53",
":  c #494D55",
">  c #474E58",
",  c #4B4E59",
"<  c #4D5156",
"1  c #4D525B",
"2  c #4F585D",
"3  c #505456",
"4  c #51555D",
"5  c #59575F",
"6  c #54595E",
"7  c #5A5B5E",
"8  c #4F5560",
"9  c #525661",
"0  c #585660",
"q  c #555A63",
"w  c #595D66",
"e  c #575D68",
"r  c #5B5E69",
"t  c #605F63",
"y  c #605F6B",
"u  c #5C6166",
"i  c #5D626B",
"p  c #5F6570",
"a  c #606266",
"s  c #61656E",
"d  c #64696E",
"f  c #686A6E",
"g  c #636671",
"h  c #686770",
"j  c #656A73",
"k  c #696D76",
"l  c #676D78",
"z  c #6B6E79",
"x  c #716F76",
"c  c #706F7C",
"v  c #677076",
"b  c #6B7077",
"n  c #6F7577",
"m  c #6D7178",
"M  c #6D727B",
"N  c #6F727A",
"B  c #6F717D",
"V  c #707175",
"C  c #707277",
"Z  c #717476",
"A  c #717079",
"S  c #72737B",
"D  c #737479",
"F  c #73757B",
"G  c #747578",
"H  c #71757D",
"J  c #75757E",
"K  c #75757F",
"L  c #78777E",
"P  c #767879",
"I  c #74787C",
"U  c #76787C",
"Y  c #787B7D",
"T  c #797B7E",
"R  c #6F7580",
"E  c #727681",
"W  c #777A81",
"Q  c #757A83",
"!  c #797B82",
"~  c #7B7B82",
"^  c #797E83",
"/  c #7C7D83",
"(  c #7E7F83",
")  c #797D85",
"_  c #7C7D87",
"`  c #7F7E87",
"'  c #777D89",
"]  c #7A7E89",
"[  c #807E86",
"{  c #807F89",
"}  c #7C8184",
"|  c #7C8186",
" . c #7D818B",
".. c #7F8590",
"X. c #818286",
"o. c #828289",
"O. c #81848D",
"+. c #84848E",
"@. c #84898F",
"#. c #86888F",
"$. c #828691",
"%. c #858A94",
"&. c #898893",
"*. c #888B93",
"=. c #8C929B",
"-. c #8F949A",
";. c #90939A",
":. c #94969A",
">. c #91969E",
",. c #96999C",
/* pixels */
"0 { +.*._ K ( ( G P U #.,.:.o.k w 6 b G K C S G K C _ ~ k z *.,.*.| s w 5 0 f z z f & 4 s k b k C G s a s d C Y Y F F k h b H F k d a s z P Y U P U ~ K U W h 1 ; 3 z z C b z b K ( ~ C s w 5 u s k w w s k m b j s w w w u s s f b a s h s u s s d k C S F G S x C 9 3 0 g S S z k k z z k k b H W _ K ",
"4 K z B g y j h s f #.-.;.^ q # * 4 w s j s s h g s s u , : h Y k s 3 4 6 w d k s 6 : 6 d k f s s d 6 d k s w w f F j g s j h d i q , 6 s m U Z b n H k k b g 6 9 r e u e u u a f C b s w 4 4 w h F 1 < 6 u d s s i w u u u u s s s z S F k d h z z k b k b b k j s s r r j m S k l i g g g g l k l 4 4 ",
"j *.l c k j S S z U *. .b 6 ; 1 s H i z W E E E S j d s q 1 j K z u 4 w s f h h s w d d k b b k f f u d f a 5 6 a d s i s g s i q 4 6 e j H U m b m W m z B m j g h d s d j k z b S b j j j k m U ) j g g k B m E ) H H S m m S b b m S z j j z S m F b k j k k k s m k h m K H S z j j j j k z k j s j ",
"g _ g l j j m m S _ m r = $ 4 d k j w z ] ] ' ' S j j k s q k U k s w g b b d j z F U m k k m H F b d d u 7 u d u 7 s g z m k g i i e i j m m k k b H k j z z s r s s w i s k k h k s j U ) ) W m b m k g s l B )  .H W H b z m F m b m h s k H W ~ W b s i d j k j j g s j m m z j j j j g j l j d s k ",
"s ) z j j S H z k F g e 0 j W z j W k  .$.H z S H k E z s e s m m j k m H m g j W ) _ W m m m z l j F k h j m U b s H H E S z l s i j i h S m m H b H g 0 g m r 1 i 1 q s j b B H U z m z z H ] ) B U k z B k B ) ) ) k u i k B H H W g i 9 j  .H m b b b z m b m m m k s j E k i s j m H m j j j l d b ",
"i S g k B B B H z k j g e i E ) j r E E E m z z m m E B j r i k k j H m z k j H  . .W S k k z m z k j z U ) ~ m j s E W E H z l j j m j b H b b m j m s e l E s 4 i e i j m H E E E B B k k m ) ) W ' B H E E ] O.) s i i b H H m b g s k i g H l l k j g b H W H m j j i j E l i j z m B B l g j j j b ",
"r B j E W B z W H j r W E g k W E k W m k B S z m W W W m s i j m m m k j k H  .+. .m k j j l z m m k H  .O.W j j m ) W E B k k z m S k B W m b m k j s i m ' g 9 i s h m B W ~ ' H E B k g l W ) ) ' W ' W ' $. .k 4 w g H ~ H k l i g W j i g i m z j j m |  .W m s j g j z j s m E H E H k i s j d b ",
"g ' z E B z z E m s g ' W k B ) ) W l j B H W H E ' ' ' S s i j H ~ g j m )  .O. .H i s j j z m m m W W ) E g w s ) W U S z k B W ) k j H ) B m H m k g g m W s 4 r s z H E W ' W H E H l g j H ) ' H E ' E H  .E 4 e i j B H m k z j z ) j q w e H k k m W | W b s j l g s l g g E ) ' E B l i i d d k ",
"j  .r r i z H z s i ] B s m *.*.l q q z ) W H E W S ) ' z w 9 g H ) k m )  .| ) H j 4 r g z m m B B  .' m s 4 1 i W m m k j z E )  .z d k H m k m k k j h H E i 4 i s B ) ) W W H m H m j i g m E H z H E m m ' b > i i j B m k j l U m W i 1 4 4 k j m W ) E j e 9 s j r e d j m  .] W B k s e i j d b ",
"s ' , 1 i ' _ k s k _ H B $.>.) 4 ; 1 k ) S k m m z ] S i > 1 s H E  ._  .' H m k s ; q j m B B S H ) E j q > 1 r j z k j k S W ) ) H s s k d d j i k k j m S r 4 i j E  .) W H H z H k i q i z m z l k B B z E b 4 q q s m S k j j H k m i 1 1 1 g z H ) ~ m i q 1 q e 1 9 j B E  .W B k j i w i j d b ",
"u j e i z B j i j W S  .*.*.) r ; 1 q s z z g g j z ' j 1 $ > g H B O.] ' B k k j e 1 r m H B B E W E W h 1 ; 4 s j m z z m H ' W ' W r 4 e e d j s j k l m m w > e g m ) W H H B k E j q 1 e l m j m j B H B H B s 4 6 r l m j j j k s k u 1 1 1 m W E U H m s e q 1 4 1 9 m W m B m g s i e 1 4 i j b ",
"i j j ' ' e $ - i B W  .' z i 1 ; > r 9 e g g e s B W s ; + , k W H ) m k k k k s 1 r j H H B m K ) H ' j - + 4 k m B S H H E W E H H 4 & > q j m k k b k m k 4 - 1 i k B m B H H l E g 1 > q k z j H l B W B B B j e w q i s s l H s u j e 1 1 r  .) B j d l j i 9 1 1 > w B H g i j r w i 9 - ; 4 d b ",
"r z H z r - @ > g ' ) E k j s r 4 > 1 s j i r g m z m e & # 1 j W  .~ W z g z S i ; q s k k B )  .) ) R s 1 - > s '  .] ) W E W E E k 9 , 9 r z B j k j H ) d - ; r j g z W W H B E W d > $ 1 i j j k j g k m j s s q i s s k H K m j s e 1 > q m $.k j g j l s q > s i i e i k k s e s j i q 4 w i m U ",
"g E k r > # - r H  .m m B H B j q > i j m g g z S B r 9 1 4 s B W W m S k j k m s ; 1 e i p l H E B W j 9 - & 4 g H H B m m m H W W  .q > i m H H m B m B F i ; 1 g z k k H W H B E W g 4 > 4 i s s k j j m B k s i s s s j k k k k g j j s e q i k k l k m z l i e i q i l H z i q s j g i e q i g z K ",
"i B B r - @ 1 l B B j k B H H z i 9 g z j g j S S z r r r s z m m k j k j j k z i > , q i s j m B k H j > O $ r z z m z j j z H ' ' ) > # i H m m m H H m g 1 > e b B k l m H m m m E k i r i g j j z z k H H z d r k g j m m j j k j k m j i 9 q i s j z m B H H H E i e j m j i g j j s i r i j m k H ",
"w z H g 1 1 r m m j z j j k l j g i g g g g j B z g z j g s s j j j j j j k k j r 1 e i j l z H B z E m q & ; s m k H m m z m H E E S ; $ i m m z m m H m i 1 4 i z H z k z z m k m B z j j j k m m m m B E E m g r m g j H H j j m m z j i q q i j k z m m H H E ) ' g r g b j j E s s s s g j m H j b ",
"e z i i i p j B B m B m m k l g g i j j j k B H z g E m j s i s j z l k m B m j i q g j m m B E E m E ' z q 9 g m z m B B B B B m m m e e j B H U m k S m i q r j b B m m m z z k m z k j g j g b H B H H E E H l i k s j H U k k U U B j r e i l W ) ) W E B B m m i r i B E k g m j j j z S W ) ] k S ",
"r m r g z z z k z z z B H W E m g r g j z B B m j g B k j g s j l z m m H W W z g i g j z z m B B B H ' W k s g z F g j z z m m z m B d d k k m m l l m m j s g k k b m m z k j k m B z j g d j m H H H H H E W k i j j k H H m m H H H S m k m E ) W E H H H H m m j j j l k j j m m B W )  .O.O.+.H U ",
"r B j m B z j j k j z H ' ) ) B g r s j z H z j j z H z g s j z m S B B E W E k g g s g k k m B E H ) W E E z g l H g j z m m m B H B w i k z g j j b k m m z j j j k k m z j k z m W B l g j m B E B E E E E ' k e s k S H B E E H U E W W E H H E m m B H W W H H ~ z i i j l S W W ' ]  . . .] ] H K ",
"g E B z j g j B E E H W W E E m j g s j S E z g z W ) m s r s m )  .H B H W B j s s g j k z B E ' '  .W E ) E g j B z B H B B m E ' E 1 4 m H s g z m j k m m j s j m m B m m m B W H k s s g k m z m E E U W W l 9 i m W m B ~ ) W W W H m b z z m W E E ' ) E m l s e q j W ) ' E E E ) ) W H H S k z ",
"w E g s g j j z W  .B ) ) z j S m r i B W k g B ' ' ' k s g k R U E m ' H H ) g 9 l g j B E E ' ) ' ) W ) H g j z j m k m H W W H W i r i m B z k m m F m m B s i m m m z m z S S H E j k k g m W k W ) E E  .~ j s s l H W W ) ) ' W k B  .W w q l ^ B B W W W B j e > 9 m B z H ~ $.E )  .E l g i g j ",
"q B j j z W  .O.) B W ) ' H H H j r i m E z j B ' E ) B l j m H W W E ' W H B j g H k m E W ) ) ) ) ] W  .W i w j m B H E W E H '  .z s i k H m z H m m m m H d i m S F m B S H B H H k k d l B E m E ) E W  .W g i j m W ) ' | _ ' ^ H ' | z 4 4 s ] E E ~ E B k i q > 9 m B z m B W m H E i 9 9 8 g d ",
"0 m z k j i s z E ' ) W E ) W j w , i k E E H ) ] E ) B j g j m E W W W ' B g j H E g l m W  . . .' ) )  .' 9 ; i E E W ' W B H ) $.j i r k W B k z m m k m H j i b m m B F S B S m m W g e k W B B E ) H W ) m i q k H ) | ) ) ) W )  .O.) i , 4 i ] W E W B z s 9 1 ; 9 m B z z m k j B k 9 ; 1 9 s s ",
"i ' m s 1 $ $ , g ' ) m c W z q - # e j ' ] ) ) ) W ) k e 9 q g S E U z m j e k ) z 4 q i B ]  . .] ] W ] H > + 9 H W ) ) E H E )  .9 9 e z E B j j k k k m H s i k k m m z k k z m m ) i , k W z W U ) H U W k q 1 d m ) ~ W W ' H W O.#.H e 1 e s B m m H z j s q 1 ; q z m z B B k j B k 9 1 q r i s ",
"h O.g 3 + # 1 i s s S j j z s , $ & e j E E z l m B E s 1 ; 4 s m S m j j s s E ] i ; 1 i z ~ ) W E ) H W k ; + q m ' ) ' W W ) ) W ; > 9 h H k j k j k k m H s e s k k k k j j k b z W 9 & s m l ' m W H H E j 6 > e j H E H E E H H ] ) k q 4 e s k k m m k k k s 4 , e j j k B m m b z g 8 1 r r g g ",
"z _ 9 ; @ - w g j z j d j j i 1 > , i g l s q q i k B i > ; q j m z z j g g m ) E q , 4 i m E B z m W H E s - & i m W ' W W ]  .W j - ; 1 s m k z H j k b H H s 4 e j j k k k k m B B l > & q s s m j m m k m s 4 1 q g H E S H H H B E F s 4 4 q r m z S S k m m k q 9 i j g j m j s s g r 1 4 i r j j ",
"s m ; ; ; , 9 i z W s g j j s r q 9 i s g s i s j B k i , > e k z j j z j j W W i 9 9 q i k B m z k H E E i $ > g z m E W H W ' j 9 ; & > s B z j m j m m E H i > 4 i s h k z m H W B e ; ; 4 e i g s m m k z s 1 1 r k H K m S S H H H m j e 1 q s H H W H z m H H i i g l j k z g w i l i 1 q g g h j ",
"0 j - > 1 q g z j r s j j s r s r 4 i i g m E ' ' ] k i 1 > r j k g i B j j W k 4 1 q q e j m b z m m ' W q @ > j z j z B z m m r > - $ > j ) E g s z H H H F q = 1 q e s h z m H W m 1 & 1 4 e j k j E H m z r 1 1 i m W H m m B H m m m m i 6 e m W W ) H z m E E l j z B z z z i i b ) B q q g j k j ",
"& , 3 9 1 9 g z j j s j k j g s r q z m S ) ] ] W E s 4 ; > r j z j m m z m m j e > 4 9 r k H ' S z H z l w > 9 j j k k j j s i w w , 4 r j z z z S j z k k s > & > e s m H W W H B q q 4 4 i k B B F H m m m j i 4 j j z m k h k m H k m m s i z B H H U W E W H H g j z m z j g g b H S d w i j l z k ",
"& 9 e r 9 q j m j l B m k g s k m B k m B ' ) W S z g q 1 4 i k m z m B H H B m s q s j m H E H S H m k j i 1 w z m z z k j j s i s i i s j z k z B k z m m l w , 9 j m K W H m j j i i i i g k B B S m m m m b j i U m m m H H W ) H z S U h j H H H H H E W E H E m m z m z j g l b F z i q i j l k k ",
"- s s j r r z B z m S z j s j m E W j B B W ' H z j g i e i j m E B H ' ' W E B k s j B E W B z H E m j j j i j ' H z m z k k k z m m l g k m z m B m B m H B i e i k B W H m k j j g z k k l m B m m B k m m m m k W B b B ' ) ) ) E m H W m m ' H m H H W W W W ' W z j k l g j B E H j s i j m m j z ",
"; k g z s i z R z m j k k k k k z j k m m S z j j g g j s s j B ' E H ' ) ) E B z j g z m m k l B E B z m m j B ' B j z m m B H W ' m j g j z B m B B B B H S j i i g m B m z z B H z B m j g k m z z m m m m m B m k m B H W W W W H m H H j z W H B H E E H W ' ' W j s s g g z W E m j s g z R B h z ",
": z g z s i k m j l k z m S H m z j m k l j j j j j l l d r g H W H E W ] ' E B m j j j l k m B B B B m H H k B E j j z H E ' ' W ' k j s j B B m m m B m H H j i i j m B m z S W W H B b i r g b m m m B H H H m k m H W H B m U W B b m k s j K m B B H E E W W W E g e r g g z W m k j j k k z k j z ",
"; m j z g r g j g j H S H W W E H E j j j j j z m B B j i q i E ) B E W ) ) E H z j j j k m m S z z B B W E g j m j k z E ) ) ) W W j g s z m z l k m B B H E k s g H H E S B H H E E B s q q s m m E S H W E W H m ' W ~ B j l U | S z H k i j ) H H S E W E W E W E i 9 i l z z H H H H H m j j z j z ",
"; z j z i q i j j m W H E ] ) W m m r s g j m B H H E k e 1 i ' ] m E W ' ) ' W m j i j z H B m z m E E ] W i i z k z S W ) ) ) E W r i g m m k j l k H E W H z g l E H S H B E H m E k i 4 q j m m S H S U W W H m W H B S b b H W H m m j e j W m B S H E W W W B z q > i H H B m H U W W l r i j j m ",
"* z j z i q i j m ) m B ' o. .H s i q r g z m E B m W k q 1 i ) ] m E ' ) ) ) W m j 4 s B H z j m ' W )  .E i q j m B H E W ' W E ' q r i k z j k B l H ' ' E j g m m m m m E ' E B m g q 4 e l m m H B B H W E H m k k k S E W m m m m k i 9 i m l S B B E ' W E U g 1 - i ' ' m B j l m z e > 1 i j m ",
"4 ~ s 6 # # e B K W ' W z H ) k 1 ; 1 9 i j m H H S E e - > s S H B W B H  .+.W j s i z E E B H W ) ) ) H w > 1 i z m W ' E W _ E g w w r j b m k k B H m m m H k i i H ) W ) W z m S k q > q h m H W ^ ) E H B j e q i m H m l j k k z H s , 4 i e k k j j j j j k q > q B m k m m k F m s , - > e j s ",
": s 3 3 & & q k z z z m k z S r ; & ; 9 g k m B B H k 4 * 4 l W E m S z z S S j i i e s j j j B W W m m s 1 ; 4 g B j B H m W ) H g q q e g m m m B m m m m k s e 1 j H W H W B k m H k 4 < q i s m k k z k m m s 6 q i l m m k j k s k m i ; , u i k j j j k j j k q > q m m k z m d k k i 1 ; , q s i ",
"; 6 # : ; > r h k b j k j j j 9 # & ; q m H S m m B r > ; q E _ W m B k l z k i w r q e e r g m W H k j e > ; 1 e u j m H B W W z r q q q g z B m B j j m H k 9 > > k H B k B k d j H j 4 < e w e k l h j l B H s 1 9 e j l k k z m k m W s > , s s m j j k m m j j 4 ; q z m k m m h h j i 9 , 1 q i r ",
"3 0 O > 1 4 i k b F j z m k j q & & 4 s H W H m k j q > > e B ) H m B z m E H l i i 1 q e r g m H S S g 4 - ; 4 e i B E W E H H j e i w e g b k k k j g m ) k 1 ; 4 k m k j k g i g H j 6 1 e e i b k k m m H m s 4 6 r g m m m H H m H W j 1 9 d j m k l m m m g i 1 > q z m k m B m b k s e 4 9 r r w ",
"6 0 * q e q i k m F m H m m B r ; - i j z z z z j i r 4 4 r l k k z B m B ' ' k r 9 1 e s g g k z m k r , ; 9 d E ) W W W B m z j s r e r s j j s j k l H ) l 1 < e j m j s h j i k m k e 1 e g j m k m m m B k i 1 e i k B R K H H S m m s 4 e j l k k k k k g e 4 4 1 i m m m B m H H k s r 9 w i s j ",
"5 e 6 s i q i k k b m H m m m s 1 > s g g s j k g e i e e s g s s j z k z S B g 9 > 4 s k m l k z m s i i g m E ) ) H F m z k k z m e e r s s s s g m m U W j 1 1 r j b j j k j g B m m i 1 i k k m m m H H m b i 9 j m U E H B m k H m m j i d H m k z z k j i w 1 i e j H m m B m b m k s e q i j k m ",
"5 s u j s e g m b l k m z k z s 9 q i g s i j z k i g s j k k s i g l z m S m g w q i j m m z m m m k k E ]  .W z k E m z j k z H ) 9 q q i s s j l k m H B s 9 6 w j z k l m l j ' m b r e j m k m B m H U E H j e j B W E m m m m ) W ) W k z E B k k k k k j j g k s k B k z B b k b k j i r g B z K ",
"0 d r j s e l U m l j m k j j s r g i j j g j z z j g g z E B g i g j z H W B l j k i j j j k B m k ) E H H S m H ) W B z l z z E  .1 1 q i i i j B j m B k i e e q g z k k m l l ) H j e i B F j B b k j b H H j i i l m m k m H W ^ W  .) k j m l j j j l m B E W m j k m j k m k b m S z s i k W z S ",
"w h s e j q k $.b s j j k B B k j j j s s k E W H B k l H j i j g B z H H k z S k i B j s j z m B E z k ) ' s j H j k k j g j k E  .j i 9 i j j j k b k z m k e e s j k m b l z E  .m E z s k m k m m k k W +. .m w d l j k E ' W _ )  .| H H E z e s j z m H W H k j m H H j s j S u m E z s g j k m S ",
"6 s d i k i h  .k s H S H E m k g j i j B K B m H ] m k B i e s s B S E E m B W m i B k k B H B S E W k m B j m H i j j j k m K W  .m s e i z B S H m m m H m i e s k j g j H W B l j B k s j l j b k k z E | ~ j e i j j k W W W |  .W ' ~ S i w e s k H H H W H m v s e i j k B H F U B j i j z B k k ",
"6 f s i j i g b g k W H H E S k s d i j H E H S H ' l j k q 9 s s B W W E H W ^ B i k z B E U H H E E k z m j j j q s s g k S H H B H s e s m H E U m B H E m g i i m z k B ~ ) m g m W U j j j g k j b m H H F j i i d d b ^ ) W ) E m B ) j > ; e j m E E H H m m s q 1 q j F H B W ~ S k j B B B g j ",
"w c k g d s e u s K H m S W H k g s l j l m W ) E k g j z q 9 g l E ) W H W ] ) m s i j B W E H E H k m W E i 4 9 e s s g j z z j j H g w i b B H H m H H W F j i i k H ) W H m B W W ) H d l j s j k m m H U m j i e s s b ) | E W E H E E i ; 1 j m H W H H H z k 6 4 e d m F m m m W ' H B m k g r s ",
"w b b k i q 1 1 s ) m m H W S k d g l z m m W ' B j l m E r 9 j l B W H S W _ W j i 1 i m E S H E H k S W H i 1 > q k k k k k k k j H s q i z H H H U H E W H l s s l m B z j l m ) ~ W d e i d p d m m m E W F j i 9 i i j ~ ) H E ~  .) d 4 4 i m H H H m B H b j 1 q s H W B m m m W W z i e q q e s ",
"3 w 1 4 & & * > k ^ F H W U m s i g e k E m g g l z B W W q 1 j j k H m B ) ) m i w ; i m B m B E B H E k z z q > 9 m k b k z z m B E g e i m U W E H H W ) U j i s B j i s m W W U ) H e 1 i k j l B m m U W H d q 1 e i d H H m H m ) b < # 1 i s m m m k m H k s e w i m ) W H E H H h q ; ; 1 9 e s ",
"= > O ; O @ ; 4 K H H E W m g e e s 1 g B j r i j z W E B > - g k z H m S ) ' j w 4 > i B B m H E m H W k k H e > i k z m m z m m B z i 9 e j m B H H B W ) H i q r k j g m )  .) H W b 6 > i m m m B m m U E m i 1 4 i d b H m k m j k i ; # > e i k k m m F H j s e 9 q j H H m m B l r > & > 9 e i d ",
"= & & q ; 1 q i ) b H H B k e 1 9 s w g l g j B U z E B s O O i m H H m E ) ' g 4 1 1 g H B m S E m j W E H z 1 > z k z S B m B B H i 4 ; 1 r g j k B m H ] B q > 1 q s B ) ) W E E m s > $ q j l b H H H U H k q > 9 g m U ) B m H m j i 9 1 9 g H j k m m S m j i 1 1 4 s l j s j j r 1 > , e s i s d ",
": ; < 1 1 4 i k B S ~ ) j > 1 g j 4 3 i j l j k l j m k 1 X @ s S j B j m ) m 9 > 4 i s m E H z m H z ' ) l 9 1 q r m B H H B m l z q 4 1 9 r j l j W B W ) z 1 ; > s k E W m j j z s 6 > 1 e s g j b j j k g q 6 e e g m m m B B B W B j e e s j k j k H E B h s s 9 & > i j k l i j s e r e q e i g j ",
"< 6 q q q w s z H B g j e 1 1 g j i r g z k j z m z m s 1 # > l E l H z B W l 4 1 i j m W ) U b z H H W B r > > 4 r l k m m m l k k i e 9 e i k m z E B E H i > > 9 g j z m z l j j s e 4 q i g j k k l l m m g e q i j m B m m m B H H z p i j k l k m H U m k j j g 1 1 i j l m k k g i i r q e i g j ",
"6 s w u e i j m m k i i r q w s j j s z B z j k m m z i 1 1 i m B k E B B B i 1 q m B E H S k j k m W H g 1 & ; q i j l m m k k l k j s i i j m B B m m B l q - > r j j g j k z j s j d s d k k b m g j k m F m i < i j m m z b m m m H B k j l j d m m B m m z k k k q e g j k m k k g j j s e e i j z ",
"3 b u e e i j z k s j g j k j g j B l B E m k j m m E g e i j k k z H B B B g e g H E m j g d g l z H m i 1 > 4 i l z m m m m k k j m j g j z B H B k m m k q > 1 i k j j j k k j i k k k b z k k b s j l k B W i - g j m m m z m m b B B k j j j j S m m m m B m m i 9 r m m j l i k h k k s r r g z m ",
", s s s s j k k j s k z m E S k z W z S E m k m B B E z g j j g j B m m S W E m m H ' m g j z z k k z z j r e i k m B H B S m k j j k j j k m B B m m m m k i e e i k k k k j g g j k m m k j l k k j k l j m H s ; j l m m m m B H H U m j s g m m S m z k b m m m u 4 i m k j l g k k z z j i g B m S ",
": d k k b b b j j j z k m E U S B W k B H m m H E W H m j g i s z E B B E ' _ ) E z k j g k B m s r j k k j g j k m m m m z k l j j k k k z B H B z H m k k k l j g j k m m h j j l b m b j j k z j k j k k b m g q m v m m m B E W W U m j d m U ~ m m b m m m z m j e i k l k E E k z m m k j l R B m ",
"3 k k b H F k s j m S m m F W W E E j B H H E ' ) ) m m g i i l E ' H W ' ) ) W z i i s l m b d i i j l m z z k k k k k k k k k k l z z l k m B B S B m k z m m z j l z m m z l k m l l j i s k l j k l k m m b l k B m b m m B E ~ W E m k m H U H m m m m m m S H B i s m B H ' ' m m m U m j l m k z ",
"6 b f z U H j i l E m H S m E  .) S j m E W ) ] ) E z m g q s E ) E ' ] ) W B k i 9 i j B B j i s z k z m F B m m m z z k l l k k k H z j g j m H E z k k k m m j j m m m m z m z z l k j s s k b j j j b H m j k W m m z b m H E ) W H B m H H m j k m m m m S E ] j i j W ) W E z B m H E S j i g j j ",
"w m d k m 9 - g $.S z W S l m  . .z s j k B W ) W H ] m q 1 i E O. . .' E ' E k s i W k j m m j s j E k B E s g k g U B z l k m B H E s q s B W H B b l k m l j j m E H k k m H m m m H i k s U j m m ~ W m m E W F j k z B H E H H k B ) ) k i s m U k j m B H H W m q j *.O.j k ) m E m ' k q j S s B ",
"w F i s e ; > B +.W m m z m '  .S i r g z H ) ' W B ' g 1 1 s ) +. .) W E W B j j l H j s j z l z H H B H m j j k j g j k k k b m H z e 9 i z m m m m k b m m l k B m z l m m m S F B E i k i m i j g m B k b B H m e i g j j j k b B H W B i 1 q d H m k m H B m m s q s E H m E H B W m E g > q i r k ",
"a C i u - O q ) _ S z j j E ] W i 1 q g H ) ]  .) ' m i > 1 g ]  .) S m z m k g g l g i i j m B H W m ] B i g j s l i j m B m m m m g e 1 e k m m m z l k m m k l l d j b m m m m B m H s d u s w u j m B b m H H m q i g j j j b m H H m j q ; 4 i k k m S H E z j e q e r i B W j B E z B i & , 1 e j ",
"u b i i # O s _ E z k g j ) ) g 1 ; 9 g H ) ) ' E E l r > 4 g E W H z g s j j i r e 1 4 e j B E B B z  .j 1 q e 9 s l z m B H B m B i q 9 i k B B H m b k B m s i i i g k k k l z B B H i q 6 w 6 e v B E H B H m b i g j j j k z H k k k g q > 9 j i j B E W E k i r 9 9 4 e z B i k B j m i $ > 1 i z ",
"w j 1 4 $ & k ] S S j g m ) B q ; , q s m H H m z k j r 9 e g j k z m s i l m d q 1 1 4 e s k B B B m ) i - > > > i E B B B B H H H e q q i z m B B m m m m l r 4 1 i d z k l k m B H F s > 4 4 e i j b H H H H m k s s i i i s g j j j j h e 1 q l j m H H S m g q g 1 , e i j z g z H k B i ; 1 9 j F ",
"6 i & * - 9 m ) W E g j H W j 1 , q s z S H B m k j g e 9 e i s g j B j g m E l q > e e i r g m B H m m r > 1 > 1 g ' H z z S E E B r e u j m B m m m m m m j q 1 1 g j k k j z m H m m s = 4 4 i g i d m m H H B b s i e e i s s i k l m m i 4 e j H H H m k j i 9 j > 1 s k j z m z E z S s > q r k K ",
"6 i , ; q m W W W B g z E H i 1 1 r m m m m B m m j g 9 > 9 g j j k B z z R B g 9 1 q r i i j B W B m i i i q 1 r m H m z m E E z l r r i z H m m z k l b z g q 4 9 l l l k k m m B j j g ; r q j j j b m B H H m m s s i g j k z l m z B m i 4 q g H m m z l g i i j 1 9 k m k m m k E z B i 1 i g z W ",
"u z s 4 j  .] W W j j m E m r 1 4 q l j j s g j g i g > $ 9 l m B B z l B R j 9 > > > 9 i l B ) W z m q i H p 9 g E m B B E E m j i q q i j m z l j j g g l i 9 1 q b l j l k l z b i s g > g u k j U U W U H m m b e i i g m m m m z k j z i 4 q k j s j k k g g j s q e k k k m l j B k B s 1 s m z H ",
": m s z )  .) B k m j z B l q > 9 j j j j l j j j j B e q i g m ' E E j z B i e i i 9 i B W E B B E i j E g i m g j j k H W W z i q q 9 i m m l j i g g k l q 1 e g z j g s s s i s j g q 1 r g j m m B W U z m m i r i g j k m S B H E  .W i e j z m B H H H m k k H g k B z B E k U H m m k j j k K m ",
", ~ m K ' W B m m m k j z z g i g B j j z m z z z B ' p r s g m W m B z B m g z l q r g B E R B B B g S  .l i j g z m m k k k l d i i i g m j g j g l g j l i i g k m j i e i i g j j j i q g l k W H B B m j m H j q i s j k m S E W W  .W i r k m m m H H B B m m B j l S m B W m j k k k j d j m H F ",
"3 ^ F W H m j k z k z z m H B m z B j B E H B B W ] ] j i l l E ' m B B B z m ] E 1 g l m E B B B B m ' *.m r g s m m m l j j j j d j j j l i i j k z j l m j l z m m j e 9 e g k z k m g i k k z W H m B z j H E j q i j m m H W W ^ ' _ ' s i m H m S B B m m H S z s k H m m E B j k m S k j j m b S ",
"3 ~ k z k j j k z z E B B W E l j j B E E H z m E  .' l j m z W ' R E B B B H  .' q z z m B B B H B H ] *.k e g s m j l l l k j g g B j g g e i j z S z B H z l z k m g i i s z H R H W k g k j d m B z B H m U m i q s m H H H W ) W W ) B i i m H B S H m m m m z m s k W H H W B F m F F k j j m z z ",
"3 ) i s i e s z S F B E W W m g s g ' W E m z B W ] H l k B z E ) B ' B B W W ' E g k z z m B B H B W )  .g q l j m j k z z z k l m U g i i s j z b B m E W z l b m g g s j B W W E E ' b j j g s m F m S H E ~ B e q j B W K H S H H H W z r i m H m H H H m m z k H g z ) W H W H F m m m k j z H S K ",
"6 W 0 e 4 > e m ~ W H E W E k g j l  .W H S E ' W ' E z z k j B E m ] m B ) W E E z p j B B m B B B ) ) ] i e B m m B m m j l m W  .m s i s k m B m B m H E m k m B i i l m W ) W R H E k s j j k W U m m B S ) W i e k E ) H B H B H S E m i i m B z m m m m m k k S s k ) W H W B S S m F m z H ) K W ",
"3 k q q 1 1 s ^ | S E W E B l j z B  .W B B W ] ) ' ' B z j i l ' H ' B R R B ' W j 9 i m R H R E E ' ' ) i i E B m B B m B m R W  .j r i z H E H m E m m B m m b s s g m B E E E H H H j i s g j W E m B B H ) H i q s B E S S B S E H W z e e g g j j s s j j j k i 4 r S S z m k S H W U k s i j k S ",
"< h q q 4 e H $.O.m  .' H z j j m E  .' m z E ) ] )  .E m g r k ' W B E R j j  .' e - q l R E E E ' E E ) i i E R B z z H W W W E H i e s H B H E H ) z k m B B s 1 k m B B H B H B W H d e i i s H z m H W H H z 4 ; q s j j j k k K H W m q 9 r r g i e q e i g k 1 $ > g j i g i k H W b q & # & 9 s ",
", s q i u i ' $. .~ E B m B k i i g j g j z B E ' ' l i i i r z E z j z j l E  .R q ; q j m B E R R E ] ) j 9 q e i B R B z B E m j e q r l B B B E W m m E E j 9 > e j E U m m B B ) m s e 1 > r E s g j l m m i 1 > q j l l h k z H B k i 4 1 q q 9 e s k m l j g r q q i j j k m m m W H 9 ; 4 1 i m ",
"6 S e s e q z ) U m m l j l g q q i j g g k H W H B q 9 4 8 1 g B k z z l l '  .m 8 - 8 s z B E B B E W B r 1 1 q r k B B z z k p i e e i g l l m m b m B B m i 1 1 1 i m B B E W E B j i 1 > q g z g j j k m m i 4 q i g g s j l z z j j s q 4 4 q i s j m B k j l e e e j z k z B S m E S 9 ; 9 9 s H ",
"6 m k b i q j W z s j s g g e 1 1 9 j g g k E E m j q 1 8 1 1 g E z H B B E ] ] g > $ 1 i z B E H m W R g 8 ; , 9 9 g m B z g i i e q i p i g l k j g m E B i 1 > 4 1 i l m B W W B k j q ; > s j g l j j l z m s q g j g s g j z z g s d k s 4 4 r j j m m m z k k r i s m S m m H H H E S 9 > q w j H ",
"4 b j m i q j H j e z j j g q , 1 q j j l m m m z j j i i r 9 g R z E W ' ' ' m 9 $ ; q j B E E E R ] B r > ; , 9 e j m E m g i i i e g l g g z m v k B B l 9 > > 9 e i j v m B k g m g 9 > 1 i g i k z l k m m k s j j j j j k b b j g k H l q q j k k m m z k k k g g j m H m m B W H W K q 4 i i j H ",
"6 K w s q 4 j H l i m k l j i q q i j z B B z l k m z j g i 9 g E z E ' ' E l i 1 - 9 g E ' E E E H W j q > > 1 e i B E E m j l k z i l l g g l z l B m l s q 1 6 i i g l k m m g i k i 4 4 q q e g z k k z B W H m j j j j z m k j m z B W k q e z k b k k k k k z k j g k m z k S W H W H i q j g j U ",
"4 U q s r u F W z j z l j j g s i g z m E B z b B E j g j i e k ' S B H E z p q 9 q p m ' E B m m m m g q 9 9 9 i j ' ' E m k m B z m l g j g s g g m p i i i i s g i g j v z m k g k i w e i e i m m z m B U W W W z k k z m m m b B H H H j e i m z m m m m m m m z s i g z z B E H m H H s i j g j K ",
"6 W j b k b ) ' k g m j j m B m l j z z z m B H E E l j l g i B _ E B B m m l g p g j B E B m z z l j g i g g p j B E R B m z R B k ) j i j j i i l l s i j z k j g p g l v m m z b l j s g j j m H B m B H W ' ' W E m m B S B H K m E W m s r g k m m m B H H S B B i w i k m B H S m H H s i j i j E ",
"u *.m H H H  .W j i H k z W  .) B m j g i j R ' E m k j z l i m ) m ' B m S E B l j g z m z z B z z j g l B m j z ' m z z z m H H g  .g q j k i s B j g j m B k s i l m m m k l j j j m k s j H W B B B B H W W W ' B m m S F H W ) k W ) b s g l k B m m m B H m m H s q r j z m B S k m S s i j r g W ",
"w ( b m H E S j s i j $.*.] B ' ] q i i j B E E W '  .m s j z k H  .W W E B E W z e j k z m B m j i s B H k B ) E j H E m j z ' ) E =.j j j j z g z l m W  .) j g l m k s s k E H m k z m m m z m E W W ~ W W E H m k k b m H E ' _ H W H H i q m g U H H m B W ' W m q 9 g z z H S l m W H z k l j m W ",
"5 ^ S H W H m j k m ] $. . .W m E r s g j m B E W ) ' j i z ) _ U z B E E B E ) E j k m B m z j g g j B m B ' ] H z B B m m m U ' ] ) r p g g m z E W E '  .W g r i i g l k B E W E ' H m m m z m K m B H B B B m B k m m H H H K E H W E ' i 1 j i W W E U E E m j k q q j m m m z W W W E j r e i h b ",
"6 ^ E W W B j j m ' +.] B ) ' z B i g j j z E E ' ] B m l m ) ] E g B E E H H W E l k m B B k j l k z m B W _ ' b j k k k m m B E ) s 1 i j j m B  .] ' E ' B i 9 1 9 g H E H E ) '  .K j j b m m B j k k k k m m m g j k m m m k j H W E ) i & w i H E E H B B z g z e q j m z m B ) W W ) j q 4 r j b ",
"w _ W K b j i g m ) W S g S ' m E e i s k B ' ) ) ] H ' ' l i g m H E E E B E E k e r s k l l j k m R B E ] ) j r i i s d j m m B m e > i k k H E  .E E H B g 9 1 9 i m ) W B H E E ) k i g k k k k l l k j l m m z g g g j k k k k H H H W 9 + q s z m m k k m m k S r e s j k E ) ' m H W j 4 9 j k m ",
"a +.m j e e s z K W m W k z E E R ; 9 i z E ) ) ) ' ' ) B i 9 e k W H H z m W W s > 1 q i g j l k z H E ) ] B q 1 e i i i i l H m g e > i m m W H W B E W B r , 1 q H E W B m B R E m s e s j s i s l j g j m E m k k s i s j H E W E H m m 1 + e s i j z m B B m k l w q g j j m E B k m H g 4 q m k S ",
"w | s e 4 9 j H ) W z ' S B E ' B - 1 r k E ' ' ' E ) j e 9 i i j l m m j m ) ) s ; > 9 i g l k j k B E ' E g 1 > 1 r i i g z W m e 9 ; i k m ' B B E W ' m q > 1 e W E m j m U E B j i i s s e e s l k j z H W B j d e 9 e g S W W E W k j 1 - s s q j E ' ' H z s s 4 q g j s g g H m m z i 9 e k j z ",
"6 K e e q r k W W B m H z W W B z > 9 i z R E W E B E e > 9 i i i j l z m B ' E i > 1 q i l z m z z B W H j i 9 1 4 r s g l m m g q 9 - q g l E m m ' W E g 9 > 4 r B B m m B ' E m i r s d s q i m k B W ' ) E m s e 4 > q s m H m m H z j e q m i i z )  .) H k g g 9 9 s s i s s m S m j u q s z j m ",
"6 K w i i s l m S k S z g ' E i r > i z E H B B H B B e 1 r q > 9 m l B E B B z r > 1 q g l z z m m ' ) B i i i e 9 r i j m l i q 4 9 & 9 i i m z B ' H j i 1 > 2 e k B E W ' ) H j q q i j i q s ) m ) $.O.) B j i 6 1 > q j S B k j H m k s j ~ i j B W E B m z l E r 1 9 q r j B j B m g e i k S j m ",
"3 k k e w k W m j k j B k g m m k k E E H W E B m z e 9 > ; 1 r h m B B m H H j q 4 r s k z l j z E g z H B i 4 9 i s k m z j s i r e 1 q j k m m j j z i q e q 9 r m E ) H k s i i s j s q q g m m E H m z z k s e q 4 q s k j j k H j z m s i j g k B ) ] E m m m i i e 1 > e j z m k s i i i s j j m ",
"0 ~ e q i z E B k m g B z k E E z k B B B B B m z z i e 9 9 r g B B m B m B m i 1 > e s z k j m B E l B E m s 4 q s j m m k j j g i q 1 e l j l k j i j i r g j g B B H H z j g j j j k j e e k H H H S m j j k j i r e i k z k k k B j k m g s k k B E W H m l k m j g r q e g z m k j s s g g g j j z ",
"6 W e j m H H H S m j S B B ) W z k B B H H S B z m i s s g m R W H E E B B k i 4 9 e j B m z H W E B W E m r 4 w d k m m l k S z j e 4 i m z k k g l m j g B m l m m m z j g j z m k m l r i k H H m m k j j m k d j j l m H b k m S j m S j s k k B B B k j j m B m h i i j m S m g s s j z k j g j j ",
"< W m ) ] W m H H k z W E H ] W j j B B H E E R B B j k z B H ' H z H E E H z i e i s B W H B ' ) B H ) ' k e 1 w g z z j k m E B j s i k W m j m j S E z z U m j g m m k j g j z z m m g e 0 i j j k k k k m H m j j k m H H S m S W k m H d i j k k l l g j k B E H j i s z H H m s j l z k j g j j s ",
"w O.~ _ W k z E W k H ) W H ) B j j m B H E S H m B m m B m B R m j k m m m l i i l j E ' H B ) ' B E ) ) k w 4 i k m k j l m E B j k j H ' m k B b j z l k ' E k j m b k j j l k j m z s 9 9 i d d k m m m H W H l k k z z z m m m ~ m H m s w s j j l l j z B B H m g r s k m B m j m H B j i g B g s ",
"0 #.) W m g z W W m H ) W H ' S j k B H H H B S B B B B m b z B m z m m m B B k k E j S H B B W W H H ) ) z e w g B m k l k S B z j m j m W m b H m z H m B ' H g i z k k j j k m z m j u 6 e s k z m m z b m K m l s j k h j k b k W b H F s e s k k z m m H E B k m i e s z m S E z E W W k i j S g g ",
"6 | ) S j j m H H m B ) W E ) H j z S H B B B B H B W R B z k m B B B E E E ' H m ~ i j B B B H H H H ]  .z i e g B m l b B H m k z z s z H m m H m H ' E H ' m e q k k k l k m m z b j i u s m H S k z b m H K m s s k m z z m m m E m H H s u j z k m B H E W B B B i q g B H m E E W W ) H j j m g j ",
"w $.W z j z m k k z m W W W ) B j k E B B B B H E E W E m k j k z m H B B B E m j B r g z H E B H B S ) ] z e q i j z j k B S m k B j i j H m m H m k E B B W m i e j j b z z k k j m j s s k m S z j k m H W ~ H j s z W U S U ~ W H m W W s e j k j k m H E W W ' B i q j W E H B W S H ~ ' B k j g k ",
"& e q g 4 1 S m i S _ H E ] ~ j g l l k z m m H W ' W l u - 9 B m ' m E H B E ' m i 9 g H E B m B m m ) ] j 4 , i k m m H B k k m k i q k m )  .m m ) H H E z 9 > ; j l j i g m U H B j s j k k m H m ' W m H W m e g B ) W B B E W ) H ) W s u k H H m B )  .) ) ) j s g m W W U W H S H E B j s g 9 j ",
"@ 1 q g e 9 B b s E E B W  .H e 1 1 > q s s g b H E k s e - q m j E B E E B W E s 1 > i m H B B S m k W ) s > > w j m m m m m H S k e 4 j j b F j H S m U H i > - > i s i i s z B m S B m m k l k k k H W H H W j 1 l z m z b H W )  .W ) E i e g j H H E W ) ' H S i i g H ] ) W ~ W H K W k i e i q j ",
"$ e q g i i m z g W ] W W W j 1 - ; & e j j j W ) W r q 9 - q B l E S E E E ' B e > ; w l m z z m k k B B r > > 0 j j g g j k B k i 4 , w 6 q i i m b j j j e ; * 1 i i i i j B B m m E m i e i g s l m m k m m i > s s w r s z H E W m H z w 6 s d H W W W W E z j e e s m ' ) W W B H H B s 9 1 4 i j ",
"$ i i j i s m b z ' ) H m j e 1 1 q q z W m H O. .m 9 9 1 ; r E z ' E E B E ' R r > > e j j g s g d m z j q , 3 i z j g s g j k s 4 q ; 1 > < w q z k i w i i 9 1 1 s i i g j S H B B H g 1 ; q j j m z j g k m s 4 i r e e s k m S m j j s 4 6 j k m W W H H E k i 4 9 e j m m m H k z z k e > > 1 k S ",
"O q s s i d m m z H z j i i e 9 i j k H B z E  .H i e q 9 1 j ) B ] E E m S W z r 1 4 i j g i i g j S l u 4 4 e d k b k k k k k s q i , 1 < 6 s i m j i i j g q 1 q g g i s l B E B B H s > ; u z k m m j l m b s q i s j b m H H H m j d u 1 9 j k k S H m m m j e 1 4 e j z z k z j j j s q ; > q B K ",
"@ i i i i d m m k k i s j j k k m B m m l k H W k q g i r q m  .B ' E H z B E j e 9 e g l j g j z m B j e 9 q s g g g j k z h k s q e ; 1 4 i k s m s l E H i > 2 s j j s d z H H B j j i 4 4 w g s b b b B H k i 4 r g z H H H S E W z j i 6 e h g l m m k k k s q 1 q s m U S m k j s s s e 4 9 i k S ",
"- m s e i k k k k s s g k m U W E B m k k H W m j l l i g i E O.B W B m m E H j r r i j l l k B B B z g r e i s i r s s j k j g s e 4 ; 6 w s k s k j z E H s 1 e l m l l l m E H B i i i e w u g k z k m H m s e e i g z H B m m H H b k g i j F j m z m k k j s e e i j m W B k l j s i g g i i g g z ",
"+ i g i l m l j k d j j g g k m m l m j m ) E g g E j i j j '  .m E j l m W ' j i s g j j j m E R z j g i s j j i q j l m B z k k i 4 1 i d k b s b H j s j d i s j H m m m H E m k l j i i e i H O.H S H m j i s j z m B U H m H ) k j k j j W  .B E m m z z l g i j d j b b k j k j r e j z l j j i j ",
"# j j b m j k B z i i s j k z z m B H m B m B z m E g z k z ' ) W E B W B B E m p g j z E ~ H B E W m g l k i e g j m m k l j j g s g u g m m b B j j k g g k i i j B H B m m k m B l k j g s j k B F m B H F l g s B m m z H ' H l j j j k B E H H m H m k k b b k W j i l B k j h s j m B H z z B z m ",
"- E z z l s s j k g i j m m z z B B m m m m m m m U l B l z ' ' ' W B R m B E k i j H E W E B z z m B g k m i r j j m m m m m m m l k i j m k k m j m B m k m g i m B m m m m B B E ' H k i i p j m H B B m b k k m H H E W ' ' H j k b z m E E H m b m m b m F H m K j i j k g i g j k H W W m z z k z ",
"> O.H H m l j j j l s m B z m W ) U j l k m m B B H B E j l E ' ' ' W E B ' ] m g R ] ) W E B z l j k j m B i r j g m m m B K E E B m g l H k l m v B H m m H j s b z b m z m B E E ) E l i i j k m E W E H b k m U m E ' ' E H m j S H E E H B m k j k m k m W W U m s i g d i i d z H ) _ ' m j k j k ",
", $.B H F b l j j j j m B m W O. .H r i j l m E H E E E j k E ' ' ' ' E B  .$.B g W ' W E S z l j j j l W E e q s j m m m H E W U H B g j B l j m m k B m m B g i l z z k v m H H W B S z j g k S H H W ) W b j k z B E ' U m m m B U W W H m m k j j k m m H W W E m s r i s i s b W )  .) B g i i j k ",
";  .k b d i i d j k B H m H _ O.E i q i j k B W W E ) ' l l W E E E E B H  . .l r l B m m z j j j k k B  .R 9 1 g z B B H E E H B m H s s z j j m B z B m B E l i j m z m m m B E E m H E z k m B H B W ' B z j k k U ) ' m k m E ) U E H k g g j l j b F H W W U H k s w e i g z W )  . .W j e q q j k ",
"> O.B k u 4 w j H ) E E U )  .H e - q d B H W ) ) W ' ' j j m z z B H W ' ]  .l e i j l m z k l z m E E ) m 1 9 l B B H E W W E H H E i i k m m B B B U E )  .m i j j j j m B E E H W ) ' z j k z m B B B z k m B E z m l i s m W ) H H k i e i j l k m ~ ^ ~ ^ W H j i 6 q s b W | ~ ) ) m i 9 9 q j k ",
";  .m j e 1 u m ) W W B E ) E i > - q j ' ' ~ ) ) E ' B r q i e i g B ] ] ' ' m r q i j z z j k B E ) H B g 9 i z j z m U ' ) ) W ' m 9 1 i j k B m m H E ) ) l 9 q q e i l H ' E R ) ) m i q i j k z z z m m H E B e r e e i B E S H B j e 4 e j l H ^ |  .) ~ W H d e 1 q j H ' ) W ' ' z i q e q j k ",
"; ) s s e 6 i B B g H z B ) z 9 1 e 4 l ) | ) ' W B m j 1 > 1 > 1 9 g W E m m l e 1 q i g j g j B E ) B j i q g l 9 g k B E ) ) ' ) i ; $ 9 i j m l j B m H E i > 1 > 1 e j E ) ) E ) H s 1 > w j B g k m H E E B l 4 q q q j ) ) H B B j e q i j j )  .O. .^ W H H s q 1 q k E ' ) W ' W m r e r e j k ",
"; z e 4 9 i m H m k E E E m i 6 1 1 i m ] ' m m B E j s e 1 & & e ' H H H E j r 9 9 > r B E E W ' ' j l j e 9 q i i j j i m m m ] z q > ; q g s i j j g m E k 9 > > - q j k l B B B ' m i 1 4 e g j k m H E B g i i r 1 q m ' H m k ) W k i 4 q g H  .) ) ^ ) H b j q q i j m m H E m H H k i e i s z F ",
"4 E H z z H W H F H ' ' ' m g q 4 9 i l m j g l j k j g r 1 > q l E W E B m g q 1 > 4 i B H m m z m B E B g i s j j s j s B B m ] z e 1 1 i k j j m m z B E j 4 > 1 4 i l l k m B m m g q 1 q i j l m m m m l s r e e q i m W m b B E l u 1 4 e j B W W E H B z j s i e q s b m B E B H S l i e i g k S ",
"4 H W W H W S z S W ' ) W B j i e e j g i i i l j p j k i 9 e m E z E H m k i q 1 1 w j B E B z l j R E E B j j z j g z j E E S ] j e 4 4 g z m z m B m m m i 1 > 1 i j m m z m m z g u > > q g m m B m k k l j s r i i l E H k m E m i > > 4 s z m H H B m k j j s k s r j B E B m B H m j i r s j h m ",
"4 S m z k k h h F | W W W B j g g s j l g g j z z l z z g i j S E z z k l z j s i i i l E E E E S B B E W E z j j j k H m ] E m ) j q 9 q s m m m B m j k k i 9 8 e j z z m m z m k k e > ; 4 g m H E B k z B m j i s j m U B z m W j i 1 1 e j m B H W E m k h k m B j s z E H m k S H B z j s j z j m ",
"6 B ~ m j j k z L | E ' E m j k z k l m B B B B B B E m z z z l z B g j j m B m k k i m E E E W E R z H ' W B j g z m E B ) B k W g q q e g m B m H m k l k j i i l k l z m B B z m j i 9 9 i b H H E B k m B B k i j k B H m m z m g s i s g k m B H W H m m B E ) m j j m z k j j B B S H z k j k j b ",
"q H ] B j g j k c U E ) W m k m B m k B W W B m B E ' B m S z j j W j j z B E B l z j z E B B B B z B E ) ' B g j z z R m E k j W j i i s l m B B B z j l m z g j m z j l B H m l z g s s j m H S m R m k z B B j i l m H H m m z g j b m m k l z m B B B m m H ~  .k j j k j s g j B H E H m m k k j z ",
"6 m z j j j g s h m E ) ) B m B B m m B H E E E H U H B B l j l z B m B B E E B z k g m B m z B B z E ' ] ) m i g m m H z E m k ] z p j l z B B S m k l z m z j g l m j l B E z j j l j b B m B m B H m k k m m l i z H E m k m b g m B H B m k m m m z m m B E E ) k j g s g s j B E E W H B m z j j k ",
"1 s r i j b k j z U E ] ) m k m m g E B B H ' ) ' E k B z s i m B k E R E E E B B B g l z j z B E H ' )  .) l r i z R E z W E B O.H g l k l z z z l z k m B m j g g m j k H B l i i B B m z j l m E H B k k m B m m B W W l j k m m W H B m m k m m m m m m H H U W z j s s s s j B W W E H m z k l k b ",
"e j j s e q i j m b B W ) ' E B l i j B E H E E H m ' g r i i j W W )  . .E E W B g i j m m m B ' ' *.] ' ' z r g ' E ) ) W E ' ' E m j j l m v z B j S ] m B r s B m k z z z z B B R W g l l j W B z S m z m B H B B z k k m m m b ) m H W z k H m j U  .' E W ~ ) m e w s j m E B ' W W W H m k k z S ",
"q s 4 1 1 1 u k H W m m E ) ' W v g m E W B B ) ] ) ) j i g s B  . .]  . .) )  .E l r j m m B H ' ) $.$... .B g l ] ' ) ' H E ' ' H g i i g m m z H l B ) B ] j j m g j l m B B B H B W j z j s B m z B H E )  . .) i j m m m m B B ) m j k k j j s k W  .) W ~ ) ) k q q j B W ) E S B H E H z z k z S ",
"q s e q 9 q i m E U E B B ) ) k i e i k B B E ) ] ) B s i i i z  . . .$. . . ._ H g e g l S R ' ) ' ] O.%. .B j B  .' W H B E ) E m e e e g m B B B m B E B  .k s s i g z E W W W H B W j v g i B m k m m B W W k u q g B W m z m B H k j k m z i 9 m ' | ) E H W ) i 1 9 l H ) ' B m H ) ' B k h z k m ",
"w j j j i s j S U H W B E ) m w 1 4 1 i m E )  .) E z r q e q g E ' $.$. . .) E g 9 9 e i j z B E E z ' ] B i r g z S B m m E ) m g 9 9 e g B E m m E H E B ' r 9 9 s g l B E H m B F W j d i q m B W ~ ) ]  .) l 4 i k W H m k m m i j z m H k e 4 z H ) W H m H E w 1 q k S H B k K ) ] W j i r i j k ",
"w m i i w i h H U U k B ' ) j 9 9 i q g B W '  .] E m i e q q s B H ) ' W H R k e > 1 4 4 e s j z m j m z r 1 1 9 q m B B H ' W j q > 1 q s z B m l B B E m m 1 > 9 i i s g j k z m E ' s r 9 1 j z k m H E ] ) z q m H U m k F H m 6 m m j g e 4 q k S W E H H B B i 9 r m F B K B W ) ~ k e > > 6 s k ",
"w b q e e r j b S F j E  .H i 4 q s l m m z m E E B z e 4 1 1 i z m z z k m R l r 1 9 9 9 i g z B B B l i q 1 > 1 9 B R E W W B i 1 - 1 r g k B m l l l H z z > 1 r g i s j k m B E E E i q 1 > s g g k m m m z i 4 E W H k k B S l q H j 1 4 , > i k m H H H H B m q 1 q z m m E H W W B s 4 ; > 1 s k ",
"q j u i i i s h z z H  . .l q 9 r i z m z j k B B k j 9 > 1 1 i k j l j l m E z i 4 r r i j S E E R E g r e 9 1 q s S E E E z j r 1 > e j z z m m l g s k k z > 1 i g j j m H E E E S H u e 9 1 j j E ) ] W m z s r z H E m k B z s e H i > 4 4 4 j m m m m m B b k 9 > q k z k S m W m j r 9 1 q e s z ",
"6 s 4 q e i s j m H '  .) i 9 i j i j m E E W ) E z l 9 1 4 q s m m m k z H E m i q q e i l E E B m z e 9 e e 9 g ' B H S z j s r 4 9 g E H m z m z j i j j m 1 > q i i j m H B m m m B r e e q m B g z B j i e q q i m W F m m k i q m e < j j r j B m k k k b j s r 4 r H H m B z H j r q 9 q r s s z ",
"w m s h m S k l z m B H S j g l m B m m B W W E S H B e > q j z m H W E W ) E j r r i i s k H E E m g g i i i g z B E H B z k j i q q j k j z j i j l k m b s e q i j k m m k k b m B H r i i r m F k m m k s q q i z B F m l j s i u i i d j j h b m k l j j j k k H i i z z B W E z g s j k k k m k z ",
"w S k k b k k k m m j B W E H m m k B z m E W E E W z r 1 r k m B S W H B U B s e q i g l F E B z j g j l j j k B H m m z j j j s i i k j j k l g k j j k b j e w i l k b m m k k m j k e i g i B z m m z k j s g k h k m k h s s i s i g j k k k m m m m k b z k l E s s m B H ' E j s g k z k z m z k ",
"w m F m k j j z m b g B ' ) W E B k H z z B W W W ' j r 9 g B H H R E B z m z j i q g l m E E z j i r g l j j j l j l j j g s s g s j k g s k k j z j l k m j i e w j j k k k k j j s k i j k j m j m m b z z z b m i g l j j s s i j j j m m k k k z m m B B m k j H i g E H W W m s s j m H z k m z z ",
"s K m S b h j b S m m W E E H E R S B z k B W ' W W s i r g B E E W B z j z m z g r j l m B m k j g i g l g i i i i j j j g g s g g j j i i m m j m b k b m k i e i j j j l k k k j b H i h k j B j m z k z m m z k e g z z h j j k z k k m m z k l k z m m m z b j z s g H H B B g s j k H H z k z m b ",
"f | k G F k h z S H E W E H H E E H k l l H ) ) W E j g i g z B B H k k k m W W k r z z m k j g j j k B H j i i s j z m m m l j g g g g i g E H k S b k b m k s i s j j l k m m m b W U i s j g H k m b b m H m k s r j m k j h m H H m b m m m b m m H H B m k k k m g z W B z j i h j B W U b k z m S ",
"f | k F F j s k F H k B E ' ) ) B j m z m )  . .E S H z g s j m m m z z B E ) ) z i E m z j s s g j H W H g e i l m m m H H m k j j s s i j ) W m W m k k m k s s j b b m z m m B B H m q q s d U B k m H H E H z j i k z j g k U ' U H B H U B H H E W W B k j j b R k B W m k j i m m E ) W z k m m F ",
"s U b m h w e j F H z H )  . .' z i H B E )  .' S m E B j g g z z z B E ' ) ) W m r S z l g j l b m H ' B i w s z m B z m S B z k z j g i k ) E z ' m k m m k s s l b m m m m m H U B m q e g j W z j B K H H H H H s j j k k m W ~ W U W E B z z b m m m m k j k S m l m H k j k g m B W ) S j j j k S ",
"s U F m i < 4 h U U W ) ] ) ) E z i E B E ~ ] E z j H z g s j k m k E ) ] ) ' ' m i k g g l m B E ' W ) H s r g m E H m m m m m B H m j s z ' m j E H m m H m s s k k m B B m m H E F H r i k k E k l m H m k m W  .i g j k m W ' W E U E S b g s s j g j j j k S W j s l m s s z k B H W W z s i s s z ",
"u ^ K w 4 u e q d S m E  .$.) k e 4 e s k m k l k z E g s s s z W B W W W  .O.E r q s j m E W ) ) ] E  .) q ; g  .B B z B W W m z H W j r s l k z ' H k z E m i s H m m B B m m m m ) k q 4 s z i ; 9 s H ) ) W H k 9 s m E H m m b H H E H d 9 1 4 6 e e i s k m m g s l m k i s k H m j i q 4 i b j F ",
"w K b q 6 u e w d j H W  .) k q > & q s k j r e g B ) k j g i l W E ]  .) ' ' g 4 4 q w s j k m B H H z i > & i E g j k W  . .) ' ' m 4 - q B W B k W m B W m i r k b B E B B m m m H j q q r s q > q i j k m b g i > e k b i q i k k k m m s 4 1 4 i i s g k m m m m g s g i q i j m j i i i e i j h b ",
"7 C s w w s u s k j m '  .' k e 9 1 i s j j s g m ) W j i i e j ' W  . .' H k q ; 1 4 q i g j k m B U g 1 - ; i H j g H  .] ) W m g 1 > 1 s B B H ) m m H W j 9 1 e q i k m S E W E m i 4 q q 9 4 q g g j j k m s e ; q d g e q i h j k m m i 4 1 q d j l k b F S k H i 4 4 9 9 e j z s e i g j s j f S ",
"w k w e s d s b H b z '  .W g e e r q 9 q e g l z m B i q w r z ] ) )  .E k s 4 > 9 q i g k z B B H E i 1 > > e m m k ' ] E z k i 4 - > e m H B B ) j j m B i 1 > 4 4 r d z B H E W k e , 6 q 6 e j m k j z H H d e 1 4 q s b F m k k m H m i 1 1 e j k k k m H m j m q ; 1 q i g b b j s j k k j h j z ",
"u F u s h h j S ^ H H _ ] m q 1 1 9 i s g k m B m m m i q r s H ] W B H k s i q 9 i g l B E E B m B j 4 ; ; ; 9 g l j H U l j m j e w > > g ) ) j i j k H H g 4 1 q g k B m m k k j m e > 4 e u g W m k j k H H g q > 4 e l W ) K b k m F k w : < u k k b b m H H b s 1 ; 4 s g b H m m m m k s g h s k ",
"t G d f b z k m W B S W E j q q r i k H ) ) H B H ) j e 4 q e l B j l k i r s e e j m S E ' E m l j g 1 - ; > e s i l m k i i j s q i q w j H z i r m H W H j e q i j m H m k k j j m e 1 6 i d z ' B k k m U m s q < u m W W m H W j k m k e < q j m m m m H W E B e 1 1 i k k m H b H W H j i s g j z ",
"7 G m k z H m H ^ m m E B s r i k z i j m m j i d k r 4 4 4 1 e k j j j r q i i i z W W E K B m j j k r e e q i j s k j s i i i r q e r g z g r g H z B H m s e r g i j k k k z z z j i q e s k S H m m z B H k i q e j W ) W m F E b m S k w 4 i m m B H H H U H m q 4 e j m j b H m E ) U k s s d k m ",
"7 ( F s h F U ~ ^ m ) ] E s w i g s H m k m H B m l e 9 q q 1 i H ) j g q q g j j B ) W B m m m z j k l B k e e j j s r i j z k j k i 4 1 e i g j m j l k j u q i s g l m z j j j g i i r r j m H m k j j k l i e 6 k j k m E ^ H m H H m k e 1 r m m H H m B F k g 9 4 i m m l m W W ~ ) ' F k j j d k ",
"% Y d f U #.) d s U W k s q s m b d j d h b S S k j r i s i u d m B g j k k k k k B E H H m k k j d k H H s w i k k e i j b z k j j q 4 5 i l k k k k g j k s q e k z k k k j m m m k s i i j b b m k j k k z b k j m k k k S U H S B ) W i q i k k m W W m B H k w i e i k k k b W ' W W F m m b z s S ",
"o P C Y Y k 6 6 d Y K F k s j z m k s s j k z k s w r s s i i d z B j k z b k l k m m m b b b j h s b H m s e s j s g l m H H b k j 4 3 0 s j k h z k j k b s e i z m m j j j j h l s i s d k b b b j j j k k k k h h j j b H H H m H ) ' j i k W W m U ' H H U z e i u s k b k z U ) ^ ~ U S S F F s k ",
". Y ^ ( k < = a k f S F F k h h f j a d z C F Z f s s g k d s d k b z m b b k k z k ^ ~ H H K K F b z k d u i h k j k k m m m k s u : 4 u f b z h k k h j h s w e s m k k j h k k k e i s d i s k b d d j h k k h f d d j b C F b b K ) ^ k j F ~ W K ~ ^ K K G h w s e s k z k b H K W ~ F S F G G Y X.",
"  7 5 5 : = 5 Z P f F Y ^ P k k k k k G [ O.o.( ( | K ^ _ ^ U U ~ ~ | ^ ^ ) ) W ^ ) *.+.| | o.| ) U K b d s b ^ | ) W U ~ ~ ) K z s s h U _ | ^ ~ ^ | ) ( ^ U k h z ^ W W ~ ~ ^ ) ^ U U F k d z ^ O.~ ^ _ | | ( ( ^ F F ~ ( | ^ ^ ^ O.#.O.W F Y ^ Y ^ | | ( | ( G k b k b U ^ U ^ X.| o.X.| ^ ( [ X.d C "
};
