/* XPM */
static char *_10523ca8a2c4387c2c7f82f43cef7c0O2vzE6cjPLB1q4Md[] = {
/* columns rows colors chars-per-pixel */
"148 152 148 2 ",
"   c #26271E",
".  c #312D27",
"X  c #35342B",
"o  c #39362D",
"O  c #37382E",
"+  c #3A392F",
"@  c #363331",
"#  c #373833",
"$  c #3D3C32",
"%  c #413E35",
"&  c #424136",
"*  c #45443B",
"=  c #49463D",
"-  c #47483F",
";  c #4A493F",
":  c #4A4640",
">  c #474841",
",  c #4D4C43",
"<  c #4F4F48",
"1  c #514E45",
"2  c #524F49",
"3  c #4F5045",
"4  c #525146",
"5  c #55544A",
"6  c #59564D",
"7  c #57584D",
"8  c #5A594E",
"9  c #565551",
"0  c #5A5751",
"q  c #575850",
"w  c #5D5B52",
"e  c #5E5D59",
"r  c #615E55",
"t  c #615F59",
"y  c #5E6055",
"u  c #5E6059",
"i  c #626156",
"p  c #65645A",
"a  c #69665D",
"s  c #66685E",
"d  c #6A695E",
"f  c #716E5F",
"g  c #666661",
"h  c #696761",
"j  c #676862",
"k  c #6D6C63",
"l  c #6E6E69",
"z  c #716E65",
"x  c #716F69",
"c  c #6F7066",
"v  c #6F7169",
"b  c #727166",
"n  c #787367",
"m  c #74746B",
"M  c #79766D",
"N  c #77786E",
"B  c #7A796E",
"V  c #767670",
"C  c #797771",
"Z  c #777971",
"A  c #7C7C73",
"S  c #7D7E79",
"D  c #817B6F",
"F  c #817E75",
"G  c #817F79",
"H  c #7E8076",
"J  c #7F8179",
"K  c #828176",
"L  c #878877",
"P  c #83847B",
"I  c #88867D",
"U  c #86887E",
"Y  c #89897E",
"T  c #868681",
"R  c #898781",
"E  c #868982",
"W  c #8B8C83",
"Q  c #8D8E89",
"!  c #908E85",
"~  c #918F8A",
"^  c #8E9086",
"/  c #8E918A",
"(  c #919186",
")  c #93938B",
"_  c #91918D",
"`  c #95948D",
"'  c #98978D",
"]  c #96988E",
"[  c #99998E",
"{  c #919090",
"}  c #929291",
"|  c #949390",
" . c #929690",
".. c #979793",
"X. c #969795",
"o. c #989791",
"O. c #989593",
"+. c #959891",
"@. c #969992",
"#. c #979995",
"$. c #989992",
"%. c #999A95",
"&. c #999B96",
"*. c #9C9A97",
"=. c #999D95",
"-. c #9B9C94",
";. c #9C9D96",
":. c #9B9798",
">. c #9B9B99",
",. c #9D9B98",
"<. c #9D9F99",
"1. c #9D9C9B",
"2. c #A19F97",
"3. c #A09F9A",
"4. c #9EA096",
"5. c #9EA199",
"6. c #9FA19B",
"7. c #A1A196",
"8. c #A0A39C",
"9. c #A2A49C",
"0. c #A8A79C",
"q. c #A6A89F",
"w. c #A9AA9F",
"e. c #A09FA0",
"r. c #A2A2A1",
"t. c #A4A6A0",
"y. c #A5A6A1",
"u. c #A6A9A2",
"i. c #A9A8A3",
"p. c #ABACA4",
"a. c #ACACA4",
"s. c #ABACAA",
"d. c #AEAFA9",
"f. c #B1AEA4",
"g. c #B0AFA8",
"h. c #AEB1A6",
"j. c #AEB1A9",
"k. c #B3B1A7",
"l. c #B2B4AC",
"z. c #B8B4AC",
"x. c #B6B9AE",
"c. c #B9B8AD",
"v. c #B8B6B7",
"b. c #B7B9B1",
"n. c #BBBCB4",
"m. c #BCC0B5",
"M. c #C1C1B6",
"N. c #C3C4BB",
/* pixels */
"e.v.u.y.y.8.../ _ =...) ..../ Q Q  .T _ Q P S W _ E X.Q W _ <.;.o.) _ <.y.<.<.a.i.6.y.<.} W E T Q  .#.` Q W W Q Q W P Q _ Q W _ _ Q Q W R R T U R T T ` ....&...Q &.3.3.*.o.| ~ ~ _ T W } _ _ Q Q T P P G T W Q Q W o.~ Q } } Q E T ,.:.&.X.o.@.&.<.>.,.<.>.X. .>.=.X.X. ./ / Q _ X.#.E >.s.r.r.<.v _ l ",
"| | / ^ ^ / W W ` @./ W W E P J J T S E T v v E &.<.&.E P E Q W T G T W W T T Q T S Q E P A Z Z S J S A N k k m m m l m Z C V V V m W G A P T P G S A T T G T P S T W P S P P G G P G P W Q W T G A P P S P W Q W P Q E G Q Q T P T P S A A S G P T T E E E E E Q W J S Z Z A Z J Q T S Q &./ Q A e A g ",
"<.Q =.] =.4.] W E E @.) ) ) _ W E E J P T E T E ..r.p...) &.<.` ~ _ 7.&.&.<.6.<...Q Q ) ( W W W W T U T P S S U R T A V A P S C C S T S A I I G S J P Q R U Q T P W A m n A U P P P P U ! ! W R T P Z S G P R W T A W G G R Q T T E Q W W Q Q W W W W Q Q Q Q _ ..) Q W E W W E / &.E W W / Q A k l ) V ",
"6.E c N P / ) ^ Q ^ ` ) _ ) _ / E T E S W 8.<.P A ) E S T _ ` W W ) o._ _ =.<.@.) W P W W U P P S V m Z G S P E W T R S G W W S A P P A A U P C C S U ~ W U Q E G W P C m A P S V m A G W W W W Q _ P W ) Q Q ` ) Q Q P G Q ~ T R Q W Q _ Q W T P T T W W T T E W E W E E W E P P E E P T W S k k A Q A ",
"_ Q P S W a.l./ U q.W P W @.^ Z H ) J H E #.<.&.6.m ) ) W / 7.Q H / [ ) ` $./ P J E W W ) Q P S P ^ Z V C S P A A S Q W P T W P V g Z m A W ) ) U A W U R Q T A P ~ P U K Z A Z B P P P P P U W ) Q ) [ $.` ) ( ) ) W k Z ` ( W Q W =.=.` 9.&.Q <.Q S S S S E / ) Q ] E U Q W W ^ W P Q =.P g A W k Q w ",
"Q E E P N B / 4.` Q =.) E E ) @.E N / E J Q / } &.S P Q W H P E U P Q W W E P S S S U U W / W P P P m V A P T P P T P A A P W W R G P S P U W W W W Z P W ) E A S U Z P S S P S Z I ) ) ( W W ! ( W Q [ =.=.[ ` ) ( ] S S Q ) ) ) _ _ / Q 6.&._ q.o.P Q ) / E Q ..7.@.E W ..E A U / Z 6.U j P T m S W w ",
"E P P ) E c N W ;.q./ =.@.) ) @./ P E / W / P J &.#.P / <.@.W / T v Q ) ) Q W W E P S J U Q Q E S Z P J P W R P J U W P J P U P S J x A W ) Q I J Z m P Q W P S P U N S S S E P S P W W W U W ^ Q W I W ( ( W W Y W ) ) W W ) ) ) ;...) _ 6.;...7.`  .` / Q _ $.$.@.$.W Q ) W W W U W J Z m Z P T V P 5 ",
"E P P ) ` ^ S N W l.@.$.7.q.=.W / 9./ #./ @./ E =.<.;.Q 6.l.@.E W W W _ ` ` / W U G A P U Q Q U S Z E R W W E P P T ` Q ) T S A m Z k V I ) Q P m k J U T A Z P W W Z F Z Z P P S P P K P S P W W P U W P K A A P W N ` $.W ) W W 3.<.) ..6.$...&._ &...Q W Q @.` W ] Q W E W 7.@.N ^ j l H v S E v V > ",
"Q W W H A ^ @.J v H j.9.;.7.6.) Q ) 8.#.P @.6.=.=.W l.Q ) 9.Q Z Q q._ / ) ) W J P E P W Q W E J S J J P U U W T W / Q Q $.W S U V P P S S P P S Z A P U J V Z U W T A H m m H P K W U W U K K U P Z W W W P P P U U m ) / T ^ W U ` ..Q &.&._ ..@.) Q &.<.) U T Q ) =.Q Q ^ ^ ) W A m J l l W S k S V > ",
"Q W A A Z E ;./ c w U 4.q.` U ^ ^ E @.@./ 6.@.W _ Q @.Q =.i.&.W / &.&.Q T W U S P ) W Q W P S Z Z Z J P P T T P P W U P ..P S W Z P W P S U R P G G S A Z A P T P A A A b m S H P Q S P G A K W E S P U Q Q Q U P S ( W J S ) @.) Q 8.#.y.<.~ ..) W @.&.&._ Q ) ) W =.U ) 7.Q v Z ) m Z Z J T A V Z V > ",
"Q T m U Q W ) W A Z u W u.4.Q W ` @.J P / u.=.E @./ N / 8.p.p.6.Q W ) W P P P P P P ^ U P H P P A v P P U E T J A S P Z ) S m P k S G S P W Q T G S P S S T E J A A V B m m S K H W b m m m K W W P S K U W W U K A [ P P Q [ ;.=.) u.<.j.6.Q ) W E 7.&.) Q @.8.@.U ) T ) $.U N J ) P k P ) Z A E v A 9 ",
"Q E P W U W Q P P ) S E @.h.l.q.=.$.P k j &.l.j.9.V A ) W J E W T ) ..@.) ) $.&./ J ) J Z S R / P v Z A S U W W W Q S m / Z m P k U U P S A Z A P W _ T U W T Z Z P m Z m N S S Z P Z A C m A I P N U K P P U U W W U N W 9.$.] 6.) _ W u.&.W &.) _ Q &.<.` W _ ` ) E ^ Q H S =.9.W V E S A W J m Z S q ",
"W P P N $.$.P ) W m m k k j.q.=.u.q.) Z Q u.3.7.q._ ) .._ / <.&.@.=.;.8.6./ W ..$.) H / Q P U R J A P v P S P S W v S Z S P H m N S Z P W U P P J S m P _ W A V Z A m P U Z m S S m m W W m c U ) K ` P ) U W $.P U ` Q ) =.x.l.W ] =.&.y.&.W  .6.6.9.W p.T W <.Q / S =.T T A Z / S j S T T S A S v m 9 ",
"Q P ) k P ^ P U P A s P k 4 7.] ;.) ) @.E W p.9.) p./ ..) ..9.6.`  .<.@.Q E  .6.) S P W U A S J S U Z S U P k c Z S P Z m Z m m m P N S P J S P J S _ Q P A A S S S P U P B N S P A B K P S A P U P W W Q ) $.` W P Z ` h.9.q.q.] a.6.9.l.p.) ~ #.] W P j...E ) W 7.E P @.Z j V u k S E T T J J J A A w ",
"~ T ) p Z ! U S m Z m W w m 3 n.7.4...=.P J =.&.) i.&.6.&...8.<.) / / =.;.&...@.) W P T J S P P J W W ) m A m U m S U A m Z B x m Z m J P S S P P P @.Q Z m m A S Z U P A Z A A A Z Z M A W W P P W U ' U $.7.Q $.P S ` 9.) =.a.` / &.&.r.q.7.y.8./ ..U @._ W <.Q ;.T A W v k V p Z A J A A S J T S A w ",
"_ P U a H ) W H k m ) Z Q U q ^ =.a.9.P E ` T / <.W q.y...E Q / E E W &.q.6._ Q / _ H P P W ) U S W _ ` N N P ) A P Q U U W W Z m m S T T P S P U P S P P A N m m V P Z B F P A m m B m S W W P W ] E ) U ) ` Q &.) ;.$.=.W @.u.Q Z ) ..8.y.6.y.9...u.) ) W P q.` $.P P a V Z l / Q Z A A A Z S S S G w ",
") P B m U P S P B A W ` ) K c B 7 ] p.) ..&.W @.y.W >.7._ P E W E E #._ W Q  .@.W J P P P W / P m U Z W U m U B S Q Q I R ( ( J B Z S P P J H U U P A P W T S V N V P S A P P S B m m A P U U U ^ =.Q U ` W Q =.) 7.q.q.b.i.) ) / 6.@.9.l.p./ ) =.<.;.p.a.@.A #.) ) S J p S P V W T T T W E J Z Z S P t ",
"} P m A U x k P P U A ) b ) y ) w k ;.p.] E 6.<.) 6.Q <.&._ @.&...&.) Q W Q ) ) W T / E H P E S V W m B P k U m J S U Z N S P S Z S N A H A G U U J W P A S P S V v U P A Z N Z A Z B P W P K U Q ) Q U 9.) ) 7.Q 9.7.4.m.l.) W @.b.u.8.7.&.@.8.u.&.@.y.i.7.) ;./ A N p S J W ` V P A S E W T S A T A w ",
"o.T M S P k m U K U W k U H Q U 9.y A <.=.W &.$.W @.Q r.9.&.<.8.6.9.W Q ) #.../ W W W E P U Q P A W S m Z A P P P m G m m Z A M Z J m Z A S P W U K U A N Z S S V l S U P Z m B Z m A P U W U U U U Q ` ;.=.` ] ` 4.7.) p.u.^ _ ` 7.p.&...@.7.j.j.X.r...] 9.p.&./ v m k P S P @.J W A V S T E T S T M q ",
"o.W A H P N S W M S ) 7.c W ;.` W K k S u.i.W ) &.S ` y.<.W W / ..6./ P S Q 8.6.W N Z J W ) ..E A T x S W ` k Z S S U S S I U S B A m S S S U W T S m m A P P A Z V B W ` U K J A m A B P ) ` W P U Q 7.) $./ P ;.*.=.] h.7.U ^ / W <.q.l.y._ ..6.6.9.) =.p.i.P Q W A _ m N m N ) T ..P P T E T V A S w ",
"Q T U W P M k m m k m B K L L P K F W w P k.` _ a.` P @.>.#.&.&.....T @._ A T ../ P Q W W Q W T U E J U S N P W P A N Q W Z J U J P Z m m U ) T S A K Z K A S P P A H m K U B S I N K W ) I A K U K W Q _ 8.4.q.$.Q 6.=.$.@.^ W ` 6.;.u.q.) ) 9.6.Q ) / =.a.N.v w P U T P A J W W J Q A J A P W V Z A w ",
"Q W U A s p m K m w K B b k s k M F s P s z l.f.J ` _ ) ..&.7...#.u._ ) Q P E E P A J J W / ) U A m k P W S A A J W P W W S Z Z m C Q R P S Z m m B H m B m m m m m H m A F b B U S W U P P U ! U B W R Q ) ) / _ ) q.7.6.4.] ) @.8.9.u.u.6.=.;.<.&.Q U 6.j.* m ) k T P P T W W Q W ..P P E W T V A U e ",
"| Q Z Z m z b B N k U A z s d M K W m A k z [ k.q.) S _ &.6.@.P S Q 8.) /  .) P J E W E T T W W R P P T A Z W ..W A U S P W A Z P P S P P Z m A U Q W P P H S P S H B N P U A K W Y U P K P W ( U B ) Q ) T ) W $.;.` / / ` =.=.;.7.u.q.u.u.6.) _ @.A @.9.k , Z 9.A S S P E W Q W W W Z J T E P l Z T e ",
" .Q Z F S m s k m m z s p a s d k b K w Z K 7 P n.' Z q.n.l.6.Q T W u.)  .<._ P T Q Q Q W P U / ) ..P ~ Q P U W W / ) m P _ P S ) _ P ) ) U S S P P S M Z Z m Z B Z k M U W U P P S B P W W P H U W ;.) ` P ;.) 9.q.` W W ` 4.6.=...@.=.8.6.@./ )  .<.l.` 4 Q Z m A A P T P U / Q P Z m J S J P Z J T w ",
"| W P Z k p s b k a K K P P K B z s m B P B z m ) f.) 2.q.8.3...` 8.6./ ..@.T P E J A E _ Q W W W U P Q Q P U T W ` <.S U ` P Z W W P Q W U P T U A S S P A m M m m k B K K P A M m Z P ( ! P Z U [ $.Q W P 6.] 7.7.q.7.<.9.y.6...) ) 8.u.;.@.=.$.Q <.J p E B P m H U W W P R ` _ W N A Q J S Q T U U w ",
"..P A A Z m k k c m z b m m b d p i z K B F W M m ] n.) V P ..) Q 8.7.) &.&.U E Q m T ) ) E P T T S U U A A Q ` Q Q ) S P Q P A P U S P S S P Q W W ` ) $.Q P P A H S P A M A A N S W P P W W P U ) $./ W Q 4.;.=.;.7.6.7.q.u.9.<.=.$.u.i.6.6.u.;.E A 4 i U k Z ) Q U U P U W Q W W A U Q S Z W S S P q ",
"_ Z z F Q U m k b A b c m m B B m M d 8 p M z a a i a.7.Q W *.9.=.` 8./ &.6.W ) &.Z $.;._ U U ) _ W m W ` / T S U $.S P P T W P P ~ ` ^ E U P Z m m Q E ^ P m m m S U Q K B P P A U ] P K Q ` W U Q ;.=.Q q.` 0...=.) ) ..7.q.y.y.u.$.$.@.;.q.u.) P m c U k K s P A P J P P E R J A U A P J J J k m P w ",
"Q m m m B A B b a i k k z b b z s p m p d b d d k p 4 ` d.Q Q a.7.m &.J Q =.E  .<.S Q  ...` <.i.=.U P Q ) / _ W J P P _ ) W ~ E P ) A S P ( W S N Z P K U A b m S Q S I A A Q U A P ) P P ^ Q P P ) ..=.W a.W 6.Q =.) @.;.9.8.6.9.l.;.W U $.u.=.J v k m m W Z Q P Z P Q ) E T Q P m Q k m U W S p m A 9 ",
"W S k F W P b s k m k m k B B Y z w F F F B n M P ( P d P i.*.) 7.=.W &.T =.8.W =.9.W &...<.` P R A =.W R W P T Q W U P P U T T U G P ` _ A k Z A m W S m m B P U S Q ( Q Q ( U F U S ( ` w.] q.$.` ` &.K ` 7.` 7.Q W _ 9.9.$.7.y.<.W b.) P 4.J b e m k U A N W P P S ` ~ P Q ` W T U P P U T S V m Z 0 ",
"R A r F Q A y 5 r a k m d M B ! A b i p z M B B M B z m a F w.[ W i...@.T / =./ $.p.7.8./ ;.q.$...P ) S m S P Q ) W Q / Q Q / ) ) ) P _ ` P A P P Z P P S Z Z P U U P U S K W Q I W P ) W [ U ) ) 9.$.` E ) 4.=.9.4.9.=.;.q.q.a.u.` ` J 9.m.=.A , A A m S k k W P J Q ` W m Z P A Z Z P W W P Z Z P G p ",
"Q A M U P m k b z w b M d m b I A B z z d f M B M b m A s s ` =.W ` &./ W J W Q J / 6.<.E ` &.` $.E &.Q W Q W _ $./ T T P P P T E E U _ ] ( E U P P S W W P S P W Q P U N B W ' ) Q P W P ( P W W ;.<.$.=.=.@.@.@.;.d.=.@.9.r.p.y.@.u.$.q.P v k p ^ U S P Z A $.` U W W P P J G P J V S U W J Z A P P g ",
"_ A M A z r a Z z 1 k z a b d B b z K D M n M F F A K A P b a ` a.W 7.@.9./ ..<.T &.@.8.$.;._ W 6.y.T Q @.` P G W W W W U P P U W W W ) ] ` W P U W U _ ) I G P U W U W K A W ' ) Q W W P ` U Q U ] ) &.4.6...W _ @.y.$.;.0.$.&.u.j.@.n.U u Z s Z j m k B P K U U Z A A W ` W P E P U A V H P P A m G p ",
") A k A B r i m m i y p p m k B z z n B K L Y L K D M m P B i L f.q.W W 7./ ;.i./ 9.E ` ) =._ U ..<.S U ` ` T T ) _ T T U P P W W W ^ / ) ) W P U ~ ^ [ ` U P P P P U ( W P Q ! U R ) W P ] / $.^ [ H ) W ;.6.! 9.=.6.$.6.9.=.;.l.n.j.^ w U S a m v A k N Q U m Z Z A N W ` P C S m U Z N S P P Z m P e ",
"_ S m A m k m L K z i s a F m F b m K K L K B n M M m F m m A a z k.P / @.W _ $.W / P P A / @.W Q P / W / ) W _ @.Q P P S P T W W E Q Q ^ Q T U W ) Q ) ) U J K P K U W W ! ) U S P ) W P =.] q.] @.E ] P 6.u.] p.=.6._ ) =.6.u.d.9.d.- m ) y s N P ) U P ` U c P U P Z U ^ Z N P m Z A P P S S S P P e ",
"_ S m a r p Z L B p a k a F m A b M ! Y D n z z n n B K b M F i 8 P  .u.` ] 6.;.@.W  .Q P $.q.$.=.) _ W U P A P P Z Q W W W Q ) _ / U W W W E W Q W P Q ^ W P P U U W U P ` =.U Z U ^ ` W ;.) 9.$.$.o.4.` i.u.$.9.=.;.) ) =.q.l.9.H k 7 ` W Z S N c U U Z P N k U A P V P W A U ) Z m S U W P S S U T e ",
"Q V m m B A A A M m a p i m z B m F M M B F L L K B M b B A d B K 8 P ` Z P <.=.6.E $. .W @.@.Q 8.p.` / ` Q J P Q Q W P S J P T P P T W Q U T Q Q W Z P ~ Q P P W Q ` U P $.q.Q A Q =.q.` ` P =.=.9.) #.q.p.9.@.=.p.7.=.7.9.d.b.9.m k b.B s / H Z 9.Z W H P S P $.Z A m P W P Q Q v P P U W W P S P I e ",
"Q S s m B k m P P m B w k k P B b A b Y Y m K U K K b b M M m b m M k ) q.q.@.) @.W ~ ..=.=.4.<.&.Q ) W ) P C _ ;.P P Q ` W S S U Q _ Q Q W W W W / / W U U W W Q W 8.W _ / W J Z ) 7.9.Q  .7.@.7.p.q.$.$.q.q.<.;.<.q.) p.p.q.l.w m J N N H S m A U Z P W U U U P P ` m s A Q W U P V P P G G I W U W i ",
"Q m k B M k b A B d P d m k A A b b P ! U K K L B B A A A B M m M A m w / M.$.^ a.;.W ) &.=.9.p.&.U &.` ` E P $.y.W P P T @.q.9./ S U W ` $.` W P H / ) ) ) Q / ) _ ` J ) U U / P _ 9.9.W ) 6.$.u.l.6.] $.q.9.4.6.8.7.u.9.7.N.k m U N S P U J A Z m W W P A Z P W ( W P U W P S P Q Z m M S S C M V G e ",
"W k h m b z b K B k B z M p m K b i L B B K B D F A A A B B M n m B S i a ) a.0.` ) <.) Q ) 9.p.6.Q @._ / P P $.;.U Q Z v S ` $.) U Q / @.$._ W U U W W Q Q U U Q ` Q Z ) S J 7.U @.W ) S W =.$.7.9.;.) @.9.8.4.7.7.a.E l.l.V k m Q k P Q I K K M j A S K A S P P F Z P W U m k A P F m m G P m k m C t ",
"W v i k b z M P P A d i z d B L m s F d m K m M P A B A F A B M B B Z Z s a ] h.) W a./ U @.p.y.@._ _ ~ W U T _ ) S / J V Z Z A W &.` ) / Q W W W W W P P S A J Q &.` A =.P U 8.P ;.W ` U ] u.u.a.u.7.` [ 6.7.7.7.=.a.W u.=., P m U m S U P S A B m m A P K P P H B S A Z m m Z Z k P Z Z F S m m Z S h ",
"Q Z k m M m M A D M b p s b B W F U F b F L m B K m F K L P P K L P m m ) B p ) a.a.q./ W 6.j.q.Q P ) ..) W _ $.Q P U W _ @.Q U E @.P T E W W T P J W E E W W / ..;.$.P 4.Q E $.P 9.@.;.W ) q.y.j.u.9.$.$.;.7.q.6.` 7.M.P w ..k W P Z Z A K A m B F W W P A Z P U W U S m m A U P m K T U Z m m Z Z P x ",
"_ S A K K B b k a p B s p k z K B ( b m B F A K P B B K P P P L P I U Z W B m P U b.p.8.@.) ..&.) T T ~ W T ) ` T T W W ) ..@._ W T U E U U U W W W P U W ` &.=...) Q P Q Q W W W 6.Q $.E / 7.;.7.$.7.4.6.<.;.9.7.) 7.7.k k ;.H S E S m N H J m Z U P U U K S K P H S Z Z C m S P K P Q W C m C S V C h ",
") Z F F F A b k p i b z z z s A d m k M m M P U K K M F P P K B A F Q K B k [ U 4 ` i.i.<.Q W _ ..Q U Q P H Q W T Q / W U P Q ` Q A W Q ^ Q W W / ) A P W Q ` @.) Q T / P W Q W @.) Q 8.$.7.l.i.q.=.<.q.i.4.` =.4.` R u k ] k ` Z S S S F F S S S P m P U U K S B m A m m Z m l M P W W P A Z Z V m m i ",
"~ Z z b m M M M m b w b F A b U d w A L B B ! Y B S B K U U F M B A K w P U W P w Z E $.q.q.*.#.) W _ =.W J / ) W 6./ ) ) W ) <.) A N P @.;.` W P S S J P P T Q ) ` R 4.P W ) ) p.Q J ] Q [ u.7.9.=.$.i.l.;.Q ) =.$.4 m k P W k ;.m Z P P Z Z P U A P U U A m A U W U m m H S m A W ` P M G P Z x k P g ",
"P A ( A d p p a p a b F B B B p w b P F B M F P L F ( P A A P P S m K P K P P W U P x P ) 9.a.q.9.` ` / W E W Q Q W W T T / ..} E P W / ..=.$._ T A W ) ) Q ] &.) @.P <.7./ W Q ) $.4...=.W 6.$.9.` l.] i.i.B q.j.w z S P U U P S S P P P P U U H m K F I Q U A B A W m m P P S A A S P G C m Z m a P p ",
"P A W A b z k k a p B K B M B d r b A B B M B B A B F U ) ( K M M K P K F P U W W Q S S W W $.q.&...A E ....W S P Q _ U S P W Q W W ;.Q U E E P P W E W T W ) W E ..W 6.=.W / ` ) _ ..) ) W ` ` ] Q W n.;./ a.=.i k k A U U U P Z B P K K P U U P A U A Z P W W P S P P P S m m P W V C U Q A i a P A i ",
"S Z ! F m z s z b b B F B B B z d M m Z F B M M A A A U W P b z K [ P S Z P I U Q ' ( U H Z W &.) Q $./ W / Q W W _ _ E J Q _ Q Q ) $.P m S A m S ) / R H W ) P P &.W 6.=.W / ../ W ` ` Q ) ) <.=.;.;.9.] 7.$.k 7 P M P W Q W U K A P K H K P U U P ! Y F P U P F A P Q ~ P m G W P U Z A U P x x P m e ",
"S m W K B b z z z n b b b M M z k m m A K A m M F K K F A m m F Q =.W F B P P U Q =.0.<.W U Q $.;.) y._ T Q ..}  .#.Q W / @.@./ W Q P J U W U S P ~ / Q P E W P P $.E 9.6._ ` ..) ) ) ) U ] Q q.7.u.u.@.i.7.p i P S K U W W W U P P F K F K P U U U K U W P M m A U W T T W W ) T m P P A m Z T P z m e ",
"G m P P I P A z s p p i k n z k f d b A K A M B K L M A K P U W Q W ` Y K K U I ! 2.( ` U H P W ) W A P Q @. .W ) <.W / ) ) W T E W S _ 8.&./ Q Q W J W T P T E P W U <.7.) ..;.` ) $...T $.Q 7.;.p.^ n.q.k b W P b P P K A K P L P P K P P P K P P m F P P B B U Q I A P Q ) ~ I S b P W Z m A S m S g ",
"G m =.) U B d p s z p i b M z f b d n B A B M A K K P W W P A K Q $.' ( U K P U Q ) K P I A S Q W U S P T W / ) ) ` _ _ _ W E W Q / P =.9. .U W W U S ^ W P Q ^ W T P $.$.Q ] ;.` / 7.$.W ) ) $.$.i.q.=.k w ( U c S K K A B A P U P P P P K K K F P K P K K P U P Z K C F W P P ) 6.P Z m S P A C A P k ",
"P Z 7.) K k 8 8 k B z p b B k b B d b m m b m A A m U ( W A b M W =.W ( W K P W W P ( ` [ Q / ;.` W _ Q U J / 7.=.W _ / W Q ) ) _ / W Q Q W E P P P W ) Q Q ` _ W ) J $.$.W ) ..) Q =.W W W ) W [ q.q.y 7 Z U c N P F H F K K L L A K K K H S S S H W U P K K P B k S S P S m S ) 7.Q Z z Z U P C m T k ",
"P S F F F B k p p d k y k M p k B s b m b k m A M d z A U U P K K K U ( ( P P ` W A I Q P K P Q W N Z Q @./ / #.@.W W P J W ..@.W P ) P P ` &./ W Q =.Q U W _ U P @.U 9.q.) Q ) ) ` ;.W ) W ;.Q 7.a.8 i U U A A U k m B A K F K B b A A A Z B B A A m A K A m m A K F P S m m R ) U m W Q Z l Z A m P g ",
"W P P m b B z p k b p b z s b b b m B r Y z m P b k B F F K W L F U L ( ( L K L Y K Y U I U Y A B U W S A ) W U 9.@.A Q ) E ) =.` ) / W W E W T U P E _ ..W P E Q Q U ) ) ( ) W P Q ` $.` W ` 7.) m y k S S Z B A K A U P m b A P B S H K S G P S m P m S B S W K U P Z P U P W ) W m m W M S m S p m k ",
"W P P M B K m s d k p b b k m m m A k w Y b s M b F B A K K A M A K ! Y Y ! Y L K F ( ( W L P B n S P W P N =.7.Z ` 9.) P W 6.` W ..) Q W W W W W W W / _ W P U W / Q ] ` Q W P P ) q.Q =.` Z ` ` > m B A A S K P P U I K N Z P L P K P K J P P K B S A W P S K B W H A U W U U W P C C U m m m P l m a ",
"Q P K m A K z a d z p n m k b m M A F k ( B z n b P K B P P b b K K ( L K ( ` L B B b F B B K L P W W P ) P P &.Q U ;.Q J W =.Q P )  ./ Q W E T E Q W W Q Q T P T / U ^ W U U W ' a.` q.U U 7.A 4 B U S B B H U U K Q P S H P W U U P P K H K U P Z K B U K S P m P Z Z P W P P U Z Z Z P m m m S m Z a ",
"W Z B z M M p i d b p z d s k z b M ' M L A B K B A Y M U Y b M Y F Y K K Y ! L F F m K B M F K F K U ( $.` b m 7.U S _ ) Q / Q W ` @.) / W T P T W Q E W Q W P U Q ] =.) P P S E ;.` ) ) ` P s m Q U S m m A P P A W S B P W P P U P P K H K P G Z W m Z A P W m m Z m Z S Z J R K S Z S M m B A k A i ",
"W m m z M m p p f m d b s p k b b B U b m B A Y K F P n K L m F ! K M K L K A K L K b K F M K U P U B q.) P I m A ^ Q ;.$.Q Q ) ) =.<...) ) W T T W Q W Q ) Q T E ) ) $.( K P J I $.Q g.q.k i P ^ Z A A Z A S P F A W K A P U S S U U P P A A S S Z U m B A P W m m S m Z S m S W U P Z m m k m M k B u ",
"R m m m A A k k b b K K m k n n z B B B A I B L L L B b M A n H I A b K P M m F K A z D B B Y ! ( [ U U Q U W ^ m Z a.@.J P / W U ` ;..._ ) / W E E / Q / _ ) W W / U ^ W U ` =.7.a.=.n.P , B ( m m m Z K P K P P P ` U K P P S S U P P K A Z A A Z A m U P Z Z k K S m S P A K T P J m k m i m m m B w ",
"W m B A F A k s b k K K B b m m b B F L P ! B L I F b B M m m B B F A K K B D A B n I Y L K Y K F Y ' c W ( A ! U k $.Q P Q $./ U / &.) / ) / E T E / ) ) / W / / Q ] 4.` ) ' ] ) =.z.a i S k m W k Z Z A P U U P K ` W P F P P P P P P S A A A A S m m U K m m k P S m A P A S P Z Z m h m a m m m M i ",
"W l A A B b i r k a b m z s b b m A A F b P F ` W b k F K M m m m K Y F A Y W K n b F F B F U I U [ P ` A A W N Z S k ) u.w.p.a.6.@.=.) / ) Q E T E Q ) _ E T / / E U ) Q U ) / ^ ` P p q k Z m m F A B B K U U P S W U P K U W U J P K H A A A S A A m S Z Z Z k Z A m m A m m Z m m k k P x S v k A e ",
"S N m m m m m B m m B B k B m i b M A U ( P B ! ^ A K U Y B n M F K Y B B L Y K B B I U ( =.` K A U P W ' I m S W P S ..` 0.0.` ;.W Q W G W @.Q P R E _ W S U Q ) 8.W Z H ` ] W ( ;.p h b M A S N b S S A S H K F S S P H P ^ P Z S S B A P P P A B E J U A k a N V S m k m G W S k m m m S j i M k m a ",
"P l k b k s k m B F b A b m m k K A F P Q P A L P b B H K B n n n M W K K P K m b B m B P ( ! P K W ( ! ` [ W N Z ^ m U P ` 8.' =.T S &.&./ ) T S W J W Q E E E U W ` W ` W F =.` 8 s M U P Z m A U U P S Z Z S P U c m m A W U P W A A S A Z S A A A Z S S k m A Z k m Z P U E S m m x m P V k A k M k ",
"T m k m B m b b z b I ` K b s a m a U K P P B K F M n B B A M M b b A A F K M z b K m A K I U U U Y W ) ( ` ` A c P Q Q P ) $.( Q Z S p.p.` &.) P Q P W ) ) E U W P W ] P P 0.Q w a N Z A S S K S K K P P A B A H U P K A K P Z m m m A S m b Z S A m B Z F z F F N m Z S S A S F S m m m S Z m S k M k ",
"R m m B M b b z p i A P m k k b P F Q F K K B A S F m M B B B M B B z b m M n b B P A K P K P U U P S ( ! P L W S b W P Z U ` ] @.$._ u.` W <.&.J E W W ) Q J T ` Q I W B ) q.a - W K Z m Z P P P Z m A P P A Z Z S P Z S U P F K P m K P m b S P P S S A S m F S m m S G Z m m N m C A m V m k Z m m a ",
"T k M B b p b m b n m M z A S M I U ) K P L A A A B B B B B B M B K b b b b b m A P F K F M B P P F P P L K P ` ( Z W H F K E Q ) 7.6.$.P S _ W Z E Q W Q W A U ..) =.U 2.' w i P k m P W U S B H U B S P S Z N Z S P M H W F S P P H W U Z N P U I U S P m m M F m m Z P P J Z k a m G m V m k m m m a ",
"Q l A K b p b n k b z M m W W B K S I F L W K F F m A B A A M b M K B B m m m M M M B A A Z F U Y L ( M B W W W ) ^ ( P W P S S Z W 8.@.) ` ) J P $.W Q ) Q U W / Q 7.W W m 5 m ) k Z S K K F A A A U P F B m N P U Q A P W B b A Z S F S Z M A A Z P B K V M m P m Z Z A A K S m k p G S P P m l k M k ",
"Q m k A b p k d p k i b m P W W [ ( I U W U A K K m M A L L B b z B B M M b m m m z B B A K P Y Y U I A K ^ W P U ` W A U K P U A Q ` ) 8.p.) W ..$.U ) ) / ) ^ Q Q W S 6 w P K b W S m b B P P Z b P P S Z Z S K P P k Z W N N W W A m m Z Z m c z S m Z S Z Z P S U P Z m Z S K S p P C S U m m x m k ",
"Q m r m k i k m B Y A ! K B A W =.( ' ) ) F z A K b z B Y Y H c d b z b z d k b m b B B A K P K K K M ( ' K K P L Y 0.W ) U U W b S Z m &.y.Q ` <.P S ( W U Q Q W ) F i 4 k P A m K c m H P S A H U m m S U U U G Z ;.P W ) m b P P U m b K U S b m M m m U B A A Z S S S S A S A B k G k k A m b m k a ",
"Q S s k s m K W U k S b W U U H ) S B U ( W P K B z K K A B A B B m A m m m m k c M b B B P K m K F Y M P 7.[ P K K ` P K ( ` ! W W $.P U ` ) W ( ` U Q U Z ` C U ;.w p k m m B B k Q m m W ` U J U A S K P H Z B Z B Z B b N P U S m m A P S m B W m m B Z A S Z m T P S S S S Z m k m z m P U m m m e ",
"~ G a m K U A P W S P K P W U ) ) W U P P P F m m A B A B B B A B B m m b B A N m b Z K B P L A P A U K Y ( W Y P B P U W ( ` ( W P W Z B P W ] ) S ) P ` W U Q 2.p s b A A m B A B A P P S P ` ~ P Z Z H S Z N m Z A A Z m Z P K Z m A S A Z Z S U A S A S S S A Z P P P S S S S A m M m z Z A m x Z p ",
"Q Z 8 k B B k b A k P Q B W S ` P W W A B K A z m U F A B m m B m b m k k B F F Z m A A b P Y K L B K W ' W K ^ ( B K ( ] W Y Y K b P F S N A ;.=.Z U ) $.W =.) Z w k M K A b k m B m P U m A ` ` K Z A A A M m m Z A S A A A P S m C H A m Z P P P P P J J P P K H S F G F S A A H A S m m N Z m m G g ",
"R v m m m B B K G p P Q B F I ! M F I A Z F B b m P K K B m m M m b m m b m A F K K b m k A P F P A B P ( Y K ( [ P U ` ' U H A S B ^ ` ) A c U / S m P Q Q ) a - m m m A B k k c m m B B B S P U U S P H A B m Z A S A A A S K S Z Z Z m m Z P P P U P P P P P U W G H S S S B B A A S m m V m m C U g ",
"W m K B m B A P P p I Q W F ;.W K K Q W Y B b m B Z Z A B M Z A A N m m m m m B K U b M z A K B P K m m L Y L Y ( U H P W ! U K P ( ] ` @.W Z A P S ` B [ 7.c y k K P A A B m b m b A m m S F M Z U P K S Z m N Z S S A A A S S A S S M m m Z Z S U P U P P P U E Q U F Z A A Z M Z Z Z m m Z m z M T p ",
"~ Z m Z M B b B K k U P ( P 7.W W P ( ( U n z B K P B Z B M m m k s k m A S B Z A H Z S m F F M U U A M Y ' ( U ( ^ B B P ` ( K A P ) U Q $.` ) I Z P W S k 7 m m k P B m B m b m b A S A A A A S S J S Z m m m Z A P S A F S A Z S P Z m Z Z m B W P P P P F A P W U Z m C A M m Z A Z m m S m b m P p ",
"~ m m A S A M A W K P B F U W P W P U P K A B B F P B Z A B m m k s m Z K K S S A B P K b B F B U U U K ! 4.` W ^ W A K U W W P A m ! U ( 7.4.[ ( F H =.p , p U m m A b b M m k m m S P P B M P K M H A Z m B A A A P A Z F K A Z A F H P S Z m Z U P P U U P A P U P C m C Z m m Z K Z k m S Z m Z A u ",
"Q k k k a s k Z P m P M m W m U W U P B A Y P m k B b N F P U U W W S H S Z A P K A U H s m A A P F Y K W ` Y U U A A U U K U [ ' U P R ` ' W ! ` ^ W m 5 s 6 Z U M m b m A m b B P S P S N M F A m S A Z S P U P S K V m A S A Z Z m P U S m Z Z S S P U T P S P W U S Z S A m m G S m s x S Z m Z C e ",
"W m N K m s m G S S K K P L U W W U I S W ) K S P k B b z A W Q P m W W ` ) P U P Z Q P m b A I P M z B L ( ` ) ( ) M A P W U U U W Q P U $.=.( U A k d B c k m k k m k M Z k P d N P Z B P p S P S W S S P Z k v S m P W P S A m m m U S Z W W K R P m P U m A ) U B U W U S S A k K Z Z A m m m S S g ",
"R k I L N b A A B K K F S A K P U P P I ) W A B F A S A P P U W U U ~ U W W U W ! P W U K A P U U A A K I I P S A P P K K P W U U W ] Y H A P U S k * i m b k m A M m m N m b F B U W P K W k A S B P C Z A S N m m m S P J P U P m S W S m T I Z R U K E W P U Q Q K I U K m A U P A Z Z Z m k m S Q m ",
"W m Q K z m K A m P P P A A H P P P P U H B B B m Z m N S A N B P W ) U P W U Q ) W S S A Z A S A B A P W P K K P W Q I K P U ! ! Q U W ( ` =.;.A > 7 w a K P b m m A F A B B z A A A A Z U s A m b S N m Z P I S k S P P A K U Z a m U P P ) W M A S U P P W U P W S U P S N K ) ( A Z Z M m k m J W m ",
") Z A M k b S S B P P P P U P U U U I U k p Z F k z B P W U P P W ) ) U W ^ W W Q W W U P F P P P A A P W Y K P U ! W R P U W ! ) ` W W Y W Q Q S p m k p m S A m a b A S Z P k S k B P Z W Z W K K m S S Z Z P S m T W T S S P A k Z S A P ~ W S A Z W Z m R P m U Z F S K S P W I A A A Z m k m P T l ",
"Q m b A M z S Y P U B P W W U P P P W ! M s Z H m m H P U Y W U W Q Q T ) $.Q U Q ) ` Q P P P U S m F Y ) ! U P P U U W ( ( W Q ( ` W ( ` ' W A A K k B b 5 w I U p k Z B B W N Q m B U B U P ) P P b H P C m B A Z P W U P S U W W ` W S A K U I P M R A N Q W Z W P F B A A S P Z S S A S m m C P R x ",
"R k m U P B P Q W I M F L Y Y L K A K W L B m m Z P K K P U U P P S P P ) ;.) E ) ` ' W P U I P M z Z P W Q W I W W U ! ' ` W U W Q W ) =.0.` B b K B z m a i p b U K U K m K P ) P m P b A B P k m P P Z C S I P m P W Y P S H U T ` W Q ) Q W P m S U G P W W P P W F M M M Z P A S Z Z B m m Z U A k ",
"R k Z U P K P P S U S A S P U U P S K K P A m Z I U ~ ) ) ) ) ) Q W Q P Q $.) W ) ) =.) ( ) ) Q U U M Z F P P U W W ! ( ( ( W U U I =.` K b s a m W W b m K b 5 r U W W W K Z ! P S K ( B K P W b B Q P Z P ^ ) E H P P U W P Z B Z W U ) *.` Q U z P A P W U U R S P F A K S A P U F Z m m m m A U A l ",
"W m B A B F P m m P W A m A W ` W P ) Z B B A ( o.F W W ( ^ Q W U U =.W W ` _ Q ) Q W W U W W U W ) ( W I L P P R ! ) ! U U W Q W P W ! A k b B B A b U B p p m B 6 m S W P A =.S A P ` K I W ` A U Z S W ) W P U ] A Z S ^ ) U S S ) P P P Z U ` Q Q A U ! F U ` P Z S U ( R P I U S m k k m M S U W V ",
"W m m B P Z m m A F b A P W ` U B B P P A m Z U ) ) [ ` W U W I U ` ) ) Q W W $.$.` P S W ` W P U U I U W Q ! Q W U W W W W ( ` ' ` 0.K p p n m M M n B m m F A s i z K ! W W P K W K I U P P F A S S U U P P T U S o.) Q Q Q Q U S m K =.Q Q $.W P S P F B M S U I b A K A m m m m F m b A m m M W P Z ",
"W m P B d k k B Z A A P K L ( U K U Z H P P W ( Q U ` ) U W ) W U ` [ $.` ^ ) [ [ ` I W Q ) ( P P W W W ( ! W W W W W ` ) U P ( ' [ b b p p d n m z k B A M A B b m A I U U ! W K L P W W U U F b k Q U S S E ) / P ] ) / ( Q W S m W I ` W Q =.W P P T W E R W U P U F Z B P U P m S S m b k m G W P A ",
"W m m c k m M B m k P I K K U Y U W N S P W ) ` Q A W W U Q ` Q I ` Q ` ) ^ ) =.;.$.U ) W W ) U S ) W Q ) ( Q W W Q W ` ` W W ` ( L 5 s b s p b M b s A A M m z z B A K B A W W K K A P P P W W P P ) W S S W ` ) W W W / ..$.$.Q T Q P W U U ) P U S U I W W U F Z W P B Z P W K k B m a p Z W U k P S ",
"Q N i k B A Z b m b A P K K L K A K U J S K W ) Q S P U U Q ` Q W @.P W Q W Q ' $.$.U ) U P $.W Z ) U ! ) ( Q W Q Q ! W W ` =.( N p s n B z s k M B z A A m m s s m b m d k F I K P ( ! P A S A Z A U W Q U U E Q Q S U ! $.;.$.) Q U S W U P P A ! U P G S P G A V S P U P S A A Z m k k z U W G a P S ",
"W m b m m b k b B K M F A Z Z m k B W P Z B P ( ^ U S W W W ^ W U ( U ) ) Q Q ) ( W U ) P K $.( A Q U W ) ( Q W W ) W P Y ' ! z w w M m n M b z b B N A B m B m k m a z s a m B A W ! Y F M Z A A P S W ( ^ W W U W U W ) ) Q I S A W P ( Q W W P ) W U P P P P A Z G W ) W H S P I N m S F P Z F I G A ",
"T k N k k b Z A N b m A B m m k k A P P S K W ) Q U U ) Q U W P H U W Q ) ( ^ ) ) ^ ) ) U W $.( S U U W ) ) ! ( ( ) ( Q ) Q m 4 8 B z d d B F m z m b b k b S A b m k m m k k k m U A F F K W Q ( $.P P U W ` ) W H Q ^ ( Q W P S A W P W W W ( P W E P P T W P A m U W I P P U U P W m s b G S A P P A ",
"U k k s m Z I A b p m B m m Z N m U S P P U Q ) W P ) ` / U W U K U P W W W ^ ` @.) [ / Q ) ` W U U W Q W Q ^ ) ) ) ) ` ^ B r 8 k K s s d b M B m b c b k m K A b b z A B k k p a Z W ( Y L L K F I W P F U ) ` Q P Q Q Q W Q Q Q Q P S R P U ` I W W P F U W U S Z P P H S K U G m U b t k P W A k Q P ",
"W k b m m M b b b B k m m N P K A L J P U U R Q W P ) ) W W Q W U ) U W W U W ^ ^ W ` U ^ =.) W Q ) ( Q W W Q ( ( ) Q ( A r w b M k b m z p p m B m B A A K I F b m b A m k s i p m A A N b m b M U W U P U U W W ~ Q W R U T W Q Q J U ` U U $.` $.=.W S P W W W W K U W P S A B m a S W W A P S M ) T ",
"F t k k b m U B 8 p p b I W A H P B P U U U U P H P U Q ( U P U U P S U ^ ) ^ Q Q ) P Q Q E W ^ ( Q W ( ) ) ( $.[ W ` b 8 r s p d b m B d d F Z d m M M M m N K A s A B B m m b z k ) z s z k K ) I Q U U W Q ) ) ! U I ! ` ) Q U W U P P W ) ) W U W ~ ' _ T P P U P K P P S m N P m ( ~ F S A m F ~ P ",
"C 0 c m F A m k p Z c b A S B P W U K K S P W W P I ! ^ Q U P P P P ^ ) ] ] ` ] ] =.E ) / W W / / W W W ` ` Q U Q =.z w 6 p s i i k m m z b m m k M m b m m m A A m A B b k s k k b 7 ^ ( S W A k U P U Q ` _ Q R U U U W W W U U U W W T W ) ^ W W ) ) ) W U U Q ` P K P P U P A B U ) U m A P A F P C ",
"V e z k H F k s k m B C A A N K U K P S m A Q Q W W _ W U U P S P W Q Q ^ ^ / ` $.=.W ) ) W Q ( ^ W ! ( ) ( W W W Y 8 5 w s z p p b k k m m k k m m b z m B m m B A Z m m b k k k c , z $.0.( U U P A U ) [ ( I U W Q W W U I U I W ( Q W W Q W W W W W W T U U W ( P P S S U W P m ! ) S m S U S V P A ",
"P k k p F P z k b k m m P P A A U A U K B A W W U Q ) U K U U S P ) H S A P U W ^ ) Q ^ / / ^ Q ( W ` ` ! U ( 7.W 8 d i p k k a k M s i m B a k B b M b m B z s k M b b c m m b s p s 1 k ' Q ) [ P U W W ^ W U W o.` ! Q W W W W ^ ` ^ W W W W W ! Z S U ^ Q U F S P P Z m B U U B U W P S U R S m G Z ",
"T l m k P K a k m k s b P U Z B P P U P P P E P U ) ) P S E W P P ` P H S P W W ( ) W Q Q ( ^ ( ) ` ' W U Q ' ) z - m s p p a p d k c a m Z k z B z B b b m b s k b s d i p k k a y k k 1 4 W [ P W ( W U ! Q W ( $.! W W W Q W W ( ` ^ W U U T W ` Z S U ( ) U S Z S P A m m K H B S P W U P U U P U V ",
"A p J m m a 8 p k s m m P P m m P U S U W W W J P ` W P S U Q U U ( ^ U P W ) ) ) ` ^ Q ^ ) ) ~ ) $.( A K [ ! a 5 6 m s p s d a i i m b B B b b m k m z z n b b m m k a w 8 i k k z w b p , k ( $.W ( U P Q ` ! W ) U P U Q Q U U W ) W U P P P W ) P S S U U K F P Z S P P F A Z m S P R P C A W ~ ` S ",
"Z e M m k 7 w s i a P Z K P Z B S S P U E W E S H _ U P P U Q Q W Q ( U P W ) ) ^ ) ) ^ / ) ( W ^ ] W S P U b 5 5 p d a s k d s p p z M m b m k a k d k b b k b m k k k a p p a k m i w B m , k ` W ) P P ! ` Q W ^ W W W ) Q U U W ) W P P P P U Q W P S P P S S U P A S U U K B M P S U K m m U U ) S ",
"G g w M Z a k k p b Z k m K H P U A W U P U T A A ^ P U U W Q ) W U Q P S U ) ^ ) ` ) ^ / ) Q P W ) U ( U s 5 i s r p i i i i i p d a M b s z p w k i k m k i k k p w p b b s i r i i a s s 0 O , [ ;.W P W ) W Q =.` ` ` $.) W W W ) E P I T U U Q ! T U W W P J U ( A m H U F S P K Z P P m m C k m k ",
"P a w k m a i i b Z k Z S C A W W P ) U Q ` W J U W P Z P S U ` Q ) U A Z P W W W Q ) / ) _ ) ^ ^ ) [ [ s * p A d p p p p i w w i i k s p p p p k z s s s a k s a p p s k s a i r 8 k a r p k a w i ` ] $.S k P $.P W W Q ` ( U W ) W W ( ) W H H P ) U ) P U ^ S S P B F P U P Z A U F m m m A M m C k ",
"G p e e a p a i m P N P U S H U U A P P T P A J W P ) P P m Z ^ Q &.S A P W ) ) ` &.;.7.;.) Q ) Q U =.z 6 p a i i s p a p p i i p p a a p p i p a s b k k s a p w 8 p p a p a a i w k s i a k a r s p W W U 2.Q m Q W I W ) ^ W W ) ` P m S Q Q P M W P ) U U W m m P Z S Z A S m S E P C m m V m m R M ",
"G a a k a i i s k k m S P A Z J S m J U E S Z W ` P Q J T S H W P Q U W Q ` ) W W ( $.Q W ] o.W W [ P , 4 z r 6 i i i p a p p p p s p p a p p p a a a p p p a p i r p i w r p a a i k p w w a w 6 p w w N ` ` U U ( P K K W ^ ( Q Q ) Z k A ) ` P c W P ) U W Q Z B U P H M m A A S A m m m Z C A A R M ",
"G a 5 a s w a P F h m m Z Z A S S Z P J P P G Q ` U W S P S S P m P ) ) ) ) Q P P P W P P / ) Q W ! i 6 r i w i p 6 i p p p i i i p s s k k k s s d i r r i p s a p p r w w i a a p p i w w i 8 5 i a - i W P P ( W P A A P Q Q W W U A S W ) W K B ^ P U P P Q U U U U H m m A A S m x m m Z B Z C F x ",
"A p q p a k m P Z k m B Z A A S K P Z k m P P S P P / S J m m m m U Q U U W Q W W W P =.;.Q W ) Z 5 1 z p 8 p d r 8 i p p i w 8 w w s k k s s p a a k k p p i p i i r i r i i p p p p i w r i q 5 p 1 i 7 a ` ~ m U U P S P U U P K U U W W U H H U W K A Z A P U U G G Z m m C Z Z B C V S C m k x L m ",
"S h m p i S K z i x m m m m m m m Z m a m U P Z S U S m U T P S m U Q P K W ( ( ^ ) ^ ^ $.q.$.m 7 > 5 d i w b i 1 p p p i r 8 8 w w p p p p i i i i k s s s p p p p w w i p p i i p r r 8 w i 7 4 w w q 4 7 m P U T P K S P I P P U W U H S A Z S U H P Z P T J P Z A A m m B m m m k m m G Z Z m M I M ",
"P k m k k M m b k Z m b m m m k k m m m Z P Z P W W m k W ` ) P b P ^ W U ! ` ( W U ) K U 2.U 7 , a p w 8 p s w 7 p p i r r w r i r i p p i r r i p r i p p p p a p w w r p i i i p w w 8 q w 4 , w m , 5 w , p Q W P K K U U F U ^ U A Z P U P H P A U B W ` P W N S S m S H M Z m k k m S S m m m F z ",
"T m V Q U s w m Z k m m N Z m m m N k V H m k U ` W S m P U A N m Q I P W ) ` / W I P $.` c 5 q p p p 1 8 p 5 w k w i r w i p p p p i p a a p p a s w i p p i w 6 8 w w r i i i i i a p w i p 8 4 i q p q w a q i ( W P U W U A P ) m m P [ ;.^ P H A P k P W S W A P P Z P P Z Z m P A P S Z a i i F k ",
"W F F m m m k a a m A B m m Z A m k S C m m m V J W S Z m m B P P P N P U U U Q U P =.7.B - , i w 7 i r w 8 r i i p p w 8 i p i w w i i i i i i s k a p i p i i i a p p i w w w w 8 w 6 8 6 6 q q w p w 8 w 6 1 w m w.P ` K k P K S Z P W W W Q P c U P F P U P Z m C k m S P m m m Z S m m x k h p m m ",
"R B k k k g a k k m m m m m Z S A B j m E ` ..W P P U P Z m m m Z m ) P E ` ^ P U ) ` k ; , i r 4 5 i w 8 8 r i i i t 8 6 r p i r w p i p p p p p a p i i p a p i p i p p p p i w 7 q q w w w w w w w w w w w 5 w a k c.W F U z S m W W Q W U U U K U S N A A S A A A m m S P m m m S C l l k k x m x k ",
"P m a k s w w p p w k m m C A A F K m Z H P G F U Q U P Z m m S I W A A P U H b M W B , $ 6 s w w q q 8 8 w i p i i r 8 6 w r r w w i i p a p i i i p i i a a p r i 8 r p p p w 8 4 3 5 w w w q 5 5 w 6 q i r q 7 6 4 m $.Q Z P P H W U E U K K P W U S m Z Z A S S S m m S S m m m A k p k k k x M z z ",
"P m m S A k s m z i k m Z B m m m Z k m M P K Z Z A G P Z m m S W ) m P U K U ( U A 4 , q r 5 r a 8 8 8 8 w r p p i w 8 8 w r q w i i i r p p i r p a p p p i w q w 6 w w i w w 8 8 3 6 w r w 6 5 4 r 5 5 r p q 2 4 8 o P ` P W F Q U U P W U P W ) W P Z S F H S Z A m m Z Z x l m V k k C A m x x m x ",
"P k a m M k k M m s k m M m z k k x M m m A S G F P m S F m m m m k U K A F ) =.A , & 5 k i > 7 p 4 r w w w w r i i q 8 8 w w 8 w p i w r i i i r p p i p i w 8 8 w i i i r w w i a 8 w w r w 8 8 8 r 5 4 6 w 8 5 4 4 z > M 2.Z Z P U P H P U P P W Y P S S P P A Z m m m m m x k m Z C A P P A x l G Z ",
"P k i k b k k k k a a k m m k k k x E Z l z m A P E a m P S Z m a 7 ` A m U Q m 4 + 8 5 w p y w w 7 i r w w 8 w w w w 8 8 r w 8 w i i w w w y w i p w w r i w q w a i r w 8 6 w i a 7 8 8 8 6 8 8 w 0 5 4 1 5 8 q 7 7 w , 5 m P U A U P S A Z Z S S P A A A P P Z m m m m m m m N m m V A V V A m k U S ",
"U b M S P P A m b x k k k b b z m m k k C P W S k a s m A S S H B a Q Q ( ^ A 7 ; 4 i q 5 p k i 5 w w w w w 8 w w w w w 8 w w 8 w i w w w w w w r p q 8 w w i w w i 6 6 8 6 6 8 w w 5 5 8 8 7 5 7 5 5 6 5 5 5 6 8 6 w X p , $ A U W W Q W S B Z S K S Z Z A S S A N m m m C Z V m l h m V p a V m a F m ",
"I z s k M K C k k m k k k k x m b z z l m N M m m m Z S M k b S F Z k W ` A 4 * 3 7 , w 6 5 r 6 , w 5 6 8 w w r r w i q 6 w w w q w w 8 q 8 8 8 w p 7 7 6 w w q 7 8 5 7 w i r w w w 8 w r w w q 8 7 5 6 8 8 8 5 5 8 1 k 1 4 5 = m ;.P Q ( H b m A S F S S A S A A A m m m m m m k p a V C i a G G k M l ",
"T z S m m m k m m k a i a M m a s m z m m x m F A k m Z m z m A G Z m I K w * 1 w 7 4 5 8 w i i 8 4 5 6 8 8 8 5 8 w 8 q r w q 6 q r r w r p p w 8 5 i q 6 w i i w 8 a w 6 8 w 8 w w w 8 5 4 5 w w w 8 4 4 6 8 4 1 4 w 5 7 w 5 * w K Q A K U N b M K F m M K P S m m g l M V m k g j l l a a m m w 5 V t ",
"R l M k k k s k m k a p p k z s s k k k k m M m z m k m Z Z m z B P U m 8 ; ; 4 4 3 7 8 w w w 8 8 6 q 8 8 w w q 8 w q q w 8 8 7 8 r w q q w w 8 8 w i w 8 w w w 7 5 i q 8 8 w 8 5 8 5 7 5 6 6 8 w w w 6 4 8 8 6 5 7 5 6 w w 5 , 5 i ' I P A m A W I H Z B B m m m M x g i k N m m m a m m j k k p p k w ",
"E k k i a k k m M m h h a p a k k s m k z S S b k Z Z k k B S M Z I U p * > 6 5 4 5 6 w r w 8 7 8 8 w 8 6 8 q w 6 5 8 8 6 6 5 5 8 r w w 8 8 8 6 w i w 8 8 w i w 8 8 i w 8 w w 6 5 5 1 7 q w 7 5 7 8 w 7 5 8 w 8 5 8 4 6 7 5 1 , ; ; k A W P A P P m A K S A V M m m A k t k m m k g u m k w k m k e a w ",
"W z p w a k k m m k k k a r a z x p m m m A C m m S P M m m m B S W a 6 4 8 w 4 5 w 5 8 w 8 8 8 8 6 q 7 8 6 8 8 7 5 6 6 5 5 4 5 8 r w w q 8 8 5 q i 8 5 7 w i w w w i 8 8 r r 8 6 5 5 q w 8 5 4 4 5 8 5 1 4 6 6 7 5 7 2 ; = ; ; ; 1 & i P U B m m k B G U U U S m k m l x V m h e i i l p 9 g Z l w k p ",
"W x a p k k a k k w k z k t a m m a a b m k k m M M m F P Z m m B F ; 5 6 6 4 4 5 8 8 6 5 5 q w 8 5 8 6 6 6 8 8 8 7 5 5 5 5 5 5 6 w 8 w w w w 8 8 w 6 5 7 8 w q 8 q w 8 6 w w w w w w q 8 5 7 7 8 6 5 4 1 4 5 5 5 1 6 4 , = > , 1 5 , 4 a z b m F K m A H U W K m k k k k m m k k k i V m i p k g a m k ",
"Q k k k m m z m z w k k k p a z z k r k m a a m M m S N m m P P k 1 1 6 5 > , 8 w 4 r 8 5 4 8 w 8 5 6 8 w w w w w w 6 6 6 6 7 5 6 8 5 5 8 w w 6 8 w 8 5 7 8 8 5 4 5 5 4 5 8 w w w w q 7 4 4 7 w w w 5 5 4 4 5 6 5 4 , 4 5 1 1 4 1 , q ; , p A W W K Z m m Z G S m m C k p g m m l k m Z v a k s e e m p ",
"T a p g m m x m m a k k k k h a a k p k m z b b z z U k i m U A w & 7 w 6 4 5 w w 5 w w 8 5 5 8 8 7 5 q w w w w q 6 8 8 8 6 7 5 5 6 4 5 8 8 6 7 6 6 8 6 6 8 7 4 4 5 1 4 5 8 8 8 8 6 6 6 5 5 w q 8 8 5 6 5 4 5 7 7 4 , , 1 4 1 , ; 1 8 , 1 w z U U m A Z B N C Z S A S m k k l k k k S m p p N l e w m a ",
"P i w w a a r p a w z k k z h t p h a p k M M a t p m k m P z - - r - 4 w w 6 5 5 8 6 q w 8 5 4 5 5 5 8 w w q 6 5 5 8 8 6 6 5 4 5 6 7 5 5 8 5 6 7 7 w 8 8 6 5 4 4 5 1 4 6 8 q 7 5 4 7 8 w w 8 7 4 , 5 7 5 4 4 7 7 4 5 = & , , % - w i r 5 & & k U A M K P A M A H A k k m A m g k A m k a k m g e l Z k ",
"P k 8 a k k p k m m m m a p k p r k k s k s s s k a a U ( p $ & 7 w 8 5 6 w w 7 5 5 4 8 8 8 8 7 6 6 q 8 8 6 8 8 6 7 w q 8 7 7 5 5 7 w w 6 5 5 5 7 6 8 5 6 8 8 7 5 5 5 8 w 6 8 w w 7 7 6 6 8 8 7 4 , q 5 1 , 4 5 1 ; 4 , , 1 1 > = > , 1 6 8 4 4 m ] S m m m N m m Z m m m k g c N m m V h a l t p P x a ",
"A p r k m m k k k p a k a k m a r s k s p p k m z p Y A s 6 4 6 w q 8 5 4 5 8 6 7 7 5 6 8 8 8 8 6 7 8 w 8 8 6 5 5 5 w 8 6 5 5 5 6 8 q 8 7 5 7 6 8 q 7 5 5 8 8 7 5 5 7 8 q 5 7 8 q 5 6 8 6 7 8 7 5 , , > = - , 5 7 5 7 1 > , , , , 4 6 5 5 4 ; & , i U W P A A P S m m V m k k v k g V S m g g j j m k i ",
"m r k m s q q p d k w p a s b a t k k z k p d M M k W p = 4 i w 7 7 7 4 , 4 6 7 6 6 4 5 6 6 7 6 5 5 6 8 8 w 6 5 5 5 8 6 7 7 5 6 6 8 7 7 5 7 7 8 0 q 5 5 5 8 q 7 5 5 7 q 8 5 4 5 6 5 6 6 7 7 8 8 7 4 4 , = ; > , , , 4 , > , 4 4 4 4 5 , 1 5 , * & = a K W K Z U U S m m v k m m m a S S A l g V A v k i ",
"m i z k r 1 1 r z m i a i r p r i b p m m a i k A K a 4 , r r 4 , w 6 5 4 4 5 4 5 7 4 7 6 5 5 5 5 5 6 8 w 8 6 5 5 7 6 6 5 5 5 7 7 7 7 7 5 5 6 8 q 6 6 7 5 8 q 5 4 5 7 6 7 5 5 5 7 5 8 7 5 5 7 q 7 4 5 5 1 , , , > - > ; > 5 0 5 4 1 4 , , 5 8 4 > = $ p U U Z S P W m N m k x m m k S l m V k Z U m k t ",
"Z a r k k p i k m m p k p w p r r k r k m k k b m z = 4 i p q , 5 w 6 8 8 8 4 , 4 7 4 8 8 5 4 5 5 5 6 8 8 8 6 5 5 6 6 6 6 5 7 6 7 5 q 7 5 7 6 8 7 5 q 7 7 6 6 5 5 5 7 5 6 6 8 6 8 8 8 5 4 4 7 6 5 1 , , , 1 4 4 4 4 , , , 7 q 6 4 4 5 1 1 5 5 1 = & * 6 b P P B m Z C Z Z k g k k k A i k V l m Z m z i ",
"Z a r k k i w a m m a k a p k a w p a p s m S B i , > 5 w 6 5 5 6 8 8 q w w 5 , , 5 5 6 6 5 5 5 7 5 6 7 6 7 7 7 7 5 6 6 5 7 7 8 7 5 q q 8 7 q 8 7 4 8 7 6 q q 7 7 7 5 4 5 8 w 8 6 q 6 7 5 5 5 5 5 , 4 1 , , 4 4 1 4 5 4 1 4 5 4 2 5 5 1 1 , 4 1 , ; 7 * ; s S A k s m N m l h k k m P k k S Z k k l k e ",
"m i k k a q 8 a k k z k p p k a w i z a a m M s 1 & 5 4 4 5 7 6 6 5 8 6 q w 6 4 5 7 4 6 6 5 5 6 7 5 6 7 5 5 6 6 6 5 6 7 5 5 7 6 7 5 6 8 7 6 0 q 0 5 6 5 7 q q 7 5 7 5 4 5 q w 5 5 6 5 6 6 5 5 4 4 4 6 5 4 1 1 , , , 6 5 4 5 4 , , 4 1 4 1 1 4 5 5 5 4 * $ 3 s N b k k k k k l m m m S S C V Z l g l M i ",
"m w t h k d k m k w Z m i w a p r a m z z z r = * 1 6 1 4 q w 5 5 6 7 5 5 6 q 6 7 6 4 7 7 5 7 8 7 4 7 5 4 4 5 6 7 4 7 5 5 4 4 7 5 5 4 4 4 4 7 8 7 5 4 4 4 6 7 4 , 4 6 4 5 8 w 5 4 5 4 5 6 7 5 4 7 7 , , > 4 4 5 4 7 4 4 7 q 7 , , , 6 5 5 4 1 1 , ; 5 5 , ; 4 a m B m k k m m m k j k P C g v l p k P h ",
"A p 8 s m z p p z B i i p k a w p F k b U k $ ; i 4 r q 5 4 6 q q w 7 5 4 7 q w 8 5 w 8 8 w w q 8 w 5 6 6 6 5 7 5 4 5 6 8 7 7 w 0 7 5 5 7 6 6 7 5 5 0 6 6 6 6 q 6 8 w 6 5 8 w w 5 5 1 4 4 5 5 5 5 4 8 5 4 4 4 5 5 5 5 7 6 5 5 6 6 5 5 4 4 4 1 , 1 4 , > 4 4 , , p S U S Z m x m m V m l l k j h k k C 2 ",
"S a i s k s i r p p w a k p r k b i M ' m $ * 6 5 6 6 6 8 8 7 7 6 w q 6 7 8 q 8 6 5 q 6 8 8 8 8 8 w 6 8 8 8 7 q 8 5 5 6 6 5 5 8 6 5 4 4 5 7 7 6 7 7 6 7 5 5 4 7 7 7 5 5 4 6 q q 8 6 5 6 7 5 5 4 , , 8 5 4 5 5 5 5 4 4 5 5 4 5 6 5 5 7 5 5 5 2 , , 1 5 5 6 5 , * 1 r Q G m x m Z x h A V m x l l k v S 5 ",
"S a k s p p p p r w 8 k z w w z b a W M - & 8 1 * p 1 7 w w 7 4 5 8 w w 6 6 6 5 5 7 q 6 6 w w 8 6 6 7 8 0 6 8 w w 6 4 5 5 4 5 6 8 7 5 5 7 5 7 6 7 7 7 5 5 5 2 4 5 5 4 2 4 5 8 6 6 6 4 5 5 6 7 6 5 4 6 5 5 5 4 4 4 1 4 4 1 1 4 6 5 4 5 5 7 5 2 , , , , 1 5 6 5 , , , Z S A m m A C g m m m k k k k h A 9 ",
"A p s p p p a a i w r p p i r r s A A + o w 8 , 6 5 4 6 w q 5 4 4 4 6 6 8 5 5 5 5 8 w 8 8 w w 8 6 5 5 6 6 5 6 w q 6 5 7 5 5 5 q w 8 w w 0 6 6 7 7 6 4 7 6 7 5 5 7 7 7 5 5 5 5 5 5 5 1 4 5 6 6 0 8 5 5 6 5 4 1 1 1 1 4 5 5 1 4 5 5 1 1 4 5 2 , , , 1 : , 4 6 q 5 1 , 1 k S m k m Z v k h h g g j g p S 0 ",
"S a i p a s s p r r p r i a s d k a ; $ , 5 , w p & 8 6 7 6 w 8 5 1 5 5 6 5 5 5 6 w w q 6 q w 6 5 5 4 5 7 5 6 8 8 5 7 q 6 5 6 w w w w w q q 7 5 6 q 4 7 q q 8 6 6 7 8 5 5 5 5 5 5 7 w 8 8 6 5 5 1 , 5 6 6 5 4 , 1 1 4 5 5 5 5 5 5 1 1 4 4 1 , , 5 6 2 5 5 5 6 8 5 1 * w x m v k l m k k l v m m l h S 9 ",
"S s p a k k p r w w p p i p M K a $ $ 8 5 ; q 5 * 6 w 8 5 7 w r 6 4 5 6 6 7 7 5 8 w w 8 6 q q 6 5 4 4 5 5 4 7 8 6 7 7 8 7 5 5 6 q 5 4 7 8 q 0 6 6 q 4 7 q w 0 6 6 6 7 5 5 5 5 6 8 w 8 6 7 5 5 4 4 , 6 5 6 6 4 4 1 4 1 5 6 7 5 6 5 4 4 2 5 4 4 5 6 w 5 6 5 5 5 q q 7 i 5 q m P m k x m m m V Z Z V k V < ",
"A p a p d d p w w w p s d k A z , o 4 5 , 6 p % O k 8 6 5 7 w w 6 4 5 5 6 6 6 8 8 8 q 7 7 8 6 6 5 5 5 6 7 5 5 7 6 4 5 6 6 4 5 7 6 5 1 5 w w w 8 8 6 7 6 8 0 6 7 6 8 7 5 5 7 7 5 6 q 5 4 4 5 7 7 6 5 5 5 6 6 5 4 4 4 1 5 7 5 5 6 6 4 4 5 7 5 5 5 8 w 6 w w 6 5 q w 7 a 7 5 k Z S m x m m m v m V m k C 5 ",
"Z p p i r i i r r r s w z P k & $ 1 5 = w p * - q 4 5 7 7 5 5 4 4 4 4 5 7 5 6 8 6 5 8 5 5 5 6 5 5 5 8 8 7 4 4 5 5 4 5 7 7 5 5 8 q 6 4 7 r p p w 6 5 q q q 7 7 7 8 q 7 5 5 5 5 4 4 5 8 6 5 5 5 5 5 5 5 5 5 5 5 5 5 5 4 4 5 4 5 5 5 1 1 5 6 5 5 4 4 5 r k k w 7 7 2 , - 5 5 4 t A G m m m l l l x l g C 9 ",
"S p a a i 8 w s s p i k b 5 1 , 6 , 4 5 5 5 4 1 , 1 5 5 7 7 5 4 4 4 q 5 4 4 5 6 8 8 5 5 6 6 8 w w 8 8 7 6 6 7 7 5 7 4 7 6 4 4 5 5 1 7 6 8 w 0 5 7 0 1 5 0 5 < 1 5 8 4 4 5 4 4 4 5 5 5 5 6 5 5 5 5 4 5 4 4 4 4 4 4 4 1 5 6 5 5 5 5 5 6 7 4 1 q 6 4 q 7 1 8 r 0 q q 2 w 4 5 w i a Z ~ k l k i j V m g A g ",
"B i i r w i i w w r m z r , * 1 5 5 5 7 6 5 5 4 4 4 5 5 5 5 5 4 5 5 5 4 4 5 7 6 5 5 6 6 6 0 w 8 8 q 7 6 5 5 5 5 7 6 6 8 5 4 4 5 7 4 6 7 6 7 5 , , , 5 7 0 7 6 6 6 5 6 6 7 6 5 4 5 7 5 5 5 5 5 5 4 1 5 5 4 5 5 5 4 1 4 5 5 5 4 4 4 1 6 w 4 5 w 6 4 6 w 5 w w 5 8 w 4 q 4 5 6 7 7 w b g l m Z A Z k i m e ",
"M p a p p z p 8 r m M k = ; & 6 1 4 7 5 5 4 4 4 1 4 4 5 5 5 5 5 5 5 4 4 4 5 5 6 4 , 8 8 q w w 8 8 8 5 5 5 4 5 5 7 7 8 6 5 1 1 6 7 5 8 7 7 q 8 6 8 8 7 7 5 7 6 q 7 2 4 4 4 1 , 1 1 4 5 5 5 5 4 4 , , 5 5 5 5 5 5 4 1 5 5 5 4 4 1 1 1 6 q 5 5 r w 5 w i 8 q w 5 7 w 5 8 6 7 w 7 , 1 5 Z m k a a i h x m 0 ",
"Z k b k k d p i b Y i 6 = 1 1 6 , , 4 1 , , , 1 4 1 4 5 7 5 5 4 5 5 5 5 5 5 5 5 5 1 8 8 w 8 q 8 6 6 7 5 5 4 5 6 5 5 5 5 4 , 4 8 6 1 4 , , 1 4 4 5 5 5 7 7 5 5 7 5 1 4 4 4 1 4 4 1 1 5 5 5 5 5 5 2 1 4 4 1 4 4 4 1 , 5 5 5 5 4 4 1 4 5 6 5 6 r r 8 r i 6 w w 4 5 w 6 w w w r w 5 2 6 p i k C V h w t A 0 ",
"S m d b z r w d m B 1 1 5 5 w , , , 1 , , , , 1 1 3 4 5 7 5 4 4 4 4 5 5 5 5 5 5 5 5 8 8 6 8 6 6 5 6 6 5 5 4 5 5 5 1 4 5 4 4 5 8 5 , 6 8 5 4 4 5 5 4 7 q 6 5 1 1 5 6 6 6 6 q w w 8 7 7 5 5 5 5 7 5 4 4 4 1 4 5 5 5 4 4 5 6 6 6 6 5 7 5 6 5 7 i r r p r 8 w r 5 7 w 7 p r r r r 8 6 w 7 q h A S k e e S w ",
"P A s m m p a M k 6 , , q , 6 * 1 1 1 1 4 4 1 1 1 4 4 5 7 5 4 1 1 , , 1 5 4 5 5 5 4 5 5 5 6 6 8 6 5 8 7 5 4 5 4 4 , 5 5 5 5 6 5 1 - ; 1 5 5 5 7 7 7 4 7 6 5 1 4 q w 5 5 6 0 8 6 5 5 6 5 5 5 6 5 5 4 4 4 4 4 6 8 q 8 4 4 5 6 8 8 6 6 7 8 5 5 i r q p r 8 w i 6 6 q 5 a p y w w 8 6 0 q 7 0 a k k k l V 9 ",
"I U m B A b k p 8 = , 5 4 = > , 4 4 1 4 5 1 , , 1 5 5 5 5 4 1 1 1 4 1 4 5 5 4 4 4 4 5 4 4 5 6 6 6 5 7 5 5 5 5 4 4 , 4 5 5 5 5 7 1 =   + = , = > , > 7 4 2 1 5 w w w , 1 4 4 4 1 1 , 7 5 5 5 5 5 4 4 4 4 4 5 6 6 8 7 4 5 5 6 6 7 8 8 6 8 5 7 p i w i i w r r 6 8 w 2 a i r r r w 8 7 4 4 w k S P C j k 5 ",
"R P M A B b r 1 * & = 1 & - % 8 2 , 1 1 4 , > , , 5 5 7 5 5 1 1 4 5 6 7 5 5 1 , , 1 5 4 5 5 5 6 5 4 5 4 5 4 5 5 4 4 5 4 4 1 5 5 1 = X > w i 8 5 4 , w 5 , , 6 r 0 2 1 , 1 1 4 1 4 4 6 5 1 4 4 4 5 4 4 4 1 4 4 1 , , 4 4 5 5 5 5 6 6 5 6 5 5 p i w i a r r r 6 6 w 1 p i i p i p w w r 7 , , i S P Z x w ",
") A k b B k 5 & & , , , , , , , 1 5 7 5 5 1 1 , , , 1 2 5 4 1 , 4 5 5 4 4 4 1 1 4 4 5 7 6 7 7 6 6 6 a w 5 5 8 i w 6 5 4 4 4 6 6 , % k ) 2.F w w k m w p d s p w 6 q 7 w r w w w w 7 0 0 6 5 1 , ; = 5 5 6 5 5 5 5 6 0 6 6 4 1 4 7 w 1 , 1 6 r i p p p r r w p p r i i h z k a a t q 0 r 0 ; = a P Q l l ",
"..m A k 8 , $ + % & : > : ; = - > : 4 1 , > > > , , - ; = * * ; 1 4 1 1 1 , , , 1 , , 1 1 4 5 5 5 5 6 4 1 5 q 8 1 = 6 w i s k k p 8 8 k m p 6 w i i p p p r w w i a r r w q q q q 5 8 6 8 q w 0 6 6 5 6 8 6 4 5 6 6 5 4 5 1 1 1 1 5 , , , 5 w w 8 6 8 8 5 5 8 8 6 8 r t w 6 0 w w 6 2 8 t w 2 6 C 3.l e ",
"9.P z 7 + . $ , 4 4 4 4 1 1 4 , < < 4 4 2 , , 2 4 4 5 5 4 4 5 q w w 5 7 7 5 5 5 5 7 4 5 7 6 q w 6 q 5 5 7 w i r 5 , 5 q r p p r 5 > 6 q 0 w t a a p m k h p r p h k k k a r r i t w t t r w w w w w 1 5 0 5 5 0 0 6 6 7 6 5 5 5 1 4 6 5 5 8 w w w w w w 8 6 q w w w r 0 , , 2 r t q & : 6 t 2 O , z l 9 ",
"S a 4 % . X = 6 w q 0 5 5 5 7 5 9 7 2 4 2 4 5 5 5 5 0 0 9 9 0 w e e 7 0 0 0 5 5 5 6 7 7 7 7 q 7 6 5 5 5 5 7 0 q q 6 t a k k p w 0 5 w 4 2 0 t t w w w w t w w 0 9 7 w w w 0 w w w q w 0 5 2 2 4 , , : , 2 , , , 2 , 2 2 2 5 6 5 2 1 5 , 2 5 6 0 6 6 0 6 0 8 q w w w w 5 , , 2 q r w 4 : 2 g a - # > 9 @ "
};
