/* XPM */
static char *_e754c5a14a84681eb148187028da1ebKjvJjzS7uMenvqnX[] = {
/* columns rows colors chars-per-pixel */
"148 152 99 2 ",
"   c #272B30",
".  c #2A2E35",
"X  c #2C2E3A",
"o  c #2E3236",
"O  c #2E343B",
"+  c #2F383F",
"@  c #323637",
"#  c #32363D",
"$  c #34393E",
"%  c #393B3E",
"&  c #333641",
"*  c #363B43",
"=  c #3A3E45",
"-  c #333748",
";  c #373C48",
":  c #3B3F49",
">  c #374046",
",  c #3C4146",
"<  c #374148",
"1  c #3C4249",
"2  c #3F4249",
"3  c #3D434B",
"4  c #3E4448",
"5  c #3F454A",
"6  c #3D414C",
"7  c #3E434E",
"8  c #3F484E",
"9  c #3F4550",
"0  c #3F4950",
"q  c #414447",
"w  c #424847",
"e  c #40414B",
"r  c #41444B",
"t  c #44464A",
"y  c #40424C",
"u  c #43474E",
"i  c #44464C",
"p  c #44494B",
"a  c #42494E",
"s  c #464A4F",
"d  c #48484F",
"f  c #494B4E",
"g  c #404450",
"h  c #424551",
"j  c #414553",
"k  c #454750",
"l  c #454753",
"z  c #434850",
"x  c #454B53",
"c  c #454954",
"v  c #464B54",
"b  c #454957",
"n  c #494B50",
"m  c #484C52",
"M  c #4A4B56",
"N  c #494E55",
"B  c #4C4D54",
"V  c #474D59",
"C  c #4A4C59",
"Z  c #4A4E58",
"A  c #4A4F59",
"S  c #475056",
"D  c #4B5156",
"F  c #475159",
"G  c #4C515A",
"H  c #4D535A",
"J  c #4F585E",
"K  c #515456",
"L  c #50505A",
"P  c #51565D",
"I  c #53595E",
"U  c #595B5E",
"Y  c #4E5660",
"T  c #4F5960",
"R  c #525761",
"E  c #555A62",
"W  c #595E65",
"Q  c #575E68",
"!  c #5A5E68",
"~  c #576065",
"^  c #5A6166",
"/  c #576068",
"(  c #5C626A",
")  c #5F6671",
"_  c #61666D",
"`  c #63696F",
"'  c #626671",
"]  c #646A72",
"[  c #696E75",
"{  c #656D78",
"}  c #696E78",
"|  c #6A7076",
" . c #6C727A",
".. c #71757D",
"X. c #70797F",
"o. c #717781",
"O. c #757B83",
"+. c #797F89",
"@. c #7D848B",
/* pixels */
"@ u s c m m n d u 2 2 : , 2 , : : 2 i u r r i c u u s c k y e 2 y * u n u = , : : i r p t t , , a * = = , : * # @ $ @ $ * , * $ * @ $ # @ @ @ # $ * * $ # @ @ O O # @ @ * O $ * @ O @ # O O # # @ : , , 2 2 2 = * = : : 7 : y 7 : # & ; # X X X X   o @ @ . . . .   . . O X o O o % % @ $ * * = * 2 r i ",
"@ 2 u c h u u k a 7 2 2 7 h h k u c h u k c k M G Z Z Z c M c k c k G L M u h c c B n c c k u z c , r u s u y 2 2 5 2 u s u 5 , r * * * $ $ * * , = * & = = # # # = @ * # * & 2 & # & * # # * * # & & & # * * * & 7 h h h 9 h y h & ; 9 : ; - - ; # * * * = = = = @ # # # & # # # o o @ @ & * & # u 2 e ",
"$ c G R G Z c Z G c z h c c c c k Z 7 2 k c h c P M c k c c c M c h N Z c u z Z N c u 7 2 2 2 2 : e u u u u y u k 5 2 u s u , 2 u = * * $ * * * = * # # 2 7 * & = = . = O : # y * ; * ; & # * * # ; * * * * ; = : : : 9 : : : 7 9 & ; 7 9 : - - ; # # @ & ; = = ; # # # # & # @ O @ @ # * 7 7 2 : u : : ",
"$ c G R Y V V Z G c c h h h z h u D h 9 Z G V Z R Z G G Z G Z Z M h c c c h c Z G Z M u 7 h u y 2 N c u 7 5 u k c 2 5 2 u u 2 2 u 7 2 : 2 2 2 , 2 ; # & 7 7 & # ; : O 7 & h * c = 7 2 2 2 2 2 > & = ; ; * = , 2 = : : 7 : : 7 h c * ; : h 7 ; ; 7 & # # * = = ; ; 7 : : : = = * & , = : u k c V c G P Z ",
"# 2 h V c h c V Z 7 h z u 7 u h h x a z Z G G D G c Z P G Z c h u k n c c h k c N Z N k h c M c h N z 2 = : 2 7 7 5 5 5 7 u u 7 y 7 5 5 7 h u u 7 7 7 7 7 : * & ; y ; 2 = 7 , c 2 7 u 7 2 2 5 2 * # O # # & # # # = : 2 7 u c N N 2 = : 7 7 * * 7 * ; : 7 z c 7 2 z h h u u u 7 = , : = , 7 h 9 9 V R G ",
"& Z Y R Y Y R R Y N D J D Z N N D z c c c N G G m z c Z Z c y u h c N N c z k c c n c k u u k c a c k z u u u s k h 7 7 z c c k h 7 h z c c c c c Z R Y c h c c h h 2 * u * 9 h 7 h z z 7 5 7 2 * 5 7 u p a p 5 2 8 2 2 5 a m c s 7 ; * 7 u = * : 2 7 h N Z Z c c c c k h h 7 7 2 s a a c c Z Z Z : Z M ",
": c V V V c Z V c J R R I D S D D D E R G G E E G c D P P D N G G Z G G G S N Z G c M N u 7 u u h c D R E P G G J h h h c G G G Z Z G R J G J G J V R R z 7 c G D Z c : S & S N D S D S c c c a , r a s a a 5 2 , c z u 7 x m u 5 c : * u c 2 = 2 y 9 c c Z N V c c c k h h 7 2 7 = = : 2 7 h Z V V Y R ",
"$ S N S c z a s a m G I R J c u 7 c c D G c a c R Z N R ! J c S D ~ E E E G z N E c c c S N c M D P N G S 5 z P P u c c u u z u 2 u 7 u z c c 7 2 c z u h z z a z c u 2 2 7 u 5 * z 7 a c Z c u u c c c N G G N 7 N c S G I G z r u , * 2 a r = * h 2 = 2 z S c 2 m k z m D Z c 2 c m u = * * > * 2 z c ",
", y z c S N m s s r a c S S N S G N c Z G S c D R R G E ^ E P E R ! N h N D N c D c a u u u u c N E S G N 7 a c z 7 a h u h c D S N D J J D z u 7 z 7 2 2 7 a a z u u 7 z z z m z z 7 u c z a z z ! G 7 * 2 z z 7 N L I J c 7 G ( c D J G m 2 7 c c z m z c m c 7 Z c c D D G c 7 8 c a a 8 9 7 2 2 a h ",
"r a c c N S G P I N m m a u c m m Z c c S D D G P P G I ! E E E I P c u m Z N N G S c u u h c N G P c c c 2 7 u * 2 7 7 7 8 c G G N J R E Z u u z z a 7 7 h x x z 7 z c c N S c S h 7 7 c c c G P c c m N J W ^ W J P R ( ( ( ! ! J R W R N u c D c N S c 5 7 u z m z z c c N c 7 2 7 a x x x x z * 7 u ",
"r S N D G G L P I G S c c z z a u N c c N S G Z N c N J R G D S Z N Z G G z 7 c E G N c c N D G J J N G D c c G m c c c z z c m c 7 z N c z u c Z m c S G G G S m 2 u z z a z m m c z m N D Z G I G E ^ ^ W R R E P G G W ( _ W J E L c c S G c z h c c z 2 2 u z 7 2 2 : 2 2 7 2 = 2 2 5 0 9 z z 2 a z ",
"u u c J I I G m p a z c c Z D N S c c N D G G N c c G P G M z m D c D D N u 2 c G G N c u c D Z N m s N S 2 a G G J G G G D m c c 2 2 = = 2 z m S c c D D J J D S c c c z c c N N c S G J G N c N R R J c 7 a D W c G G c u u D R J N a 7 c N c a u h 7 7 2 2 7 7 1 : : 2 2 2 2 2 , , = * * * 7 8 7 c c ",
"s a m G G G S s q u z N D G D c x m S G J P P D c G R P N z c c G G N i u c c c u G G c c N G N m c a N N 7 7 D N N c z N N c h u z 7 = = 7 m c c 7 7 a z c S G G J D S S G P R R J I R W E J G J c c Z G J R E E D G m z u m S B c D D c 2 5 a z 2 = * * = * & # 2 2 7 u u u u 7 r 7 2 , , > 2 < 2 z a ",
"n S G D S m m B S N D G D N z a u c Z J G D J G c N R G c m c c N D c z a N G N 2 G D N N D P J N P N P E G P E G c 7 2 u c u 7 u c c a z c c c c 7 7 h z c c N D N N Z S D G J J E R E E P J J E E W ( ' ` E c 7 P Z c D R E N * u c S c 2 u u 5 * ; * & & # # O 2 2 2 5 2 2 2 2 2 , 2 5 a 7 7 7 2 z N ",
"m N D G S m n f m c m c c c z c D 7 Z G S c Z c z a Z m h N N u 2 u Z G N z z c c c N z u c D G G c 2 u N c G G u R c 7 h z z z c 7 c D D N c c c z c D J G S c z 7 c S c c h c c E J S m u 7 h c D G R R R G P E Z G N 2 = 2 c m c u 2 2 c G u O 2 2 2 2 2 * = 2 2 : > * * * ; = * $ * 2 h a z z 2 S G ",
"s G D D G N m m S z z u u c c D D m c c z N S m 7 c G P N S G G c s 7 2 r c N G P P N c N P P m 2 c u u u u 2 r i 2 2 , : 7 2 7 7 u z c m z u 5 2 = , 2 8 N G J G D N c s m G R P D G Z z x G G c D G P R J S m c z u 2 2 2 5 7 7 a 2 a z 7 c D u 2 5 h z 5 * = 7 2 * & * * 2 2 * & * , * 2 z a 2 8 c N ",
"m D G D S S m m m c m c c c c N S c N c N D J G N c D P G P P G z N c u r h u 7 2 7 7 7 5 a c c a c c u c c z c c N z u 7 z a z c z c N D S m c c D G G J P I P G G G G J J I R P W E J G J E R G m m N D Z c z z c c u u z z c z u 2 u 7 ; 5 7 & * * * * ; # & * = * = 7 c c y * , 7 7 7 9 x c z u c a ",
"D D D N S N m m m c m c c c D D G N N c c N D D N u c c c m N i = , , 2 u m c 5 2 2 u h k u a N P N D D G G Z D S J G N N G G G G u c N G N N c c m S G G G J P J D G G G J P P G Z S c z c N N a z z z z z a z z u 7 7 7 z c s u c a a u * 2 2 & * * * = * * * * 7 2 2 c G G z = 2 a z a 0 c c z N G c ",
"L G D m S S D D S m m c m M D G R z z z a 7 7 5 7 c m u 2 2 2 , * * # & 2 z c u 5 2 u c a 2 2 k N Z D G G G D N c u 5 2 2 u c u a r c N D N N N D 5 a m m m c Z D J G S m c D J E ! E R P R R P G m c z c z u a z 2 2 2 2 2 2 2 = z 7 z 7 * 2 u = , * * = , : , = V 7 2 2 h c c 5 2 u z z z c c z J P N ",
"P G B m m S S S S m m c c c m D J ^ ( ( ^ E P P E G N m a u a 2 , c 5 = , 2 5 2 , u i c c z u u u u i u r u a 7 u c i u u c c c c z c c N N N N S S G D N m z c z W E P G G J R ! m a u r 7 2 * * c c m c c 2 7 u 2 2 5 5 2 2 = * 2 = 2 2 # = 7 = * * * & # & * * h 2 * * 2 7 7 5 2 7 a 8 z c m 0 z S c ",
"L D N m m m m m S c c c c c c c N h a z z 2 * * 2 s s a c c u 7 2 G u : , 7 7 2 5 2 5 u c c n u 2 r r 2 u u c i u G G S N G G D N u a s c z c c m S N N S G G G J P R E E E R J J E P P P J N u 8 m m V c z 7 2 5 7 u 7 7 5 2 = = 2 = 5 2 & = 5 * O & # # # * * * O & * , 2 u u 7 2 7 5 5 8 c z 7 7 c z ",
"L m N m c s a s m a h m z z u z a D D G R Z a a N , 2 2 z u , * * 2 * # : 7 u u a * = > 2 u 2 2 * 7 u k c m N N N u u r 7 5 u 5 2 h i z h a u a z z z m Z P R R P D D G I R P G D G c N G N u 2 7 Z G J G c z a a c u y 7 7 2 2 = 5 2 a 7 * * 5 * & * # + & = , * O ; 2 5 7 2 5 k 2 5 5 2 7 z z 7 7 c c ",
"D m N m c a u r s , 5 u a z a 7 2 : = 2 2 = O O = 2 : r s 7 , * = * # # = 7 u 2 2 7 u u i z u h y 2 r i u c m n m N D N N N S N m D N D N m m c S R G D G P G c 7 D c c S G P E E W R I E E P J R J E W P N c c c u 7 , = 2 , 2 = ; * 2 2 O & = & * & O o O * * O 2 7 u 2 & * 2 c 2 7 5 2 5 z z 7 a c z ",
"P m N Z N c u a s a 2 2 c c , 2 z 7 5 u u u z 2 * = = , = * & * * 2 2 = = , 2 h c , = u u u 2 5 e m a r c G I N 5 * z P P J G S m 7 7 7 u 7 7 N P D G G S c z x c D J E R R P R J N c c m P E G 7 Z D G J Z 7 7 h 5 u h z 5 * * * 7 7 u 7 7 7 2 * o O # # + * # O 2 * & 2 c N x 7 x z 8 0 x x 5 > m S n ",
"D i c z a r , = , 2 7 5 2 u c h 2 c 7 : = 2 u 2 = 2 2 2 2 2 = * * # # * = 2 2 2 2 s a a a u u u s 2 N P G s r m I c N N N G P R I P P I P J J R E J J P J J G D G c G E ! ^ _ {  .! ^ ~ W ! ^ E G c N G P G D G E = 2 2 5 2 = 2 5 * = = * ; * * * * & & * * * = * 7 2 , 2 7 z z 8 c m c S J J G m D J G ",
"d i c c c y , , , * u u = 5 G m * G N c u c N D c , 2 , 2 2 = * * * * = , 2 u u u a 5 2 2 r u 5 u S G S D N G I E G S z u N P J G m G G S N N m a I I P P G G G G J E R R G D D G R ! W P G G N h G D D P D c N G u u 2 : * * * : u c z u 7 u c m z 7 2 2 8 2 7 7 7 7 2 7 7 z x m 7 7 a c D G S m I E W ",
"D c c m c a r r a * r a 5 u N c = 5 2 , : 2 2 7 5 5 2 2 5 7 2 = * N c u 5 5 a N G I G D P I E I P I D m m S P P P ^ ( ^ ( ( _ ! I G E R I R E R D ^ ! I J G G G P 2 c D G N Z D P _ _ ( W E R G c P G G G N h u c m z 2 * & * * * O # # O O # * 2 c u 2 7 u 2 7 7 2 7 7 8 0 z c D 7 7 7 a c c S z E ! ( ",
"I c c c z u 2 2 r = 2 c G N 5 7 c u , * = 2 2 , * z u 7 r 7 5 2 = c c u y 7 u N G G B N G P G G G u G I Z 2 2 S ! P ! ( ( ( ^ ! ! E ! W E W ( ( E ( ! E J P J J J h S P E R I R R ] ] ( ( ( ^ E G P G G P P G G R z u 2 ; = 2 7 u a c m u u z c G = = * ; = 2 2 , 7 9 z c z z c c S c x x S G J I R ~ ( ",
"P B N N c c u u u 2 2 c P N 2 7 G J N m c c m u u c u r 2 2 , : = = 2 u c c c c c 2 2 2 r 5 2 7 s G P P G Z D P E c G P G Z I ~ _ E R G G D G N m P J G G G G D N E W ~ ! R G c c ( ^ E E ! ( W G E P J R R P J R R D z 7 7 5 2 , * * ; * ; * , 5 ; = : * : 2 5 2 z c c c z u 7 7 c x 8 u m S I R J E ~ ",
"P D G G D m s c s c m N m m c c N c a a z a 5 2 5 z a u 7 5 2 2 5 2 u c c c c N G G P I I G N G I ! S a N ! _ W S E ! ! ! ! _ ] ] ^ ! R E E P G D J J J J I J Z c D c c D J J J I ^ ^ W W ^ ' ( ^ ( E P R E J Z D W J c c z 7 = * z u z c m c c M 7 y 7 : , 2 2 h 9 z z c c z 7 5 z 5 2 2 8 x S D G E ! ",
"E u h m m c a u u D G c , y G G u G N S G G Z N c c c c u u u c m D N c u r a G ! c D P I N u c G r u u c N S N n P I I P E ! P n G S D R W R I E ( ( ^ ^ Q W R G _ ^ P G D D G J c c c a k N G J ! R P W ^ W E R c 7 u h c u 5 7 : : 2 2 7 7 2 7 c 7 2 , * * : z : 8 0 c c D Z F D x 8 a c z m c J I E ",
"P G G N a y h a s P P P G G Z N N N c N P E G N c G G L E I c 5 y c N G N N P G Z G Z B m m n c u D m m G N c G ! ! ]  .[ ! E ( ] { E ~ Z R J _ N ] ( W W ^ _ ! R ' ( W ! W E E ! D P E E E E ! ! E E J G J P G S c u u z z 7 2 7 7 u c c h 7 2 2 7 7 u 7 2 7 2 7 2 2 G z D 7 D D z a c c m 0 8 c D N ( ",
"L B G N s u a c c s c m N D c c c z z z m c a u c N c a N D n a u m N N N N P G N E W W I P P G G I G G G N 2 2 M W E I D N P ( [ ' P ~ P ! W ] W [ ] ' ^ E G N z G Z S D G G J E a z c m c S J R N N c c c N c u D c c B V c u z 2 7 z c c u 2 2 * * * * ; * & * z 7 7 7 J G G u 5 5 2 0 z 7 z S I J ] ",
"P c S S m z c c m k c N D G G c s u a z s u u m G N u , u m c i 7 u i u s N P G m z c m N m m n m G G I E J N S P ] ] ' ] ] [ ] ( | E ^ ! ( ! _ R ] | | ' ! E E E c h a a u u 2 7 u u 7 2 z N G J I P G J J J Z N c 7 7 u u 2 = 2 7 h c N N M z u c c c c c c N N Z c 2 h c P S 7 N c z c c S D Y E R [ ",
"I m G P J G B G D P P G G R J G G c n S B c c G E P c u z n u 2 , s u r c G P J G u c B L I E E E N D P W E P W _ ~ ( _ [ [ ] ! L [ ! ! ! E ! ` ~ ! ! R J S N Y E ( _ ( ( ~ E P J G N c c S J P P W R R I G G c c J N c Z N c c G h c c m c h u 7 2 2 7 2 7 7 m G c D u D 2 N 7 c a 2 2 2 2 < 7 m E R ] ",
"I m P E E P P P P E R D m G P P R N N G Z c r u N G N c c m a 2 : N m c N J P G G N G L E ! ! W W L P P P G D G E I I E R E ^ _ ] ( E E ^ E ] ..{  .' E J G G G D u m N N S S c N R P P P I P P J E R P J G N N G R G G G G G G P m c k u 2 2 : = * , 2 2 , 2 a Z 7 c 7 R c J 7 7 c s a 8 7 2 0 S E I ` ",
"E c S G G G G G N ! E N a c N c D c c N N c u 7 a c c z c m c u u c c s m c c c m D N N N D S N N P J G G G S G P W W ^ ~ ( ( ]  .^ ! W ' W { { _ +.} ( ^ ( ( E J G R I R E R P G D G G J G N c z Z N N G D N G R G c c D Z c c N J G N c u u u 7 h N D D Z c D R N 8 * J ^ ( G 7 I G G I J J J R P J ( ",
"P m N N m c G G S E R L N N m c c G c s N G Z c c c m S D m u a N u r i a 2 , 5 m E P D G P P R R P G G P E E E I E E ( _ ( E I P ( ( ! [ E ] ( ! ( P D J W W R G G G D c m c 5 = z c N N c a z c 7 7 c D N c c J P D G E E J G P J G G N M c c c 7 u z z h u h N G a z D ( ^ R D N u a S G D F F J E ] ",
"I E I G G P E ! E Z G G G P P G N ! G c N J P G N N P E P N u a B r 7 a c u r m R G c 7 u N G E W I E E E ! E P N _ ~ E E ! ! ( ^ ^ E G ] I { [ | _ W P E ! ^ ~ ! R I G c N D c 7 7 z N m u 7 c G D G E ( ! J P ~ u 7 z G G N c G c m c c c c z c c 7 7 2 2 a c D 7 z E G R h G J c u 5 c J J D c J ~  .",
"G ! G G R ! I S c J J J S G P J N D c u s N G G Z N L G N u a u u c M c u * * u c G G N N D E E E c c N I ! ~ ! E ^ ! ( ( ^  . .E ( ( ] { [ [ ' ( ! ! ( ( ^ R D G P G S I ^ _ ^ E P G D N c z a z c G P G P ! E P P P G G N Z c h N 2 : c c 7 7 n c 7 2 2 7 c D P z z m c z u h N R c 7 N S h c R E ~ E ",
"n E D c N D N G P J G D c N D S c J N c c c S N m u N N c 5 7 u u c D G N a i N D u m N P E E P S ( ( ! G N G ! ' ^ W ^ ~ ! ] [ !  .[ ] ( ~ ( ! ! ! E E E P D D J a G W P z 2 u N N c u u z a z i c c D G P E J N J G N c c n c k J c a N S c h N u 7 u c N c z z c z m m z a c N F h 7 z c 0 c J G I E ",
"c D Z N S c m G E G D N z m D D c G N c a u a i 2 u N G N m c c c k N D N c c m N = u N P E P S c c N z e u N P R ! G R E E ! ( ( ! ~ ~ E W _ | | ( ^ W R J G P R E E R E R G c u N a 2 5 c N c c c c c P W E J N G S c h u c c c c u 7 c D c c S z 7 7 c c u 2 7 c z a h h h z c u 7 7 2 7 z c D N P E ",
"N c N G P G N D P G G G N N J J D c c z u u 2 2 = a B G P G N c s c c N S N a z c c N G G D N G P P G m G (  .' E { ! _ [ ] '  ...( ' ] _ ( _ ( _ ] _ ( ! P G J E P V z c J G c u J N m c c c c c a a N E ! E P P D N m z u h k c 7 2 2 8 c u 7 a N 7 2 7 5 2 7 c z u u u 7 2 7 7 2 a z 2 2 z c z S I E ",
"N N N D Z S D G D J P G D N D D N z c c c c u 2 2 r u c c c c c s G N G E G m N P P I E R L G E _ | ` ! E ] .. .( _ R ! ] ( ~ ` [ ! ` ] ' ( ( _ ' ] ' ( W G M m S u G R R N c G ! G G G N h u c Z c N P E J c G ! Z N m c c c k h m c u u 7 2 = : c u u h c u u N 7 u u 7 2 2 7 2 < u 7 = 2 z x c G R E ",
"G E P N c c G G G c D G m z z h 7 a a s c c c z u 7 , , 2 u c N G R G J E R G G E N G E ! E I E ( G R ! E E ! ! ! R N P E P P E E N P E P I ~ ' } ( ! E J c a h c P I I R P P E ^ c N G S c a z N N P E P c u N W N Z Z G Z c c c N c c m c z c N 7 u c G J m 7 7 u h z u u u 7 2 & 2 5 2 7 x F c G I I ",
"D I E P c N G P D a c N c u z h u u u u 9 u a u 7 u 2 2 u m S D G P G G J G S G I c B R E E G I E u G ( ` _ W E W _ ^ ( _ ! ( ] W ! ( ( E G G J J ! ! W I G Z D J E c 2 5 D J c 2 S S G D G G N c N J I J Z N G G G G G P J D Z c z c N D S Z G P z z N G D z 2 2 7 z z u u h 7 7 2 2 7 a a 8 x c G R I ",
"c c P E I G J G D 2 z c c h c c m u 5 2 = = 2 , , 2 = 2 m D N c u L J G D m m D G P E ! E P G R ( ^ E I ! ! E G c ! W ! P Z E ( G E ( ] { _ _ _ ^ ( ( ( ^ ! W ^ ^ R R R J D G P R W R G P E E Z u m S J P E ! P c J J J P P G D D N D G G D N N V G c z u 2 , 2 7 2 7 7 2 7 7 7 : z a z S c 7 7 z G P P ",
"u P N D G S z u N z c m z u u 9 7 5 7 u 2 , * = 2 u * , a u N P G G R I m 5 u m N G G P P P P P E N L E ! _ ] ! N P I I E ( ( G G ! ( G _ ] ~ ] W ' _ _ ] ` ! E ! ! ! E P G Z G G E E P G c c D P J E R k c R W D G N c c G E G u u c N c 2 : u Z u 7 5 = 5 c a * 2 * z a c D 7 c z 2 5 a 2 7 x z D E I ",
"m G c z x m a u x z m c m c c c z = 2 7 5 = = , 7 u 2 u c c m P N I R J N N G R P ! W W E P G G P P G S G R E R J W ! P m P E ! [ E ] ^ } [ ( ..| E J P E E D N D S G G G J J J P D G G G D D P E h c c u z D Z c Z R R N 7 7 M G u m Z S c a h h c D N c S R J c c 7 D c c S 2 z c 2 7 9 < * 7 , 7 S S ",
"D G x 7 m c S N S c z z u 7 u 7 7 2 u z m u u y u , , a N c c G c P G c u N P I J G G G P P G G P E Z c J R P P ! G ! ~ ^ _ ! ! ] G ! J ! ^ ! ] ( E P P E E G N c m D G G P R P G c N Z G N G G G E E E W ! ! E E c J R D z h N J S G D P G G c c z N N c c G G c c 5 N u 2 k * 2 c 2 u n 2 5 z 7 x J P ",
"c c z 7 z c c c m c m z u 7 2 7 2 u c c m c u 5 2 = , z D c c G N G m u u c G J G J P P E E R R I E N S ~ _ E P ! N ! ( [  .W P I ( ^ P E ( ` ] ( ' ~ ! ^ ( E G Z J R R R R E P Z G D G Z Z c z u ~ P P E E G N R D Z G P ! _ ! G J G N c Z G Z G u c z u u c z 7 2 & 7 * * 7 ; 7 7 * 5 z 9 z G G m J P ",
"u 2 5 2 2 5 5 5 2 c m z z u a a z 5 u u u 2 , = * 5 r N G N m G D N N N G G P P E ] ] ] _ ( ! R P E G J ! ( I P ! E W N G W J D P ^ ~ ^ E E ^ _ ] _ ! E ! ! P N c J E W P R E I G D G G G G N N N ! G B P P c c P N c u N ! _ ! D z z u 7 7 s c c z c m z z m c u 5 * 7 * * a , c * # * 2 2 2 x m * 7 u ",
"s 8 a z 8 5 7 5 5 a u 5 2 5 2 7 7 u a a u 7 2 7 5 u 5 s c 7 r c u m c G P R P E W ^ ~ ^ ^ ( ~ E E ! I J G J G P E W E m D ( ~ E ! c I [ E m G E  .( ^ ! ( ! E D D m D G S G E E R s c N D G P E E ( E E ~ ( ! E ( c c c h c G P E 2 a m c c c h u c c c z c N c z z * a * * 7 ; 7 = @ $ = & * > > & , 5 ",
"s m c c 9 7 0 z 5 : , : * = 2 2 2 s z c c a u c c u , 5 u , , a 2 m c c P E I P P P G J P E E I R E E P G G I E E P R E ! ] ( P E ! ~ X.' ! _ _ O._ ^ ( _ ' ^ ( ( m G J N D E W P N D G G G J R ! P J P P E E J G G J R G N G P E m Z G G G N c z c k z u c m z 7 z * 7 * * 2 O * 2 $ * 2 * * 2 * 2 8 5 ",
"m 8 z 7 * * 2 5 2 7 2 2 2 7 u z c u h a u e 7 u s c 2 u s u c D c G a u G E I G S ` ( W I P G D N c P W E ! ( ! P ! ( ( ^ _ ~ L ! ] P ( E ( | E ! ( ! ( ' ' _ ]  .R ! W P P W E J ! ^ ! P G N G P G J P P P P Z u c c c G R E D u G D S N c c c z G S m c c N c a c , z 7 u z & * 2 # , u 5 5 z 8 7 a r ",
"s r 5 a 7 7 z c i = u m 7 , , 2 2 u z a 5 2 2 2 = i c N c u 5 u c I m 2 u G E I G E ^ ( ! E W E I E P I ! ! P J E W S P ! G c D P E G P ! ( E R ( ] ! ( E J ! I ' ' ] ( ] { ( ] ( P ( ] ! R ! ( ~ R ] E ( ! G ` ! P G N c c N c c s c c h 7 2 2 2 7 c z 2 * 2 5 2 , , 2 2 * & # O O O # * 2 7 a z , 2 p ",
"m m c c u = , 2 = = 5 5 2 2 5 2 = 2 r 7 5 2 7 7 2 * * , 2 2 e u r m m m G I E W E W _ ` ( ! ! ! E G S G E ^ W _ ] E D I ^ P N G L G E R S P ] [ ( ] ^ ` ! ! ] ! ] E ! P ^ ( E ( ! P G J P P S Z P P ] ( _ W N ( ! R P S c D G P P c D J J G G J J = u z 7 7 7 5 2 * > * , * * * * * * * * ; 2 7 5 , 5 u ",
"D u a c 7 = y s u u 2 , * 2 7 5 , = 7 u 2 2 5 r 5 2 r a c B G G S = r N S N n c c u D P P P I I P I G N P P I E ^ W G E _ W I I L _ ] ( E _ O.O.' ! R ! P E ] W ~ P W G E ! I W I ~ N c E ! G D E I ] ( _ R N W R I J Z N N G G G z c c m u 2 2 7 2 7 u 5 7 a 2 * # * * = * : * * = * * * * 2 , , * 2 e ",
"K a a c a 2 u N c S a = * = 2 7 7 5 u u 2 2 2 2 2 u 2 , 7 c m m c m G P P G N N D P ! ( ( ( ( ! E W P G G P D D S ^ P W _ ^ W E L W J D ~ [ [ _ ( ( E ! G P _ I J ^ ' ! ( _ W ( J ! P G E ^ W E ! ~ ` ( ~ P D R G G G G G G D N N G J J G c u 7 u c z 7 2 5 2 2 * * * * * = , * & = ; * * * 2 5 2 , 2 2 ",
"B m S S s , 5 r * m u , * * = 5 u u a a 2 2 2 5 5 c u 2 2 s m m c N m m B D P P I E ^ _ _ _ ( ! E I P I I W W E I _ I W ^ I I I N J c n E [  .[  . .] [ ^ (  .( ~ `  ._ { ] ( ( G D E E G G E W P ( ( ! I P I G N P P P I E I P P N G G G N m N S c a 5 5 7 2 , * > * * * 2 , * & = * * * : 2 7 7 2 u p ",
"s 5 a c u 2 u u = 5 , = > , = 2 7 r u 5 2 2 p a a G N n c m N N m c r 2 2 s N D N G G I ! ! E G N I E E ! ( _ ( W _ E E E G D G a I ^ ! J ! ..O. .[ _ [ ( _ [ ! ( ~ [ _ ( _ ~ _ G G ~ ~ D N E ! D ( ! ! P E ( P Z P L G J P R E E G G P D N c z c u 5 5 m c a 2 * = * * , 2 2 * * , : , = 1 2 2 7 7 7 u ",
"d $ = h u 2 u c r 2 = * , 5 7 5 7 , 2 5 5 r u u 5 , 2 2 , = = = , G S D G P I I I ! ! ! _ _ ^ E P W ! ! E ! ( ( ( ^ E ! W P G I D P ~ ! G G ^ ' ( ^ R ( E E ! G E ( [ ^ ! E E _ G ^ ( ^ E R E ! E ^ E _ E E ( J J P G G P R P P G ^ ^ ^ W R P J J a 7 a N N a 7 7 2 , , 2 2 2 2 2 2 , 2 , , , 2 2 2 2 2 ",
"L 5 c N c = , r , a = * 2 a c z r = 2 , 2 2 2 2 * = 2 7 r 5 5 u u , a S P P J P I G N G E ^ W E P P E E P E _ [ [ ~ ! ( _ I W ( W ! ! '  . .{ [ +.| _ | _ ( _ W ] | O._ E P E ' E [ ! R ~ ( E W _ ( (  .( E ! D P G J E ! ^ W G N c c m N D G J I G c u z z 7 u m 7 7 2 2 2 * 2 7 * = = , = = 2 2 2 2 , ",
", , e u 5 2 2 5 e * , 2 2 , 2 2 5 7 2 , , 2 7 , * 7 2 2 , * * # # u * 2 G I N N P P G P I W E P N E L P E W E ! ( ! E E P P E ! E ^ E ( ] ] ] | ..| ( _ { ^ W ]  .( ' }  . .[ ( W E I ( ( G G R D ( E P P R ! E G N ! W P E ' [ J z c N D J P I ( N u m G G 0 2 7 S z 7 1 1 2 5 2 h 7 2 2 2 2 2 < * r s ",
", 5 r u r 5 2 2 , 2 5 5 5 2 , 2 5 , = * * = , * * * * * * : 5 r a s c N D P P P G G G N N P ~ _ _ E I R W W I E W W I P P P E E P ~ ! ( _ ` _ ] [ ` _ { ] ^ ( ' ( E ! ( ( ^ ^ ( ' ( ! ` ] ~ ( ] _ ( ! W E E R P G E E J ( ^ R ! ~ ( ( ^ ! ^ R N Z c z z S D x c D u 7 2 7 2 2 5 7 7 5 5 2 2 2 2 2 z c m ",
", r u u a 7 2 5 , 7 5 5 2 2 * = 2 = = * * * * * * , , , , , 5 u u 2 N S s c G G c m c c u c S P E D N N G G m N G R P I E ! ! ! P ( _ ( ( _ _ _ _ ! ( ] _ ! ' ' J ! _ { { ' ' ] | ' ( ] [ _ _ { ` ~ ^ ! ~ E ! W E W W P ^ W G E ! ' ( R R E P D D S c z N c c N R c c z c a u u 8 2 8 7 2 * , 2 5 G G N ",
"r 5 7 u u a r 7 2 7 5 2 2 2 1 , = 2 2 = = * * = = 5 2 , 2 2 , = = 5 s m u e c c a G E W W I G G G R I E ~ ! I W _ G D G E ! ! E I _ ' _ ( ( ] [ ] ..}  . .[  . .( ( ( ( ( Q R E ! _ ! ( ( R E ~ I E R E E E ! ! ~ P ( ( D D ! ^ N R P D J E P G G G N c N c z z N c c z c c c z u u z a 7 = = 7 h D D c ",
"u 5 5 u u u u r 7 2 5 7 u a a u 2 2 2 , , = = = : * * = , u r e , D m c N c c m P N P ~ ~ E I I I W E W ! E I ! ` D m G E I P G G ( ^ _ ( ( {  .] ..W R ! W R E E | ' ! W E R E ! ! P I E G P W P R P P P I E ! E E ( ( G J ( E c ^ W E E R G m J G D Z G S m s z u u 2 2 u c a 7 z c c a 5 , 7 c m m c ",
"r u a c z a 7 7 5 r u u c N N m c 5 2 , = = , 2 2 r r a z c m z a P m m G G m m I D D G N c m Z P E P L P G S G ^ E I E W E G G J ( ~ ^ ~ ! ( _ ( @._ ! ` _ ! _ ]  .' ( ( ] ' ' ' _ ! ( ( E U ! P ~ ! W W ! ^ ( ( | W W ( _ ! D E ( ~ R E E D Z E c c G P P D N c m z h a u z u c c c m a 5 7 z c c m s ",
"r u c c c u 7 7 2 7 5 u s m m a 7 u 7 5 2 2 5 a z G S N c c m m c m c m n N Z G D I I G B N N S G ~ E I E I G E _ W P E ^ E N D I E E E ! ! E ! ! ( c c G G D P S W R R ^ ( ! Q ( ] ( ` ` ! E ( R ( ( ` ` _ _ _ ( { R ~ _ _ E J ' J G G W ^ I G E m N G P J G D G G G N N Z Z c m z z c m z z c z z a c ",
"r u h c z h 5 2 2 u 7 2 2 2 2 = * m c a 5 5 u c m n s 2 = 2 c G G r G G s m I E N , 2 2 c S N n u m 7 2 p u 5 s L N c N G N r u S S N J W ^ ^ _ ] ( ! ~ ( ( ] ] R ^ Q Q ( ( ! ( } W R ( _ W ! ( E E ! _ _ ( I E I P R ^ J c R W ( ^ P S I / J D P Z G P G N N D G N m c z D P G M z z z c c c c k u z u ",
", 5 r 5 2 7 2 > 2 2 2 2 2 2 2 7 m = * & = u N c 2 c P ! E P E ( ( I ! E D R P N c 7 2 c G c 7 u u G N z 7 2 2 5 7 G = , N z , s G m E I c P ( _ ] { ^ ] ] R ! ] ( ( R R R G R ' ( W ] _ G G ( ( G ( ( ~ E E ! ~ E J E ! E R W ( ( ( J ( ^ ( ( G W ^ P N N J J P I D G Z N N G P Y Z m D S D J S G D I S ",
"* * , 2 5 c m c G 7 2 1 7 2 < : 2 c u = * : a Z G s S G c z S G N P Y c u c N c D I N N N 7 u N G n c a 7 2 2 2 2 N * , c e = 2 u c P G u N P G G ^ W ( ' ( ^ E D { ( ( ( E W ^ P ^ R P ! W J P W ! ! R S N N N c P E W ! E E ! ! ' R ^ E E W D E R S c c N m S G z m z c c c N m D c S m c G Z G z S m ",
"$ r u u h c c z N 5 2 2 5 5 , * * c c 2 * * 2 c Z 7 c c a u c m a D N 7 7 D c u N D a 7 u = = u c 7 u 7 u 7 7 2 , c r c c 2 r i 2 m P N u N P S N P R c M W ^ ! ^  ._ ' ' ( ( ^ J ^ E E ^ ^ R I ^ J E E E ! _ ] ] ^ ( ( ^ ! ! W E ( E ( P P R N G G N m c x z z N N N S S D G N m c z c c c G S P 8 S m ",
"$ s m a 8 5 2 , 7 2 2 7 u 7 2 2 2 2 z c a 2 2 2 r = u s a a c N m S m u G E c : m = * , u = ; * # , , 2 u u 2 7 2 u u N m 2 i c 2 u N z u P ! E E ( ] E P ' ] ' o.( W ( ] ( ( ' ^ I ' ] W R ( _ E ( ' ] ( ^ ! ! ! ! ! W ! ^ ^ ^ ( ~ W ` E R ! G G G G D D S z c S J P P P P G D Z F m D c V J J W m G G ",
"* * 5 2 , 5 2 2 a 2 2 2 a u 5 7 c 2 c N c s u 5 2 , i N c c S D N I G m G E z = c 2 * 2 z 2 = = & = = 2 2 2 2 2 2 = 2 c 2 * u c * = i 7 r P ! E ! J ] ] ( ' E c P P J W ( E ^ ] [ N _ ] ! R _ ] ! ` [ [ ' ( ( ( ( ^ ! ! E E ~ W W ( ^ ` W E ~ J P P P P I G S N D S N Z Z N m m c G D P D D R Y ! N P G ",
"* , 5 5 2 7 2 2 7 2 2 2 u u 5 u c 7 r 2 : 2 2 7 2 h D P G G G D S ! E c u N u 2 c N 2 2 7 * * , * 2 = = = 2 2 , * r r c i , i d , 2 i u i P I P ! c ! ( ! E G Z E W R ! ( W ! { | ! ! ( ] _ W ! ' ^ ' ] [  .o.O...[ ] _ ^ ! ! E I _ W ^ P G E N P G G G P G G N S c s z c c m N c T J R J G P G R D G m ",
": a m z u 8 2 = , 2 2 2 a z 7 7 z 2 u u 2 2 2 2 5 a S P P G S N c D P z : u i 2 7 c , 2 2 * & = * 2 * * = 2 u = * s e s m c m N u u n m m P G G ! ) ( ( ( W (  .O.' ^ ) ] ( ^ ' ' _ ( ] [ _ E E ( ' _ ( ^ ^ ( ! P ] ( ( ( ( ! ^ W ( S P G G R c R S N D G G N N S c c z N G J G D G D J G D J N G S S a ",
"2 , 7 8 r z z 7 z u 7 u c m u 7 7 u c P P G N z u = 7 c N m c c c * m s 2 m m 2 # 7 = 2 c 7 = = * = = * , r c 2 * y * : c a c c 5 2 c c m G N N ~ R c R R c P ^ J ] Q ^ ' ! E Q E P _ ] E J ! ( R ! ! E I W ( ( E E R R E W E E R E z D I W ! D ! c c N G S m c c c u u N G J S N N x S N c G c V S N r ",
"= r c c c u 7 7 2 2 2 u u a z c N G m u 7 a z m c u u m c 2 * * u u N N 5 : 2 = & c c c u 7 u u 2 # * = u 7 2 2 u = m z 7 c 7 * z a , , z P W E R G E ! Q E Q ' { { ] | | ( ( ' ( ' _ ` ( E G I E G J P J J E R P E ! ( ^ E ( ( N ~ ! I G I ! E S P G S c z u z c J c z D J D c J N N N D I E W W G a c ",
"r s m c m c m z 7 5 u m x z h h m u h c N Z c u 2 u u u a 5 = = 2 a m c a c N c = G N N c a 5 , = 2 2 u c N c u u 2 c c u c c h c z c D D N S W ] R E ^ ( ' ' ] ' Y R ^ ) ^ ( ] ' |  . .( E E J m ^ ! E J D D G J E G R W G G J N E P D D G P J G J Z c m c m c Z m c m c c S c z z a h x c S D D c u m ",
"m c N c c N N c c u m S N c c m c c N D I R G c 5 r u 7 r u 5 5 2 a s 7 u G P S 5 z z m N S Z c m 2 5 2 c D Z m a m c D N N P E N J E W I c u Z W ] ) ( ( ) ( ! E ] ' |  .] }  . .( _ _ ( ! ! R c G G R E W ^ ' [ ' R W ' ! G P E E P G I E P J I I G c c N G D D c J D 7 7 G D 7 c c c c z z z x m a S ",
"P N N S Z c N D D z c c S N N c c G Z S B N N c z c c a u a m c 5 u k 7 u c N m u 2 , 5 c N m m D u z a c G P R P E D I E G ! ( J E E R E P J R R +. .( ! W E E E { ' ] ] Q ( ) ( R P E ( ^ ! E P c G W _ _ _ ] | | _ ]  .( ^ ( ( ~ E P R E I G J E J D V G J D c J R J c m G J D G G N S c c x x z z D ",
"W G G P G S N Z J c c z m N N c c N c 7 , = = , 2 i c a 2 u m m 2 c N N c a i N G ( ^ ! ! E G L E E E E J R ! ( ` { ! ( ( R W ( J Z G P ! ( {  . . .} ' ^ E W ! ( W R W E J R ^ ! ^ E ! ^ W E R J J E ! ! W E E ! ! ( ] _ E ( _ I ( ! G S G R P S R P D N D G D c J D D J J N G R N N c c c m c c a c G ",
"I D G I P G N N G D S M c D J D c c h u 7 2 2 = = , r 5 * , c h * N G P G N N P ( E E E I G G G E _ _ ^ P P ! ( ( } ' _ ( E P P G c G E E E ( | @.Q ( ( ( W P J Y ^ R ! ! R W ( ( ^ ( ~ W E ( ~ P G G G G G G I ~ D I ^ E G ! ( m ` ~ G S G E R G G G D D D G N m S a u c c z m R D c x c m m z z c z D ",
"W P G J J P P J G J P J J P J D N c N m c c h r 2 = u u = : u s = N G J P I P E ( G E E E E E ! ~ ^ ! R N G P E P ! ' ( E P Z c G G P E J G P ! ' W E ! E R Z c c W J R E G J E Y ( ( ( W ! _ ( E G N c D P G J I E P ! ~ I ! ^ J ( W J J P R P D c D P J J G D c N c m z a z c D R G N c N c 7 7 S m S ",
"_ ! I D J W ~ ! I D J P G D N z u V c u 2 2 7 2 2 * z m e 2 a c u c c c G E I P P E ! ^ E R E P G E R Z z Z P J c c ^ ! D G N m R P N c N E ( ! E ( ( W Y J R W W E P W ^ W ^ ' ( } ] _ ( ! W R J N c G ! ^ R G N _ P E ( ~ E ~ ~ E G G R R S a a u D R P G N N N N W W D c G D 2 G c c m c m 7 a G S S ",
"I ( ! R P G P ! ! D G W ( ( ~ E E u Z G c c Z D c c z c G P J G Z Z E _ ( ! ! W R ( ! P ~ ] W D ! G c h c Z N J E N c c N J J z * u P Z N ! / R ] ^ Y D R ! E R Y D G J Y P J R R N G P R E P G J ~ P J D S c c N E P E ^ ! G J R _ W P E ^ W J c P Z J ( { ( R G D c G G c c D c N c z z m z 7 a c m m ",
"! P E ^ ( ( _ _ _ m N G I P P G P G E W G D J J G Z z a z c c c c ! ^ ! E E ~ ! E ( ! P E ( E k N P c z c c N N D 7 u z z c S c 2 2 c S D R ~ ( [ _ W J J G D z c c G G S S D D G G J P R R P G D W R ! ! ( ! ^ ( W E E ! R G D D W W W ! ! E R R W E W ( ( E I E D z N c 7 7 z 2 c m a a c z 7 z m z a ",
"U I E ~ ~ ! E P S S J J P G S S G R W R D z c c z c z 5 u 7 u c N ^ E G c G E E P ! ( E W _ ~ N c G m z c N c z c u z c z z z h 7 7 z G P D I ~ ~ R G c c c h a c z D D c c D G G E E W ! W ! ! ! R I E ( ( _ _ _ ( ^ ~ ^ E P P I R W W E J P ! _ ! W W P N 2 2 a R G J G z c c 7 7 k h h z 7 7 8 m a 7 ",
"L ^ ! E P S m a r ! ! ~ E J G G P I R D z 2 = : 2 c 7 2 u z c Z P I J D c N P R D c J S m Z D u a c z a c G Z c c J J G z u a u 7 m 7 D R m G W G Z c c c x z z Z 9 c z h z D J J D G J J G P R ! E R E E ^ ! ! ^ ( ( ( ! E R W ~ J E W E P E ^ ( { ] ' ( E J J E W R E E N N J S a c c z z 8 8 u m z a ",
"D W E P G G G P I W ~ ^ E P D D G R J D c z u a c c u 7 a c m D I P E R J D G P P J ( W Z D N N E c c c S G J D V E R G c z m c u z , m P S P ^ J J D G G Z z 7 9 2 7 7 h c D G R G P E R R E ! _ ( ( E E E ^ ( ' ! ! W R J P R W I E W E ~ ( ( W c N c D G J G D W J E R m z N c u c c z x z 8 z c m a ",
"P I G G P P P I E N G P G N N c m G c c c c c c G c h 7 z c c z c D P I G N N G G P ! R N c 5 7 R c c N D G G D S D S c h c D Z c J c N G G G P Z S c Z G D z h z z c S G J R R R J I E W W ! ( _ ( ~ P G P ! ' ] E ~ ! R D G R W R W R R ! ' ( R ! W E ! ( ( ! E W G J G u u z 2 5 c a h x x z x c x c ",
"I P P G P J G S S c G G G N c c z m 2 2 7 z 7 u z z 2 , 7 z c u z c N D N c N N D P R J R E c h E D Z N M c c c c c c c 7 z N Z a G P D N D c c G c 7 u z z a z V c G W E R J J Y h c Z G G D G J ! E G D G E ! ^ R ^ ( W G G R E D R R P E ( ! N P G D G S c c S R D Z D h 7 c 5 7 u u 7 z c x z a c s ",
"W G S G G D S D P G I P G N c c a c 2 * 2 7 = * = 2 * # , z N N N c c N D G P J G 2 * = D ! c 2 D G Z N u 2 2 7 c G J G h u c z 2 = c u 2 c c S ' P Z z 7 : ; : 7 2 D E R c 9 u h G E ! ^ ^ ! W ! ( ( E R G W E E N E ( E Z N G R m J G m c R P c c N D D c z G ( D z c c 7 7 z h h z 7 7 z c c a u c m ",
"P a S G S c S S c c N G J G c z z 2 2 7 2 * * 2 2 2 u e 2 7 2 2 D 7 z c D P G u : G G G D c c c z N E G y u c u h c 5 2 c G N 7 2 N z c Z G Z D R 7 u u u z Z G G J m D E P E W G D G R R D D D G ^ ( R G J I R E Z z z N P R R P u Z E G N N G R G c u 7 z c c z c Z G G S M c h N J G c c F D z z m c ",
"E G I U J G I I G R G N c c a h u 7 u 7 2 2 5 7 z * 2 2 2 u 2 2 N Z N a 5 c G G P c z 5 = 2 u c m z G N u c c u c S c m c k 7 2 7 G c z c c c c G D D G G J P R J P D P E P E ! P D D D G G J J P J E R P R R J J D R W J a = h J E R J G P P c 7 h S J G G D G N c S S N m a u u 7 u z 7 8 a z 7 c c s ",
"E I I G D D J J G E D z u c c u 5 h z 7 2 7 h c c * 7 7 u c u 2 c c m z m G P G G G S c c N J E P u J D c G G c N N c z c c N N D G M 9 h z h c c N D D Z S D N c G D R E G P E J N c z c D J G S c R W E E R G G c S D N z u c G c J E R N N N D 2 c D N Z D D x m N m c z z z z N G D D D I P S S N a ",
"I G S S S S D S m G N c N D Z c u z 7 , 2 7 z c z 2 u 2 7 c 7 2 c u m N G P J N N 7 u r z c n c u c J G Z P G c G G c 2 h J E R P G c u h c z c c N c u 7 5 7 7 u c c D J c S J G x c c N N S c z h Y E P J N c N c c c c G G J P 7 N R D u 7 N ! D c 7 2 N J D u c c c z z c N G D N c N D G D F D c 7 ",
"( E I G J I J J G m G J G G N c m u 2 , 2 7 7 2 2 = 2 , : u , * a D S m c Z D D P c c z u 7 2 2 2 N J G N D c c Z P G M c N G G N G G c c c G G N G N u 7 7 a c c z 7 c N h m G N x D J J D c D J c I J c c m c N 7 c D N z a c N R G c c c c c z G G D N J W E P c m c m c N Z P S c z z x c c N S c 5 ",
"_ ! I I E E I J I N G J D N m N G 0 7 2 2 7 2 * * = y u u N u : c c N N N P G D G R J c h 7 5 c D P R G G P N k P N P E J Z N G I R E I G J R R G N c h u u u u x c 7 c V z c G c c D J G Z N J R R R D c G P J R 2 7 7 7 c D N c c N c G G G D D = J ( ^ E E ! ^ c V N N N N N D S c z z x x c c S m e ",
"^ I G G I I D G I G G S N N N Z c z c z u 5 2 = 2 2 z c c G z 5 N 7 m G P R J N N N c h 7 2 : 7 z G G N G E G N E c G R G P R ! ! E ! ! I P P P N z h z z u 2 2 7 c 7 c c a c Y N z z c c c c c c J P G D R E J J S z , 7 G ! E S : N R ! I Z J ! 2 D W E J J G G c c D G G S N c m 7 7 z 8 7 7 z J D a ",
"W G c S G G S S E G c c c D J N 7 N N m z 7 2 2 u r a 2 2 u , , N P J c u z m Z R m V D P R G N c z h 5 c R Z c G E J N z J ! R c E ( ( R G J V u N c D G D z u a c 7 u u 7 c G c z h 7 a c c 5 = 2 c c c D m 7 u c G G u * * z D ! E G R W P Z z W Y c a c J c = z c Z J J G Z c R G G E R G J R W P m ",
"E D S G R I I E E ! P P E P c = , N u : 2 7 2 = : = = = 2 5 u u u * N P G P ^ ~ J G N N c = u G N M N N c u N P W h J ( ( E R G Z h c G N h G J 7 N c h 7 2 , 7 z 7 z c c h 9 a z 2 z N c u 7 c R N V N N N N N c * * 7 c c h z D E Z * 7 G P E G J J E E R S s m c G G u 5 c c 7 c D D c x N G G P D G ",
"W D S S D D D P U E N N G Z h u c c u : u h 2 : : u 7 7 7 r 7 u 7 u a m N N a 2 2 u a N N 2 u Z c u B P G c h c G G R E J D c c c E P J N u Z R Z c c h h 7 7 z N u z c D D c Z J h 8 2 z D Y D c N Z D G G D Z N D D J P G c D E : G R E N u W | ! I D c c N J ! P P D Z G I G z h c D D G J J J S m D ",
"! D P P E P P P I P N N N D N m J 7 7 2 h c 2 = = 2 2 2 5 2 2 2 2 5 * 2 N N 2 , u 2 7 Z G u u N u D G P P G N N N D G G G J R E E ! J G G c c J G c c z z h h z c c h c J G Z Z R E G c G E E Z 2 c D J P J G S N D N N Z c z N R c G c P J N P R c c m c c c z c G G N N P W P c h z V G J R G S S S m ",
"! P W ( ` ( ^ I I P B N G P G N N u 7 u c c y = = * = 2 2 2 7 7 u 2 2 u D D s z D u u N D c M D u E J G P I I P I D G G R ! ( ( ( R N P W P c Z Z G G D V z a h z D u z G G z h Z R R E W R J G G D J R R P D c c J Z c V J J W ^ W N * z W W R z G G J P J D c z a c c c Z P N 7 c m N G J J N k G S S ",
"W P E ( ` _ ^ E E P Z N G I G c 2 i u u c n a 7 2 = 2 u u u c c c 2 N G N c m c u c 2 u c u N P N R G D R E R E ! ( ^ W E R P G D I N P ! J Z J R R R R J D c c c D z z G J c c G R W ! R Z c V J D J R R J D N c Z z 7 a G R I P Z D z G R P ~ _ E J N 7 u c I ~ x G P D Z S S z J D Z G P P G D P P P ",
"( P P I P I I I P G B N G E J c 2 c u h c N c h h 5 2 2 7 u u 7 2 7 G I N c D Z z c , 2 2 2 m P N G N B E W P B G ] ( ! E R D N N R N G J Z J ( ' E E Q E Y J G G Z c c J E R E W ( ! R J D N c c N G R R G Z N D D c 7 h S P D c G I G G D c E _ u z u 5 7 c D P D G I I G c c S J D S G J R R E I P P ",
"_ P L G G P I G N c c N G G N c u u h u c N c c c 5 2 , 2 2 5 2 = 2 c N G S N S G a 2 c c u c G N I N N P P N N G ^ W E E R G G G D N G Z c J ( ! R E W E R P G J c c Z D J E E R W J D G R R J D c D G G Z c V D W E E W ~ ( ! R ^ G 7 c G c Z c u S P P P G N c D c c N S m c z J D D J J J J J D S L ",
"( P P P E ! ! G a = 7 c c 7 2 , 7 a u u c c c h u z 7 7 7 z N n c c 2 u G Z , = c M m G P c c N c ( P c c k u G ( J J P R Y Z 7 7 7 c R Z h Z G u E E E G Y D c c c Z Z c c D D c P G G G G D c N u c D N c 7 z N a Z G D J I R E G c u S G c J J D G S r 2 5 u z P N c c J J G N J J I J J S z x m m N ",
"` P E W ! E P E ~ G u N = = N 2 u , u u 2 c G N r 2 G G c S u 2 G G D N c c c G G N N N N G G G G G G G P P P Z N S D G D Z N D G ( P = G R m P R D E ! J V D R E R G Z N Z G J R E R ! _ ^ J J W P R P c N R P c E z G D J E D E D 9 z c 2 7 c z N S c z c Z z 7 a 7 z Z D c c G a c D G S S D J m S 5 ",
"[ G I E I J D Z G N u N = * u & ; k e = & * 2 u y * N N m G m 2 N N N m a u c c c m G P E E R P G G N N D P P P G P P J G G G P G J ! D 7 c ! ! 7 D ! ) Q R G c c Z G G Z Z G G G ( / W E R Y D D J I D z c G G c D h D c D P c D E h 2 c Z J J h * m R R c 2 : : 2 G ^ R 9 2 c P D G R T J F D D G I s ",
"] L I E I P L N m c z S 5 , r & * 2 * # # * 2 c D 2 N c c B m e c N S N N B G G G G P E W E E E P G S N N L L P P R P G J P P G N W Z Z G ! ( P G R Q E Z V D R R G E ! E D Z G E ( ! R G J E P z J J c 7 h G G m u 7 G c c G u z R 0 7 c c G D 7 h G R G 7 = u G N G G N c G G c J P R R J D G J P U S ",
"` D P I P P I G N u c N r = 2 : = * # * 2 u r k N J G m u k c c c N N N N G L P P P P P P P P E E E L G D G G P G I R E R J Z c c R y D W ( ! G ( W W R D Z P ! ( ^ ( ( ! G G E ( R ! R N G ~ W Z J G c h z S G S u z R c c J c c G N R T z h N V R G c z h c c G E N z D E E P D I P R I J D J E I ~ D ",
"] B P L G G P G N 5 m z 2 ; * 2 * 2 = = 7 2 = , m P B N M c N G c G D m n m c N c P G G G P P G B E I P P G P P P J ! ( W D z c D 7 G ( c c _ E P R ( ' ' ' ( R D ! ! W E Q ! Q ! G ^ ^ G G E W D P G N z c D G D c N W Z c R D J R R ! ^ D F R Y D N G I R D c 7 G Z R ( ! N R { ^ W J J G G T ~ I ~ D ",
"[ I I I E E P G G c P m a 5 , h = r 2 = = 2 u G E s e N P G P P u E P J G G G D N G G P E W I B c P I I E E ! E W R ! ( ! G z c J N R ( R P ! ! Q Q ( ' ] ] ' ^ E J J J R W E G Z P ^ ^ T D G G c G D D N N D N D J D W G c R Z J W S V J J W ! D R ! ( ( E Z D P ! G R ( ` E E ' ' ^ R J G G J R P E G ",
"` P P E ! E I J P u E N S c u G 2 2 2 : , u N E ( c 2 N P m D P 7 R P G L P I P J E E ! ( ! E P P L R W E E E ! ! E E R I J J R R ! J D ( ' R ! ] ) ) ^ W W Q ^ ) c Z G J J G c h G G J G D D D Z G Z D G D c c N G c R G D R c G Y z u c S R R z _ ( ( W P G I ! R J G E ' } ( D ( E J G G J J J P E G ",
"^ i s D P J S D P * G u M c u G 2 : h k u y z z 2 E c N N = u G u c c s c N S N c ( ( ! E P P ! ` G E W E R P I I ! R G D R W W E Z W c c R _  .E ] ' ] ( E G c h c V V Z Z Z D c c 7 2 c G J J R D S D J G N c c S h G N G P c G N c G D 7 u c z E D N E ( ( J 7 # J ( P J ( ( G J D S G J J J J J E G ",
"W W B m R P c 5 N u c m i 2 2 , = N u 2 5 e u c Z 2 D h 2 D S u N P 2 = u N N m Z ! G J ( ! G P ( _ ^ R G R ( ( W G N S G D u a G S G R Z ] E ( ' _ E ^ ! ! z D Y N c N Z Z G P R D G G J R G c S G J G c N E P u z N R E P N D R ( P J E E D R ` ^ E _ ( ^ ' P J ^ ^ W G I ! ! R _ ( ~ E ! ( E G P G I ",
"W L D m m N B J P G D m u 2 = = * N c u u u 2 2 u u N c 7 h u 2 u 2 r , = 2 N Z N ^ E W ^ W G J ~ ` ( ! E R J T P ! E R E E P E _ J P I J _ E E ( ! P E R ! c G G 7 z c z 7 7 z Z D N c c G c z N Z S G R R D c m 7 7 z c Z m c G c N E ^ G 2 z ! { ! R c h J c G ^ ' ' ^ J G G N ! E J J R ! ! E ~ E E ",
"_ D P L N m R W P m N c a r i m D i r 5 c m a i a i u m c : 2 u = $ c m = * m P G I W ! W R E E E D G G R R I ~ ' ( ! E P I E ( ` W ( J E E ! D E R R P Z I G J D c G J G c c Z J m c a 8 c z u Z D c c R J 7 2 Z z u 7 u N G D D P N c R W G c c P c c 2 z ! ! ` E ( ( E N u u z J G J R W ^ ~ ~ W U I ",
"_ G P I R P R I G B B B D N D I ! c u a m N N N B N u G G 2 2 c 2 = c c 2 = 5 m c Z E ^ E I ! ~ P ~ I P E J c m G E R G G G P E E E ( G ! R ^ Z ! R E R D N c D c 2 h c x u u z N c c z z c c c R P c z c z 2 h G N z z z S G G D ! N 7 c E R P P ] ! ^ J J P 7 : W R G G D N N D Z N I ( ] _ ! E I G P ",
"^ D m S E E G N I ^ E I I P D S G R G D D D m m D P c L P 2 2 m 2 2 : , 2 , * = r c E ! G G E E D I S S D S a a m G P P G S P G N D E c E P ( J _ P W ! I c c Z D D N c c n c S D N N N c D c Z ! N G N 7 h D D c 7 h a u u z m Z c G P P n c P ' u 2 G G ^ | W I _ ! E ! ^ E R R J G P ^ _ ( E E P I I ",
"W I c c P P m N U ! I P E I D N D E G D G P G G P J N G G i , 2 2 s * * u c , : c u G P N N I J c 2 , 2 h N J J G D P R J G G G N M P N G P I Z E N R R W D D D P ! R Z c G P P G z c z c c a z P = m N 7 c J c & = 7 a u 5 a Z G N G R W E R E ! ( ! ( I E ( D c ' ( _ [ ' E D G ! R G J I E E E I I W ",
"W I D N G S N D G I m B P I D B G G N D P P P P I N G S G G 7 * 5 u , : e a k c S z S Z N N G D c z D G N m N c 2 G J P G N N Z G N G J c E m u u N c h W P G m D m u 2 2 r z a u 7 u 2 2 u 5 2 c * 2 c c z u 2 ; 2 u z c c N G G ( P N P _ ] W c N Z ( E ( [ ' ] ^ E ^ ] ( J c D I J J I R ! W R E I I ",
"W n G G m c G G m ( G c G P n u u G G G I P B c u s D N L ! m & z * 2 , # # 5 c k N G S N G G D N * N P Z N P I N G P G m 7 u c G h c P z ! u h 7 G 7 * J P D 2 z u 2 2 7 c N D c u 2 * = 7 5 , u c 7 z N u * = S 5 u 7 u c G G S W E D N J E R G z G { ( ( _ R E P c S ! ! J G E c G E ( ' ` ~ I I D D ",
"P G P R P D N G I a D P G G P G u r n m c u u n N B c c N N u 2 2 = * * , = * * : c u u a c c c c I G N m D R ! ! L B D G Z c u h G c 2 2 2 2 2 u c u u c c 7 , : 2 u c u 7 k u : 7 ; * * : = 2 c N z 5 e 2 * * , u D N c c 7 * u 7 c N c c G J G ^ D 7 c R W G h E P P R R ! W E ( ( [ E ( S D 7 S D K ",
"P E P G P U W I K m G G m m P G n c D G c r 2 * * c u i c k 2 = = : : = = = * : 2 5 u c S J P P G G N m m N D G G c 7 : 2 2 2 u N z 2 2 5 7 2 7 7 a , = 2 7 5 : 7 2 s c 7 2 2 2 = u 2 : 7 7 2 7 z 7 a c c z 7 7 z 2 u 5 7 Z c u c c N N c c G S c N c N N N c D P ! W W R R P R G ( Q ( F E c G c S S D ",
"P P P D G I I K S L P G N m P P G G P P G m D S m c s u c a , = = r r 2 , , = , e 2 a c N D N c 2 a c c m m m c a N a u z z c m G u 7 7 a c a h z 2 * & * 2 2 2 7 * u a 2 * ; : 2 2 2 2 a z u u a = u N S c 7 h N 2 u 2 7 D N z N G G D N G P G c u c D N u y N I D D D S c N D D / E E c D z S N ( W U ",
"P N P E I m d G E P P L B m G L D G N r 2 r c D P c i u c u 2 2 2 c a r e 2 : = = 2 2 u a 7 , = * 5 u c m m c u u 7 2 u c c 2 * = z z a h z u h c 2 ; * 2 7 2 2 2 = 2 2 = * * 2 7 = 2 2 z z z z c c c N c 7 2 c D c N u h G S u N h u u z c m c c Z N c c c c m c z m c c z c N G E R R G J F D N _ ( ^ ",
"P I W W I D S I ^ S G G S m m N c W P m u u s s c m u r u 2 : , e s t r u 5 , * * * = 2 2 u u z c r r s s a u r r r r u c a 2 = 2 5 u u 5 2 2 2 = 2 2 = 2 2 2 2 5 5 2 : , 2 2 2 2 = 2 7 7 u a z c D S n a u a N G z N m c G Z N P c N N N c c c G c N G J G S c z R R J G D G J R J R E Q R J S N G I I ",
"P ( P c c P U I D m G P P G S N m E U I E I P m r N s i k u e e s 2 , , r e , = = : = = : 2 r s n 5 r 5 2 2 , 2 , c 7 2 5 u 7 N J 5 u a 2 2 5 2 * 7 2 = , 2 2 2 u c 7 2 7 h u : * 2 r 7 2 2 r z z 7 5 2 2 7 a s u : m c z N N N E E R R P Z c c G : m P R G S G R G D D G G G D D c J G ^ J R m N I I W ",
"P E N u c D P S q S D P E P D G P N N B G D m u 2 c u u s c u c N = : , e 2 = 2 i : : = * * * = * , : = = 2 , 5 , : * # * * * 2 i 2 2 7 2 2 a u 2 7 = * = 2 2 2 5 a 2 2 u c u : = 2 u 5 , 2 2 u u ; 2 2 2 2 2 2 , 2 c s c S c u Z N m N D c u 7 u 2 k D J P R ! ( u z z c Z m z 7 7 F c ^ D R a c ~ ~ W ",
"I N G J P S m s s n c B P B c S I ! W P N m z u r 2 = = y 7 2 u N 2 2 u r , * 2 n $ & * * : : = * $ # $ = 2 u u 2 u 5 u m c u 2 , * = * & ; 7 a : = * * 2 7 2 : , 2 = 2 c M 7 1 2 2 7 7 2 = 5 7 u 5 z S c 2 2 u a r c c c D c 5 m G c c P E P N N J z 2 z W ] ` W S F D J G z 7 & 2 c 9 Q c J z N m m n ",
"D n d n m m c a s m c M G G c c P E N c G N 2 = u s i i s u , 2 a 2 , 2 2 , = 2 2 * = * $ $ % : , * $ % * * $ * : 2 e u u 2 2 2 r : = = ; * # $ * , u r : , = * 2 c = $ * * = 2 u = , r 2 2 2 u s u e : = = 2 2 2 = u m N c u u u P c a u G R S a E D D D N 7 G ] ! z 7 7 & = m 5 7 2 7 c D c u 7 P J m ",
"B s s s d m m n N G B G I P G G E Z B L E P u , e t e r t r , = , u e u u e , e r = q = * * : e , = * % = % @ % * O @ * * $ $ = r r 2 , * * $ * * : u e , 5 , * 2 , : , u u 2 e e 2 e e 2 : : 2 2 u e 2 , 2 5 u u 2 u u u 2 , 2 r c 5 2 7 B P B c c a c J P m c Z N : 5 c * 2 h * u 7 2 c D S c m c N m ",
"m m m c m n m n s B c N L G D G P D L P G m s u s * , , e 5 : * $ r q 5 u e , e 5 , , , : = , , , = , * * $ @ % % r r 5 * # # $ * u r , : * * * = * 2 = * e 2 , 5 = = * , , : = = e 2 , : = : : = 2 2 , = : 2 7 5 2 5 2 = * * , e 2 2 , r n B N z S z 7 = h c N c N 2 5 z 2 2 2 & * & * 7 z 7 7 z 2 c m ",
"B m m m m N B N c n i z N S N c m B G D n u u u r * , , , , , = * , : , 5 , = , > , 5 , * * = * $ * * * * % # @ $ * * $ = : r c m 2 : : = = = = , * = * * , e , r r : * # $ * = , e : * * = : = = * * = * * * , , , 2 : * * * = 5 2 2 , r i u c u N N 7 * , N G c P c u 7 2 = * # & & > 7 7 , : u c m s ",
"B r t s m D P G D N n N L L B m m u N G D m s : @ , = , : : r , , * * > , * * * * q , , > = > % @ % = , = % % * % = : : * * $ * : , : = = = , * , * * $ # > : = , r r 2 = * * , r , * * $ * , * * # % * * * $ * * * * = * * $ * = = 2 = 2 2 = r 2 * c Z N c N k , G c 2 = 2 * # & 2 2 2 z c c m N S D s ",
"K r s n m D G G D c m D L G N N c S N S B N u * $ : , = * * , , = , = , , , , , , r r e = , , * $ % , e : = , , = N c a 2 * $ @ @ = : : , 2 , : * : : $ $ = * $ * * * , : = , * * 2 = * * = * * * * * * * $ & * * # $ * * * * * # * = = = = , 7 u * 7 c h 2 2 2 , 7 a 2 2 z 2 $ * 2 2 2 c c c S G c N m ",
"B d B B m B N c m c m N G m c N N P N c N m r , u * = * $ * > > * r , , q r r r r , , , * , r q , * q t q , r r , = $ * : c m D N 2 : , , , : = * , , $ * : * # * $ * * * : , * @ 5 , = : : = * * $ # * # * * * # # # # = * * * # = = = * = 2 y u u 2 * * * * 2 c u N u u G u * u * & * 7 a 7 u c r s c ",
"d m m D D B N D D B G G G N m G P N u n I P r = e * * * % * , , * d e q r u p r 5 * * * * , t r e e s s , : r r , m u e : * * $ $ r , * : e , : * * = * * , : % = u u 2 * * , e , , , , 5 2 = * $ * * $ & & # # O @ # $ = = = = * e * * # * 2 2 2 2 * # u z z 5 u G R c u N 2 & c 2 * # * 2 2 2 , u p r ",
"B P D B D I E I L c E P c m N s c e N P G u * , B , r s s r r q r , s n r , 2 5 r : , = @ @ * , , * , t i e e u n s u r i a r * # * r q * , * # % * @ @ * = * * : * : , * * : e r * = , : : = , q # # $ # $ * * * * * $ * = = , a u u 5 * = y u = h u N Z c : * : 2 5 : 2 G G N G 7 z S N N c z 2 S G B ",
"B P G G P I I D N s G n u c c r u L N M B G N i e q r u u r q e r * , r r u u e * c c r = * q r , , , 2 , , , i n , > * * , , * $ * u r , , , * , = % * r s e = * , * * : i s u , m N m s u 2 2 , $ * 2 e = * * * O # * 2 e * # , , 5 2 * = r u 2 5 * c , N = c z N N u 7 m c 2 2 c z 7 = * , a z N S c ",
"d m D P I I P S s E E D B E P m S N s u n D N e * s p s r a s s s , , = , t s u * N N c u u c u , , 5 , , , e u u , , , 2 , q q , : s r , , * * r q , : i m i 2 : = * * e c s r = 5 2 5 r e r s p , r a u 5 , , , $ = 2 i z , = r = 5 5 = = 2 u 2 a = G * E k ! G m m z h n N c a c c V N N D N x N S c ",
"B s K I I I P G D I N e s P m 2 s a c N N u e 2 u s i t i c s s r i r , : 5 s n s c m c s s n i , u i u u u i u 2 m c s s t t r r , s r : , * % r p , = , q , 2 r $ = t s , * * r $ % % * , 5 r r m s i u r r r 2 5 5 5 2 a r 2 n , 5 2 2 > 2 r 5 u 2 c > N c G k 7 c m c c N G G 2 7 z c D G c 5 N S d ",
"B d K U I P P P P P B e u L c 2 m m B G N s s c N i i i i m s r , m d s r 2 q s D u k M n m B N k m n i i s c c r m m p r q , , > : s r , , * * r e : , , = * * e * : r , * @ > s i i r r 5 , * * m u 2 r s s r 2 2 , * = i u 2 a s a a u 5 u s s a N i G c E c c c G J m , = 2 u G D c u a c S S m S c ",
"B S P W I D G L G I I B m P D n D P m 2 5 m G m 2 s s d n n s e : i n B B s , r m s m D S N G D D N c u y i N n s d s p r r q 5 , r d i q t r , s = = 2 u e * $ * r * $ * : e e r i r r r r r 5 , s , * , r s p 5 , : 2 s G B r 5 N s s c c s N G c P u ( z ! c D z G P c , , 2 5 J Y D N m S m s D P D ",
"d m P W P D K P G i D m u i r , r D c 2 5 c N c , n n D B m t e 5 s i s D m d s m N G D M m N D G n c c c c N N m N m s m m m m a r s r r d i 2 r * * = 2 , * * , , * * = e i u : , : : 5 r s c m i 5 , , , e r s e u u m D m s m G c a m c c m G c c = D = c = z c G G u a c m c 7 7 c z c u , $ G E U ",
"D s K I P N G I P u I I m m i r u c G P N u u c m m N D d r , , r m r 2 m D S G P D G B u u s c m u n N S G G m s B S d m D D n s , q , : p p = 5 , * @ $ $ * 2 m # , i r , * : , s u r , r i n m 5 a c s r , 2 s r u : * = , u G P c u a a u s c ! I G P N a m P P W G u c S c c P P G c c D I E D E W ",
"K K K U U U P K U K D K K L B D B B D D m s n B D D B B m B m d s B m B B B D B i B d n i i t t s m m B d s s d m d s d d s s p w s d m t , = q t q , = * , e , * : * : , , = * % r , , p s s s d D d q , q p d m s s m a , q r c B S n r , , d I s a , = , m m m S S D S S m s r c r i m P I P D s w s "
};
