/* XPM */
static char *bd2227964c734b99a1ebb9509282e571Jm9i3rJjTcoAq0WJ[] = {
/* columns rows colors chars-per-pixel */
"148 152 86 1 ",
"  c #151514",
". c #181715",
"X c #161A15",
"o c #1A1A16",
"O c #181718",
"+ c #1D1C1A",
"@ c #201F1C",
"# c #1F201D",
"$ c #22221E",
"% c #272A1F",
"& c #292B1F",
"* c #1E1E21",
"= c #211F20",
"- c #1F2021",
"; c #252522",
": c #292723",
"> c #272924",
", c #2A2A26",
"< c #292729",
"1 c #2D2D2A",
"2 c #302E27",
"3 c #312E2C",
"4 c #2C3224",
"5 c #2F302C",
"6 c #32322E",
"7 c #38362F",
"8 c #36392F",
"9 c #39382F",
"0 c #312F32",
"q c #2F3131",
"w c #353532",
"e c #393634",
"r c #373834",
"t c #3B3A36",
"y c #353539",
"u c #393639",
"i c #373839",
"p c #3D3D3A",
"a c #403D37",
"s c #403E3B",
"d c #413D3F",
"f c #403F3E",
"g c #433F3E",
"h c #3F4037",
"j c #3E423B",
"k c #3E413D",
"l c #41413D",
"z c #42413D",
"x c #48453E",
"c c #47483F",
"v c #3E3E40",
"b c #3F3F41",
"n c #403F40",
"m c #423F41",
"M c #433F44",
"N c #3E4041",
"B c #414242",
"V c #454241",
"C c #424441",
"Z c #454441",
"A c #404044",
"S c #444244",
"D c #454445",
"F c #484741",
"G c #484643",
"H c #484545",
"J c #464841",
"K c #474844",
"L c #4A4945",
"P c #4D4945",
"I c #444149",
"U c #474749",
"Y c #4A4749",
"T c #474849",
"R c #4C494A",
"E c #4C4C49",
"W c #4B4A4C",
"Q c #4E4A4F",
"! c #4C4C4C",
"~ c #514E4B",
"^ c #4E504A",
"/ c #51504D",
"( c #52524D",
") c #4F4D50",
"_ c #555350",
"` c #5A5B55",
/* pixels */
"*iwwppiffpBppTRHBfBnfppfppppnpDSSBnnBBSVMBMBBSBlBBflfpfpfBpi6iwpflfVlfSDYUDSDDBBBBABVBBitiiisHuppiwwieiwqwi51uBppppppNABBBnBSDDBBNbBBBU!Q)QWWQP(HnIb",
"Oiw,w65trtltiZHlteeiiwiuitiiiipupipipippuuueuiiietiietutitw>,6:6tw6wtwwiiiiitiwwiiitiip515w6eCiiiiwipliw1wp5>iiiiiiiiiipiiippbiiiwitiuwwiiwwiuppw1y0",
"#jw>w66trtprrJGltwtttripittttepppppppiVfppppppeiippppppplkw>1t>6trwtpwrtttrrrrwwiitittt1,161wjwiw63wipi6,rt>;riiiiiiitpiipppspiittiippiuppupBAji01yy",
"Ol6>rtrtrrt86slpetplstttptttppppppiiipfpptpppttttpitpptppp6;1p>wtwwtprjjljptrrtteiiwwwt,;>1,6pwiewwipf611wt>$riiippppppppppppppieiippkppipiipblp11yy",
"Oi1;6ptpp:l6tlptpppttrllttptttttttpptttpppppptilGpwtpp6wpK1;p6:wfttpptpplpeeppwpfewepptw1133wi6pp61wpl663ep,;wlptttitpk6efiiljpttttplBlitppiplplp1,3",
"Opw;wptll1ZwefppppptttlltllhtttttpppspippppsppljppttpspppL6;fw>eppppptpplsttppwiiwuppitw1116wpwtt63tfpw66wp,;tfppppppklwipppVlppppflllptipppfVlZf1,q",
"+p3;wftfl3GwwttplptrtslsjlxlptptptpssptttttpptGt6tpptptttl,;p6,tpttsptppfpttteweiwtfpttw1113eptpi6wpstw61wt1:tsppfsppplrtptpxlppppllppptippppZlLf6,1",
"#k0;6ltll6Lrwttpspttpsstplllptppatsspprrtttpppp11tpwwlttwi;;p3,tfptppttppptttieiwiipptti6113wpplt66iptr61wt>;tkpfpkppplitptpVpspppllptlppppppllGlw16",
"+b5;6ltll5Lttplptttpttppslllttsppptspptttpsstt6>>tstrlllps>>B61tlpetptppppptteitteettptw6111wppllw1wtpt6>wt>;epppppttpjtpptpVpsppppfppZfpplpppjGCw1w",
"-p1#6stll1LtpplpttpstrlllxZlpsfpppspspppplspw66,3tZlllVZll,:l11tBsttiipppsptitiitteiifpw1,11wsefpw1wtpp6>6t>;eppppttpllippifZppptipjllZlpslpkltJJi5w",
"-Bw;6stll1GtpllspllsptlllZGllljsppsfssppsllw313wpllxlllVll>;p,1pVltpttppppppptteetpttppw1113wpwppw3wtpp6>wp>;ippppttplkpkpipZttpfkpplBKkpllflZtGKw1w",
"+Bw;6ptll2Gtplllllllsjllllxlsssspsssspttplp6:$>pPxttlxlHGZ1>B51pVfppptppppppttpiwtppttle3,15iseppwwtptlw>wt>$wpppttitlpiptwpBttpBlpppBLpijkpplpLZw11",
"*p1;wltlG1>ltpllllxllsxllllllsZHHGlflVlttpw666Ps6wpxllGlLl>1twwsZlpppppslptttisppppppfsp1>616fppiwwpppl61tt>;tiwtpiilpsBlppBZBGlplVppZlZlptijlllZp16",
"*N1;wpplG,>lptllllxxlplllxxxlllVZZVxllx6rGl;1G1165$oO$w6ll13p63efpiittiplpkfptpppppppfpp1>663ppppwwpppf6,tp1;iiwtpttlpplljpllpLlpllppxVVZklZDHllCt,6",
"*p1;rlllx1>lttlllllllsplllZxllZllVxGZlwtw61wtttplZw$+>@@3w>3t61tllpspptppslflttppppppppp1>w66ppstwtpjps6,tp,;wptiptpBjpllsklltLlppjpplpkppfZDZlllt>1",
"=k1;illll11ltrlsppslllpsxlllllGVllZZVspt>o>sl6letZGw>1$@3w>6t63tBlpppptpppsfjptpppippptp6>666pjppttplij61tp1;6ltpptpCfpBBlkVltZppppppllsptplVkssZt>6",
"+N1;illll>1lttsspsslspsllxlllfLGllZZltE>o6t>6Kl66pp616pwtt>6lw>6pptttwppfppppfpppppppppt3>w66sppptppptj61tp1;wBplptplkplBklZCjlspflllCZllflZZkllJp,6",
";p1;wlxjl>1ltpllsllllllllllxllZZllZliww>161o:Gslxl6>6tLpst;1tw1wspttttpjsptiplpppppppljp1:666lpppripptj61tj1;wBpkptpCppllkfVZlClsllZZZllkplZZlflGp>5",
"-N6>wlltl>>kplllllllsllllxZxllVVVlVpw6@16>$>11wplw>$16swpt;,t61tslfflpppppppllppptppsjkp1>w66lpppttpptk61tp1;wptpptplppllljlZlljllHHZCppppflBllxGt,6",
"*p3>wslpt$;ppZllllllsslllxxxlllllZlpw36$+1t6>>tpr66tt6twll11t6>wppppptipplllllppttippplp1>wwwltptwtpptlw6tf1;wpripiilpplCppklllppVLLZlllllxZZZZGKp16",
"+p1>tplllt61rEllllppsffCVZVZZGPllHp31wo+6tetlw6klttZlwlpZp>1tw1tllipptlppplZVllfppppppxp>>611Btspptfljf11te>3VlppppppplplZVllKlkVLZlZGlCllllxllZlr13",
"+Bw>tplpppw3wtfllsttpspllxllxVwLEt361>iwlZtet6slltipi6stpt:1w61elptttwpspjpfllflpkpspfZu1>633Ztppwitppf31tt>1plpppppppZlBZCplDllllfpZElllllZZVlZxr56",
"@Sw,tpptwtpr61tppsttpfpkllllllpPZw>11;ltZGppltppsllpptsplt11t61tllpttepspppppppfplpfkpGp,1616Zefptwtptp1,tr>>tttllpppkfpfliwtpZZlstpVEllBZZZZZZLZt6w",
"=Bw,tlw66tlst6ttpttpllpfslllll_t:11;:6ptlxpsZstwsRElppllGp16pi1tllptpijlplpppppfkpppppZp1>316xtlltitppp11it1>63tlljppBppppw5wtxZZljlZLllZZVZZJZLZt6w",
"$B6:tl36rafllstttssssplsjllllsa>o$>>6lZfJGppltptl~EpwpGZTl11tr1ellpplpppppffpeppppppppZt1>313lifsrwippt11tp1>6>3rpllllpplptwtltfxZZLZVlZZZGZGGZGZw55",
";B6>pB6plpppflppssssptlpfllptw+5w>>tZGBpZGpsZppplPLllEEEEl16tt,wlfpsjlpttpfstwppppppppZp1>3,1xeppiwtppp11tp1>6>>>6pxlpppsptwpCwtllLLDklZZZVZJLxJlw66",
"-Cw,tltlxptpstpplfpppfpslllt6>:wt6wGLlstlZpZLxllZLxppLVppw>wpt>rllslllpptttpitppppflkslp1>313xplpewtptj53pp1>www116tplpppptttltppplGZpllllslZZlxlr6i",
"+Vw>eitllttpsttppssslVpfBllt1$V>o1lxptLlxZplGlVLEGw:++1$@++5p6>wflllVlpptteppfppppnlfsli1>613Dplpwwwiwl63pp1>rlfw1>1pEllVlpttsVZlwtlVflBllsjlZxlp7wt",
"OLw;ltipsllpslpfppplfpplw6w:@f@1tllptflVZZVlppHHp6::>;6665>wsw3tfstllpwff3oO@$pppppffBt31ww3wpkptttieiV>1wt6;wwpVp1$>i>;+;tpwfplplPltkt;.o+;wDlpG6>w",
"OLw;Zptppspsslpfftpllpl6tr$6G$>6plxllZlBCZZlllLLZftwetttpw1wp61tlllllpffp6>;;;weeieetpp11ww36CppprtpppZ16tpw;r;3tt6;;,1>$>tptZlBptJltlw1$$$$6ClpG6>t",
"OLw;TZfptptpllplpppZZstl6:6lw;wtsxlllZlllxZZVVZDLPZVVDlZZt16t5>tllllftltwplptttptttpklf6>ti3wLpltwefBjV16tt6;6;16ti651pw5witpZfDppDltppptt61eJlpL61t",
"OD3;RZVlptetpsslptpVVpwt:>s1@ttsllpplllllsflZBfVZxBlZZfVGt;1e1:tZZflliVewlRGVTfVlpipBBVw1ew1wTflp6wpfpx16re6@6156wttspJlftitlCtZlsVltpBVGHpepZlpPr1t",
"OC1;LBlspttttplpttpltwwo6p;$ttpjlljsslCBlpflVlplZllllspsZt;1r6>tZlllliZitlDpelsjtwitspV3>6i16HZst6wttpL1wttw:w1,16illVZtklwtGDtZxpBltppplllpppptLw,t",
"OZ1;Dlitppptptptttiw3>@1w1$6llfpjlllllDVlllVZVlZGlpZZlflZt>1t6,iZlfllplppllssVptw6ilflC31ww>6ZKlpiitplZ16we6;r;;3tlZlpVwpl6rZjkLlriltppttpppttptEt,t",
"OD5;Dktitptttrwwtse1;>@l3$plwLllplllllVZBBBVZZlZxllllllxGt>3w61tllfxlppppplLLZptwtkGZlp65ww1wlVlpewpllB>16w6;r16tlZZltLwpV16lrpGt6tlpppppkllfptrLr,t",
"OD5;Kltpttwwwewtplw$$1P#$tpsHllljpppllllllfllVlpsfpppVllZt>1i61tlppllplBpweVs6ltwwfZlpliww61wZfBp61ippD16wew>plllllfllLwpV1wLptlw1tlittippppppttLw>i",
"OB6;lswplpttrpwr6$;61+O>rppllppptssflsppplBVlflpjVZljlZpxt>6lw1tVlewtplpppplspLVptpppi~p6661wlZDBttpBlL1wwtw1ZipllfpppHtfl6wZlRZlVZllstplpitplllpw6w",
"OBw>lprplpttpll>$56$$3$6tjslltllpllxxlpppsllfpVksBlspllsZt>6s31tZZfslVfpppflsplfpipsspEi1663wDllpwwtffD1wttw1CppflpjllEplZiiZfHlllllptttttpppltppw11",
"OCw:ltpppspllZ361;:11>1tpllllplllllZxlkklkllkpxppllppllsZp>6t11tZGBlVZppsffspplfitppspLi1663tLllpeipBlZ>6ttw>lpflsppVDTffZllZfVfklllspppitplsptllpw6",
".Zw:ltftpllxll$66;;ww>tpllllllkssllZZlllllllljZppllpplxlGp>6p31tZZBlllppllfpppZVlpppppDi3w33iLlljttlZZl>wei6>fpsplpfZZZfflBlBffpllVllVlpppppptwpllww",
"OBw>ltptlZlltw3@+6lr6jpllplZxllppplZllllllflllZppllsplxlKp>6p61pZBplfipklpppppZlpppsllLt66w3wZpptwwiplC>6wtw>ltflVllBCllfllppZjjllZxZZlllkpttp6itw11",
"OZw;lpttlxlt6>;>1tZGlllllllGZllfsslZZlClllllllllpllpplxlZp>6p63pZlsllesllfppppfietplBZKt6iw1wZpjpiwtlBV>wttw,lppZZllffpClplttZppplllllpllljpppwttw1,",
"ODw>ljtllft6:;;sLpjEPtllllxLGlxlllBZVlZZBlllfjlpsllpplZfZp1wj51pKlflltflllfkffpiitslllDi6ww6wllBpttpZZC,wipw:pflVZBljppZlpZpwZppplllljlfllllllpptr65",
"ODw;ljpZltw1;$stC^GttZllllZPPxlljlCZZlKDZllpitlppllpplZfxp1wp11pLZlVCplllllllsBlipfpppZt66w5eZfktwwppll>6tpw;tfBBBpfpptBppLpeGZllBZZZZxptplZlpitrw66",
"OZ316xtll6+O1lGPHptllflfplllspZlpfVZlpCBllZHZftpllpilBslpl66l61pLZfllpljfllpipBptisfBVZe3ww1wfptttipkpD1,pp,>pllllppppplflfCpellVZZllpspklllptppprww",
" B116lpxr$$rZlZLLlslVflfflllfsllppBZlpZVVZHLHllfffslllsxpl66V1>tZlplVllllZlfppVpptpsslli1ww36BBpptititV11fl11pllllppppslfppBstpslllkkjVlllxCllpkpiww",
" l116xt6$@6PElxLLBlllpllllllkppppplxlpZZCBLPLCZlpplllplZsl66l3:tVlpflBlBlxVlpplpttppllli1661tLlpptitttf1>ff11jlllsppppplfppllppllBlVZZllpsplllplltww",
" k66wVr$o6LGlZHLLZlllpZllllsppppfllllsVZBlZLLZZlpplllllZll61l61tZZflllllBxllptppppfllVlt6w01tLppitiilBl11ll1>tlfpppkpitpppplBlpllCVZDHpppppppptjpeww",
" l666l>$,G(xpZPEHZllftVllllfflpsllllflZVlpBZDZlljllllZlGll61lw6pGGVllfpllpflprpfVllflZswwrw3wZppttrtZLC61lp>;ipspppllftpptplCliplllfllllllsjslpkktww",
" l666lo6xGJGJpKZZllljpllllxxllplBBllllZZBflZLZllllllZLlZll31Bw6pVHZZlppllpllfiZZKZfppljw6iw1wClkpiwtBDZ31sl>;wpppppppitpltplCBjlllllllZZxlllZLplltww",
" C66wx$sEZlZZjppplVllljslxGZVlllZllllBlVllZLPKlxllxZZZlZll61lwwtlVZxlpsBlpfZlwZZZlksllliwww1wxppppttfll1,pk>:ipllppttttpptplZxllllllZZBlBkllZEllltww",
" B36wL6txGlttpiweplCVVBllZGZlslVlllClxlBVCKETZHClZZGZlsBpl61l6itplBllplZltpZlwllflllZGLpw111eLwwtpitppp>;pl1,tppplpppptpptilZZppppppklllllllZLllpw6w",
";lw1pR6666wwtxZplLEVplllZGLZlltlxxlspslllxZGZZVZZxVlsljsZl66tw1wttplptLpZflLtplpttppllZ:wt63,wpfptepslf3>tp613ptZl6pLipppplZGZlfpflljjtCZtlllCplp611",
"+pw1pH66www6wtZZBlLELllllZZllptflllpfsllZZZZZBBVZVllslpfZp36tr1ilBplll~VTllZillpppplllL3pp663psfpttppkp3>tp615fefZpifpllfllBCZlspplllftZltptitllt6w6",
"+pw1tV166w61>>wZLppLLllllllltpplllspppllZxlxllllVlljspslGs56tr,iGZlpfZHlLlplepfpttplllZ6pf116jspptipplp11tj6>1twilLpwZtflltiplppppllllwlptllpptr66ww",
"@Bw>wstpslstww$p~ZptlDlllxxlllhlllppppllZlllsplllflpppjlGs66pt1tBZpppllpZllZtpkpttplBlp6lp116Cppptttppp31tl6136t6iLfwDtlZlptplppplxZZl6ptwkVlptrw6ww",
";Vi:6w16w6611>+3lLZtpHZlZZZllllslpptpplxllptspllllfpppllZs1wpt1wpBVlppZpptpLlZkpttpllVZwZl667Zppttttpfj6,tp6161li,tpwplZLHlpsVpslllljptltwppiilxxlt6",
"#bw;1w$+#+@+OO:$>pLlttlslZllppppsppppplllltjspllllljppslxt1wpt66wlHZppLtw:1ttZppptpjBZEwlk553Zlpttptpll1>ep61w3Bp>,6w1tppfspplppppjtwwpltilJljllljr6",
"@lw;6twrw6666ww666tii6wwtsfpppsjptpppslxxllllllxlxlllpllZp1wst3wtxGlfjHpt;+>,ttpppiifJE1rt313llfptptplp3>ip63ittlt>;,;>>,wtpppppflfptrwpw6lJlptttww5",
"+Bw>efZlptrwttp~E6;1ww>1wtfppplssslssslZZxxxZlllZZxlfpxZJt5wft6ipZliplLZL6$$$6ppptetfZ~>3iw56PZlptptplp1>tt63tt3lE1$>>;$$5plfppflllllp6i5>ww1$sw6wtr",
"OZw;pttitpprtsCllVlt61ljtttpptslsaplllllllxlspZlptplttZljtwtpwwtpffflpZVt1$$;>tpZp6pGkZw6tt1wVllitllkZp1>wt35wpZDk1@+$@$1tlptilptfZfpll1>:@$66wwpt6w",
"OCw;ptpttppttjlppBljpptppkpppsplljlZxlZZZZxlllllpppt61;1iw6wttwepklpfpVptw1;;;ttlkipLZlw3ww3wLllptpppZf1>wt51wlpw1>>1w1>1tlkppllplVkpll611>1wwstjpww",
"OZw;ltjitjpttpBlpkllVZ16tllpslpsjppxljxxxlllllllpppw># ;wtwrttwtpflspplitBj3>6ptplttBLpw,ww1iGplptppill6>wt61wli11rpBlw66tfspsplpplpplVwwtwtftlppt6w",
"OZw>ptjpppppppKClppppp$;3plppZpllpplltlllllllllspppr1$$1rrttw6wtflljppZwtEEt6pGttlw6kKiw6ww1wZplsppptlZ6>wp61w636tCZBppw6tpiiptlsppppVZiplflZlswww1w",
"OZw;piptpitpptxlkppttr;+;wxlplflljlxlpxllspjspfsspptw1tw1>6tw>tplVlsppJtpRRtilLwrpwwlTswwww6wfplpipttlZ6>wp61r;5ikZlrwpwwtptittsstpppZltplpplpa6ww3w",
"Olw;pepptttjjtpkjllsppw$$wZlppslljlZZlllllssstlkpppitwEp>$1tw5tpxCljppZppVltepZwwtwtHTpewww6wlllptptekB3>wp63t6illlpippiwtptwwtfptppplltklppfttwrw6w",
".Vw;ltpptttjltkflllllZt;+wZlppplsplllllllllsptlllptww6El6;1ttt6tBVlppllllpttttltitilEZpe6656tlplpisitjp1>ip61iflVlppppprwttwwetpptpjjjtwpZppltstpt6w",
" Bw;lptppttkjtxllllpplt;+wZspsplstpllflllllpptfkfpw611ZBw>>1wp3tlVlppltZZpttpwlppiwlZtpi3>,1ilslpplpept1>rt61wpppptiwwftwtettpwpptplppw6tlppftsttt66",
"ODt;ppttwwwtjlClspttlZs1+1Zkwllkpllllkplspttllppljtw61Lpt3;6ltwlllppklpfllppttlfptppfVstww3;wLpitttplDp1>itwwppllttppppplfspttwplpptptrtspttlZltxx61",
"ODt;pppppttitplpppttplp1O>lltlfspplllffllslllVlljpt666Lti1;wlewplkppplpslpptttllptpppfli1631wDlpppippBp1>wt66tpffptpptppppppttwtppptppsppppplZltllw5",
"ODi;tppljlppptlllllslZs1.>lltBspppslllsfllplllllpptww6Gpi1;wlrwpllspplsspptttilZptipplVi;1w6tllsppppppl1;wt66tillppppippppppppwittttppspptpfxZltsxti",
"OZe;ttppsjppppZllZllBGl1O;ZZtlppppplllfllllflVlllttw66Gpe1>wBi6plllfplffspiippfBpppjpVli16wwtllpippkflp1>wtw6tpflpplptkpsppppprtittpsppitttlCZlrlGpp",
".Ce$tpttppssptlpplptpZl1o:ZGpBllpppsllpflllllVlllpr6wwZtw1>tCr3plllfpljlkpppppkllpllllpwwrw6wBlpttpllZp1;wi65tplllllltlsppsjpttttettpprtttplxlltlGft",
" Ze;tpptttppptppplftpCl1O>DLplfspppfllpkllllBZlllpw66rGtw1>tlw1pClpppppplsppppklllBlpppittw1iZCpttislZp1>rp61ipllklZlplppppptttttwttppttpjllZlltlZiw",
".Dt;pspppptpptlllxlplGl6+:VZpfpppppfflpllBxllZllkpw6wtLtw11pl61pZlkpplpppspppilBlplfsppwww63eclftitpfCl3,tp61ipllllDVtlpppppptetiwtpptttsslllla7sli3",
" De;pftppppppppaplstpZGw+;lZppppppplflplVxZllZllstw6wtLt611pB61pZBsppxpppppfpipkptkfpfli1156eKlfipttfZBw1pl61tplllZLVtllppplfptptttppttttttlllr6tlw,",
"Olw;ilppppptpltppllllpl1$1lZpissppskslpslBZZZDlijt63wwLtrw6plwwillpiplpptttppplDlpfCfBpw6w6,iYCZlttippZ,5tpt3VipplxZBBVfptppptwtppttpsttppttttlGxr36",
"OBw$wpspppjtplppplflfll1@1lxlpllpllppkpjBlVVZZlppp66rwLrw61tlwwtllppplspittppppLBpBZpBki6661wTplfttplZZ>3ipt1kspsllllllppppfppetpttpppttpppppplGlw16",
"+Bw@wpfppjpsllfppppplll1$1lxptlkflpspppllBBllZlplp63wwZrw61tlw6tllspplpppppppppJxplVpkBi5w61tLpljeeplZZ>1wtw,pllljplBCllflllllttpttppppppflflplxf713",
"@Dw;tplsslppllfppttppfl1$1llptlllslppppplllllVlsls65wwZttw1tBe6tllfpppppppppppiZZpfkppZiwww3iLVZltwtplZ>6rpe,pZZllplCZllllfklltpppttpppsfppljsplp61w",
"$De;tllllsssllppptttpkl,#1llpplpppsppppskflllBlflj6166Jppt3tVi6tklpjpppjpptpppiZZpllppKtw6wwpYVGliwiplZ>6tpw1BKZBpflBDlllpppfltjlptttptppptpptaat66w",
"+Vi;plxllpptpstpttppppl,+1flfplpljlspppppllllllpll6661Ljlt6tli6eslffpppppptppppKZpllpkZiwww6iLlZliwtpCZ>6tpr1lZZVljklBpllppplZtpllptpptsfsppptsar66w",
"Olw;pfllllttttttpsjpppl>#1llsplsllfppstpplllBllfls6161Hppt3tlw6eplfpjppppiitslpJBplBflZt66w6tZxVlitpfZZ>wipi1lllxlpkpfpllpsllZtpllsspsislllljttr636w",
" lw>ipGlllsttstpsllpppl>+1fxptlpjlppppppflfllllflp6163Gppr1tlw6tpBlpptkppitplliVjtllpBLu6661tZDZlitplZZ,6tpw1jppfllfpjlVCxllBZppfssfpptkZxZZsrtw113w",
";Hw,ilspflptte6wttpllpL,$2tKZpllfsppppZfpplVZltjlpw611Elst1wpwtpllptplZpllwlLeVpttlVpwfp66w1wZZlptetplx1wttw:twtsllBfppfptillppkVlpplBiitlHHBpl6>>11",
"$p,$wpBllspttijpt36tlGw1wlttlllllpppfllppplZVlpslpw666s661:6pwwtBxllslxiJZ16llttppplpptiw6r33ZllpiitppZ1wtpr>p6wttppllpkpppCVlplllstppfiw6666661,11,",
"$f1$wllfpppptp;rxGxlr51;6fxlltlffppflBpptplllltppptw666>:;$6pw6tlZllslliZLw3tl6tpsppppep6ww16ZlpttwtllZ1wtpe>j6wwweplZplfplZBlpplfppptttwwwiep$1ww3>",
";C1$tGBppppipswplttttt;$1sZGZwflfpppllpppflllltspptww66111;wkw6tjlkpppltpLZw6wipkpttpiiiwww16DllttppVDZ1wppw1ptiw6wtkVlljplllpppllllpt6tlCVfsj>wBp6>",
"$B3$wlVpplfptpwplptwww$3lLtrlGllfppppplfllllfpptpptt66w6w61wp6wtppppppCtepp1;>Vpptpfpttww5w36LllttpllZZ1wtpw>tZltiw6wetttiplltppllZZpw6wppw3,1wlLp6>",
";V5$3txppjftit>wlDl6>$rtZGttlflllllslkllllllpppjppptw6w6tw1wp6wtlfpfpllBw:;o+1Zpetpllpti65w16DlfptttslB1wtpw:tLDZpw6616116plpttiplZVtr>1>;;;>>6lGt56",
"$D3$1ww6wee66ttw61>>wtLpjlxEZ6llllllllllBllflppplsptw6rtlp6wt6welllpfltLt;;$$6ttippfspww63i33xlppttpfll>6tpw>tlZVVpt661>>6pBfpwtplllsp1>::16rt:tBt5w",
"+p>+1r>;;11>16;>6wwwrpplEZpfHlBlsppfllllBllppptpplppttpsDx6wtw3wlllptp6Kp,ww116tppitttww55w51lllppplVZl>1wt6:prilZZkttw11wkZlpwipppplBfptiipe6+wfr6w",
"@L6$lw>lLfptwtpptttitpttplllljsllspllZlfpsspjfplppptpjlZLp16p6>iltitpplptti36wpewwewtlpt6wp33Bppttpllpp31wt51wptippppstptwtLLptppppflZtfZZZllZ>1wpt6",
"@Rw;f36llttewtpptppppptpllZZllllllkslllfkllllkpkspitipslZp1wi36plptplfVppptwwetiwtittfttwwt31Zlpitpkkpp3>rt61wttttitiiflpwtCltppllplVDfpppllZZiwwtiw",
"+Rw;p>eZVislslpslslllftptlZxllllllllllllflllllppfptrtttpxt1wt6illppflfpppppwrppttppptppp6wi6wKBlttippss1>wt61wtttttpppjlpwtxlttpfpplVZDlitsxZZZpw6w6",
"+Lw>p$6jlpGGllllplxxlltpslxxZZlVZClllVlllflllkpllptwtptplp1rp6tplspssppttppwwtpitksttipt6wi6wKZlpitppfp1>rt616ttppssllplpwtZZpttptpsfpZlppplCZElw6w6",
"+Dw>p+;rppVlptllpsllptppplxZGGlCZZVZCZlllslllkpllptrtptpZp6wpwtplpspptsppfptrptttpptetpt66i6wDllpttplll5>tt616tpklflllkltitZCtttpttptwllZlflBZRZtw66",
"+Gw>l$>plpxlipllsssppplpslCZZJlZZGVZGZllllllfljlftrrtktpZt16t6pppslfsplppsprwtprtjfttppt11w56ljkpptplCs1>tp616ipllfspppptrsxlpppptpppwilZZlllZZZlpw6",
"+Dw,B;>pZlZlsKpllxlllVllllZZlZlxZZZZZDflllllllpllprwtptpZt16t6pppffppplpppptetptplfptlpp56e63pppppppflt1,tp316tpkppppptittpZVlppitpfpptplBZZBllLLpw3",
"+Dw1Z>oiBxVppZslGGZllGlllllxspVZDGDGLLslBlllllpllttrtpppZp16pwppppptttZspllppspipppwwplpw6t51ppppppjpst,>rp516epklptppfpppkllpppettpllppifZLZplLEp1>",
"Okw;tp>1tGJppZllllxBlllfppsfllllllVZCZllspppxZlfpittttfplt>6p6ljppspppptpfpttlttplpwtlpp>t6w,flpwwpVlplw6tw11tpGLptplllllpBZCpwpttttltlpttllptDVZt>1",
"+Bw;tp$wtitLGtllllxxllppptplllllllZZZlZxlpppllpttirrtrlplp>wf6ppppklpspptlptiptriptwtlpp>r6t1lxpetplfplw6pt11tlZLVplllsljplGVpilslllZjppppflfpZZHp,1",
"OBw;tlw1>6pZVlllllVZlltpptjsplllflBxZVZVllffplpittitttsplt>wl6ttplllsllppspttpppplpepZpp>r5r5llpwrppptt35tw11tpVLlllllpfpplGZspZlZZZZlrtplllljlfCp11",
"OBw;ilH1$5pplEllllZxllpllsfslllfsllVZVZZZlfppppitttppplplt>wf6tplllppplpppitppjpllptpZpp>w1e1lkiwrtpptt11tw>1tslVlllllpppplJZllZlCZlZtttlllflVsplp11",
"OZi$elpl6;>sHZZllllllslllljlllZlllllllllZlfppitttttpppxsZt1wl6eplCptpsppppitppptplpttflp:w5t6Zptrrtpptt66tw11sllllfpklsppplGZlfVpjfplttplllplVsplt11",
"ODi$iftpt1;1tZllllllsppsllppslZZlllllkjlllppittrw6wrttxpZs5rlwwtllptpjtppttpptptpspttklp>w6pwLtttttpppt66tr>1pllslpppBflpplZZlplpssplttpsplplllsls13",
"OTi;wpftip5+:pZllllllftplljslllllllllllllftttttttiwieelpCp6tlwwtllpitptjptwptikipppiplkp;i6iwGttiwttitt66pt11txspllppCplpkxDZppVkllpZltppfllljljVp15",
"OLi-wprCZr111;LZxxBllltlZZxlflpfllllVBZZCltrttppppttttftlp1wl6itllptttslltitt6lpwtptplli:w5t6Hptewwiewpwwlp16pZllDZpfZppplVDZppZxZBjDVppklllspppxp11",
" Di;tklttZZw>;>pLppLJwpfxxllllpjlZlpppVZZlpjprppptpjpiptst6tl6ipsjjlsptplfsptwtpttkpwfpl1tf1iHlfpttitpp11pp36llZLZlllDlZLZlCLLplKDlflZwtlZZxptllZt,1",
" Tp;ippxlttlt;w>6LEppEZllllllkjlxZlppplCCsplstplppttirZllp6tlwrpljpsfplpllfptitpttlpelpp1rp1wSllpptwwtlwwls11pllVVZlllGLZBllZZpCZZZlpspsppllfllsVi>,",
"OLp>pBplfwtGs66>>tlflJLZsflxlppllxlppplllpjflpplpttpfpZVZp6tf6wpClllpplllllptttlptlptZel5rt1ixZZZVfietlwiZp11tlllVZZlsZZlllBllpplZZVlplsptiplxpplt>,",
"ODi,BZCrwlBpilw61>6pt6lxlllllxpklClllllZxlfspppsftpBZZZlZp6tp1tfZZlllklllllppptlptpptlif6wt1tZZZDDVptit3wlt11pLZZZDDZBZllBZZBlppplxVCZpflpppplttCp>1",
".Be>BCltwlltrlZw>16636rpxZlllLpplBllllplZZltpptplpjZDZBlZs6wt1wlGVllllpjpjlpppilptppwptl5wp6sZflllpwwtt6wpr>1jTHZZZLLDCllDTZBVkllllkZLpsljppppsplp,1",
"Opw;fkwxZtwlkwplr11tt11tlZlpjcslClllllpjlVftplpflppZBpDZLl6tp1ilZlpslppsplssppiktiptwttl5wp6pJlllltwwipwtpt11pKZZVVDHLZllLLlpkDZZllslCkpppsjlxspli>1",
" pw;fpwCZtwjfwwHD61tp1>6tlllppslllfppfpppllpplpllplZliCVLl6tp6ilZkpllplfskpppptlptkpettl66pwfllllktweplttlp53tfVLLZBZDVflLHpplZZZCllppppttpBZVlplr>6",
" pi>lkpipllwwlttsGw@$t>>6pVxsrppppppipVptpsptptlllZLZpplZl6rp6tBZlllljlfpppppipZjiBlippZ65twplppppt6wplrwlsw6ptlEELBBVBlBLDppLsklZHZsrptitpxlllpjr,6",
"+Dw;lprttttpjltwtlpw116>;3fZBplfBspplZltsZfjlpjsplZVlpllxp5tlwjllppBlppllfVpwtZtwtVHp6pl66w6lDHZZZHHBpp>wtt6$w6tllfZVlkttBHDJHpCZBflBlppprpZZpVppt16",
"Xk6>kiipitttpjtttlsrww1>>6tplZllllfpflltpVppsplplVxllllGLs6tlwtlZlflVlpDZlZlppktitVJstpi1tp,rLllllxVffl1rtt6$twpVZBZDZDlplBBBBlZLlpjfpJZpwtsZLtwtr,1",
"+ZiwLppttpiitpitppplpt166w66iKVCZlflllZttltplppppllppptlLj6tlw6pLZlflllEEZLGlZpppplVllpi>ll:wLVVlllflll1wtr6;tipBppplVLZCZDSZZCDKlpppillZERlfltwpp36",
"OBi1LttptpttpiwppttCltwww6,,wpJZCpffBZKptlppfplppllpplpGEl6wi66pZBptppZ(LppppptpllfslBpp5lf1tBGHZlfppll1wrr6;plBpw11wretpCDZZHlKZkppppfwtLHtwtptllw6",
" p3>lepptipppptppwtlltki651136llxBllVHLtplsllpGppCVfpZGE(Z6we16pllppppfLt::>>1isZZBllltl6wpwlpCZZZlllZs16rr6>llllt1$;:$;5pVllZlZZpplllE6$>1>3pptfj66",
"Xl6,Cppittpppppptttppilt666613wilGLGZZLplZllClBe6tpwwtwtlt1wpw6tllBZZlVEp:>:;>pkZDZlllil6wttZlpjlVllVHs>6rr6:splZZp1;;;;6pZClZplCjplBB(w;>w16pVpCl35",
"Olw1Zpppppppppptttpptpppttw3363wpGEPHlZplGVlGllw1wpw1611w11tlt1tlVVZVlZEZiitwefflZZZZlrp1ii6lxislVBllll1wtt6>pppVLZt36wwiCLZZLkCZlplllZptZLZptGfVl66",
" pw1ZtspiitpppsewtpreptkVlw>1616tZRRLZlplGVlHZLt6pZpeellpw6tp6>eBVfppstDBfLLlVlfppBlBlpp6pp>tRfVZZCkppl1wtt6>lpttlBpeippplBlDLlDKllkllZBplZZlVlppt11",
";Cp#ZplptppppjttwwttpwppplHl6;6;:wBlpHLptlttlZZlppllpplElpwwlt,pZlplCsppspppfplpplVlppZtwre6iBflllpipHi1wttw>pepftiplBBllflBKLlllfpllBtpVZDVlkpBlw11",
";Cp$DplpttptppeiwrtppplsplBltw>51>wKLfltZEGlltxstppjfxpLptwwlt1pJCpllpllllfpspptplZxlkli66636ptplltwpHt1rtt6>ptfBpplVlVVxlllVZflkpsfllpBZZVllZfCVt11",
";Zp#xplpettttietwetslpssppplfl161>6BGl(GZZpplllppppplJpLittilr1pLZpfftZVlllsppeetlDZBllt5663wpepllpepDt1rtt6:tplVClVZBZVZllpflppppppffpllpttpBfZZt1>",
";Cp+Zpjptwtttitttitpppkpitipllp6>6w6tZ_HVlttZllsffpppCpLtttrli1pLZspppZZZVlptptppkBVlkZi6w61wkpfZZptpHt1rpt6;wplZZZZVVlBBlpppptpfspplflpstwwplpZxr11",
";Dk+ZtpptwrtpittrettppBstepsspLt6w626sspGEGxlwllllptettZppitlt1pLZpsllllxlpptilsppplptDw66w3wlplZlptfZt1rttw:wfflVBlllsfllpppptplkpllCZllppfllpllw12",
";Dp#ZttppwwtptitttetttlppppsstfZp31ww166ttisltflllprwweZsst6lt1pZZpsflllBlppttllpitiptLi6665wlfBVfppfVp1wttw;wlppllppkffpplppptplllllBZllsslflpfl611",
">Kp+Ctwppw6iptwtpttttpppppppptpZlw3ww1w3,;$6GEflllpi6twLZZe6it1tlBsplpflllpptpflpttplpTt5ww6exlllppffls1wttw;rlpfBfppllllfpppptpfllllfppppppflpkf721",
">Kl#Zi6ppw6ipiwplpteppppspttppZttlp63t11661p~EllllpwepwLZDp6lp1tplffptplllppittpiwtplVLt1561wZlfpipfpps16wi6;wBpfZBpfHllllfppjtpllllppiplpppBZippr66",
",Ep+ltrll$twttttpppptwttttitiisttpfpw666636tG(lZGZptplZLLEp5lp3pVfpplfllBllplBlptwtettLp6663epslZlppipt1ttr6;rlllpppslipffspppwpZZstpllllptppsiip6&,",
",Ep+lttlp@twptttpppppitttttttppppjsptwttw116plCGZliwwtHEL!j6lw6tllpsllflBlfppppptttttpGt6666wfsflsppllt>wrw6;tsffsptpstppspptttpBllsllfxlptppppisr,,",
",Tp+ltwlp@twptetpppspptppppppptpssjpttwrw1:>16lfltewtplZlJpilw3tlfpslppflfppppppititttlt5313ipllsppsZZr>6w66:tppppitpptpppppppppppBllflVBpipiipppr>,",
",Tp+letlt+twptetitpppitppppppptpppptpprei311361>;;:>116w3itwZw6tlfplfplllsppppppptttitlt6613tBGZlippllt>66w6:efppptttptpflllllppppflVlfllpippiuisw>,",
">Hp+lttlp+prspttttppppppppppppppppttppppttttppe6136w616w1wwwl6wplllllplpspitppppttpttiZt6666tZllsttpppp>6666:wlsppttppppplllllippptpllplpttpptpppw>4",
">Lp+xttlp#ptlpttppitppttttttttlpppttpjlspslxllELZxZGZlllwpw6l3wpZlllBflkppppipitttttppCtw511ilppittpptp>56w6:rlfppttppppppptppppppptpCpppetpstBpp6%,",
">Lp+Zttlt@iikppppptippttttttttpspppppplppllVlssppppfpplGpBt6l6wpDZlnVlfpfpffpititttpppfe6611wlpptttlppl166ww1tppfpptpppppptttppiiippfpllptpfpenpt6%,",
">Lp+ZttpwOtrptppppttttpppppppptpptpppplpppllptllBlflllplplw6Cw6pDZffBlppplVlpippptpppptw6565wllspetpfpL366661petptttwwpfkpppslse6wplptZlppplpwnii1$,",
";Kw;ip3tGO6llpptttplptsppppsppptppslllllllllllJxxGZstlsZlp6rGw3pspVftlZlpiipZLlpwtpppelw1631wVptttppppZ116tw;wVllpetipxlffpetptitttpflppllptwwpi6>,4",
";Lw;tptsZ+wlppttppttttptttttttlfpppjptlllllxZxlllllptpwpww11p13psslsilllpptpfllt6wttewli66316lttttppsps>15w6;rttttpppffppttwwettttppfkpppptrppwi6,,4",
";Dw;tpppx+rpttttpptpppkppppppsplpppppplllllllxZxZGZljltltt1wZw1plplppBlBlpttslLBttppptlt661>6ptttpppttt13361$tttppppppspsspirprtttpppttppwwtpl;ww1&,",
";Lw;tttwp+tpwtttttfllflspppllpllsspsppllllllllZZGLHVlltpw6:1lw>sVpfpiBklffpplZRGlllspppi631>6pttitttttt>1661+6pspspptpptpspttpwttpipptttrwtstw;ip8&$",
";Lw;ettwj@ppwtptwwplpwttttttttslfflsptllxllllxllllxlpttlsl66lw;fHpsptlppppepsZllpspttws661313ttriwwwetr$>163+1ttppllllrwwttwwiwtttptttptrtslw><pGt>$",
";Lw;wilsZ$plttHlttpli6ptppptttwtppflkplxZxlplZplflxlt6sE~_Zrs6;pZpppipBlfppslBptpsptttlw66616t6666wwtpi;,6tr;wwettttppstwepwwwwwttttptlptplt1$3pZr&$",
"$L6;wpCxZ+wltrlpppppetttpppppp6wwttpllslxxlsfxllZZZZt1lVlZ6>w,;sBtppptZZVllllftpplkijsfw66w16t6wwitpppp>16pt1ltpppewitViwtpptwwtttttttppspr611pBl6>&",
"+Z1$wtlCl 6ltw13w666wt16wwrwttttw6wwplllxxptslslllVlw:ELtw:;st:pswfVftBllffptewptttwtppw31616tweppllllt;,1w6>ltplpttppi6:1wtwwttertttwtlZp6>3pHLs6>,",
":~w;wrrr1o.1sl66ttt96666266669tstt6166sxGxltr6plGGZVltlZGe16w6;LGwBZrtpsltttwwstetapppsw133:1ittittttpw>:36>1tppfppptipfZLPLlpplGpwttllppt616tlpw1>>",
"@p:$wilZGlslZGJlttsllsjtrtttttttlxlttr16tlGE((psspertwsZl6:1w3@llwllettttpppppfpipsppfle6ww33tssppttttt11ww16sweteiwwtpppllstwwtt66wtlpptptrplZlt666",
"+pwwllGP_``(PE(GttlGGZGZxcGxllwtlxPGllPLGltw66pppttpptlVVw:3w6;lGsLGflwitttpsjtiwwewwepi16613ipttwiwttw13tt66tepllppfftttte6631w6,,wriwwwrtttlw3>;$$",
";lVVHflpH(~GVLExtrplxxxllZZlflttslZZZlxlltw616psptpfppipp6>133O16166136ww666rewwwww6www3111>11ww666wwt66esfwwt11631,13ewwww66666611weww6wwtwwtww61,>"
};
