/* XPM */
static char *fc2a668ec5de4f6fb72242b48d3866b1gZy49ZqUw3fW81ME[] = {
/* columns rows colors chars-per-pixel */
"64 64 34 1 ",
"  c #856E52",
". c #877153",
"X c #8C7457",
"o c #8E765A",
"O c #8F795C",
"+ c #907857",
"@ c #91775C",
"# c #927A5C",
"$ c #937A5C",
"% c #91785E",
"& c #927B5E",
"* c #947B5F",
"= c #917C5C",
"- c #917D5E",
"; c #947C5E",
": c #987D5F",
"> c #917760",
", c #937860",
"< c #947B60",
"1 c #937F63",
"2 c #947D61",
"3 c #947B65",
"4 c #967D64",
"5 c #987F62",
"6 c #987F64",
"7 c #9C7F69",
"8 c #95805F",
"9 c #948063",
"0 c #968063",
"q c #978163",
"w c #938064",
"e c #998063",
"r c #998164",
"t c #9A8268",
/* pixels */
"12512&&&-*2,,,2&O22-2&&*&O2-O&&;O&&&-&o&o&&&O&<O1&-Oo<@&XOoo2-;&",
",&&&22&&&2&&o2<2-&&2&,**&*2-Oo11&21O&&&2&&&&&&&2&O&;*1Xo&&O&2-2&",
"-&1&2&222,21&2<&1;2&&&2,2,O&2<O,&O22&1&OO&&1&,o&2&,&&&XX&o1-&1&6",
";q2&-*1o&4;&22&&-&o-<2o&&&&&2oo&&&<1&&&&-2&&O&<&&-&&&OO@&Oq&*O&q",
"&&2&&22-*&;1&,1,-&<&,,&&;&&&1,&,2<&Oo<1&&&&<&1&-&&&&2O&&&o122&&;",
"&2222&*;22<22,&-&&<-26<&o&&214O-&&&o&<21o&&&&-*&&-,;&Oooo*2&&q2&",
"&&,-e5&,1--&&&&O&&O&2q2&&,&,&2o<&&&,&&OO&2<&&2&O<O2o@,&OO22&,;@-",
";qq&&&&wO&1O-&2&21O,<1&-&&&12&&o,&&,&1&&&&&,,&o2&&,&&<&o&1&2&26,",
"+-311;&&-,<11,&oq-*&O&,&&2&o*&<&Oo&,,&&OO*2,,1,&2&,oXo@XO2&&2&21",
"-,,12e222&5&&-&2&-*2&2&&&,2o&<,O-&oo&&&&o&o&;,2&&&2&&&@o&*-&-&2,",
",222&2<&1&2*2&&1,&&o&<-,1<*&-o,o&&112&o&&&&-&<o&*;&&X&@o&<*2&&12",
",;2oq22&,2r2&2&<2&1&&2&&&&&&,,-OOO&&&&<&&1&&&O&o&-12&@&Xor2&o<;2",
";-122<211&eq&<&,&*&-OoXo1&&,,&,&&O<&O2&*-,*;&&Oo1&22Xo&&&&&&&*1,",
"2,12***&q;&3&&6;*2,O&&*1&&<<,&&&&2&@o,&&2o,2&@@&;2&&o&&XX&&O&*2&",
"2&,1222-2*2q-&O2&&o&@&2&2&*oO11O@O&O,&&-&&&o@2&&&;&&&&X&o&&o,<2*",
"2q11,222&o<2;2O-21,&O&&OO@&&*&O&&&>&&,1&&;,&*&&&e*;OX@&OO&,-2121",
",&,112&2&-,2*22&2&*&<2OO&1<&&*&&&O&O1<-,,2&&2X;;&&-O&&Oo&,&&&<4&",
"2,42<,&2&&q&<2&o&&2&2o&,O&2&o&&o*&&o2&<2O<&&&&1&&&o&,&oO,;,&&&4-",
";o2e2&2&1*11&o&&O&oo2o&<O&O&;&<&2&&;12&Oo,O&,&&&&<<2,oO&&&&&&<&2",
"2&&*2qq&2222,&<&<&2&&*o&,&o*&o2,2&Oo&&o1-2&Oo&&&&o&-&,&oo,&&22&*",
"&*4,12-2&2&*2**&<1,&*,2O&@-o&oO--&*-2O22&&&1o,,&&&O*&Ooo&&O&2&-&",
"2&42*&2e2;-*22O&,,&&&@&&OO2&O&o&&42,22*2<&2&oOO&2&2&&&&&&,&12&&q",
"2<2;5-22<&&&2&&2&o2-&o&&2oOo&Oo2&&,2O&&,&&&O&21oo&;&&Ooo&&<5o-2,",
"o1<2-212o&2&2-&&22&&&;O&O&&O<&&&&2&-2,,;24OO<&**-,*oo&,o&<122224",
"&22;2-2&2222-&*,&&&;;&-&&&*&&;Xo&&*Oq,2&o,22o&,11,&&&&&*oo<&22&2",
"22&q224&2q<22&O42&*&&&&;,&&222o-<*<-o&4&1&-1&&,&2&&&<;22-&<OX2r1",
"421;-2&1&2;2&,2,&-2&-,o&O,1&&,,<2&&2222&&;&&&,,2*2&O&22&-<222,2&",
"e-5&242-222*&&o&1o&2&;-&2O&1-&<*52O-2O&2e;<&o<-2-;&-;O2oo;,o;q4-",
",&q1e2222;&242t&&2;O&r&&,XO;o-&&;;1&2<&1O**&oX*2*;&&&2&-,&2-2&&O",
"--2&q2q2-&&&o-&2*2*q&@2&X*2&;&,&o,,&&1,-&&&&&*,21<,O22&OO<1*,22e",
":2222,22;2&qer&&22,1&&2q&<222q,&&22--2&2&114&<2q-&&&&o2,,&-&&-<-",
"&2&;2&&412rq2&2&2,4r1&&-;21&21,2&;&o&;-O&O11<<>2&&,1&O1O-*&2;,<O",
"122q2<61242ee12122,2,2*1,2&22&,2q&@-q&X1-&1&2,,2&oq&2&&&,&,e&842",
"2o*o;<e,4;22*;-415-;&;&O2112,22&O2*qe<,2&@22;1&&;*&;&&2&6222&&&2",
"<221q2;&1-&rrr1,2&2225*q4,2qq&&e-&<&*&*&22<&&&&<52,12;22&,42-22;",
"2<121-&&412rerr211q&-&22&2tr&O&1;24&22,22&;&-,2;;&&*2&&&&O*&,22&",
"12,&&2*;-;&2rqq22;&22&-222&;22,q2&,-2r2&5;2&1,1X&r2&22&&&&2&&2<2",
"223e26-222222qrr,&6r24&22r22;2o1qr4-e<&2O<2&OO,&-2&12*&&--2222;2",
";,4q2r51&242,2r42rtr1<1-2,212qeq2q;2e<,o&,622&&2&&&&&oO11oO<&2*2",
";trq4254,1,1q44r21<1,24r2211t2222q22q62&&&&&&&2&-<5O&&&&1O,&&*2q",
"2421*4222112rrq,q22&o1212-2;-rqq2q<<,152&O&2-,&&2,2&O2&;&O&&-;--",
"2;-2rq2&q12&&r2&-4,&r2211222;q4q1&2O26<o,22&&--22&Oo&O&&-&2&22&2",
",62122<2qOoOoo;;O242222,1-r&OO4422rq22,222o;-&o,&@,&&&2o1&4&&2<2",
"-26q<&e-ooXX&&&;--<-6<@21&222r2&2<4r1,21&&;@21&-2-&-;&;;&&o&&2&5",
"22&-r;;&oXXX&&&&11,2&*&61<&q1r1124q&-q,;&22*1&22&2*o&,o--11-&-;-",
"<&5Oq22ooX&X.oX&,<<-22&5&*2&-22q2,22e<&&&,O&&2,;&*&;2,&2;;22&&&;",
"1r*255&&ooOXX@Ot224;2r&;22<2*&22&22q2&&;&265&&22&*@&*2OO1&&&1<64",
"--&-*2X,&&X X@&&2o,&&&&-22&;&&*e1-r&&2q;;&*222&2q*,2&2;O&&;&-&*;",
"2&e-*22<&OXXo2;*22,&;*;&&2;*2&122*2-o&2O&2&,&2@&&1&O&o1&&4;5222e",
"&r2-2&2&-&&,&2<&221o22O&8&12;2421-2-&-q2Oq,4-,&&&&&&2&&&&8-q*&2&",
"42e2-*2&&22&2&&o*&1e221222&2&;22q;&1222&oO2&o-&&2&,&2&&-22,o4<;&",
"2;e262;<&111,o1&oO&&222&&&1<&&&;1-2qe2XXo-1@;&O2&oO&2&&1O2&&1-2r",
"r;&&2&&2&--2*5er2<,o1oq2;1252&2q&2122&&;22;X&2&--@,&&,22-652t2&2",
"&e82q22<O11<&<*2&<2251222-&*22q12&222r222*o<,,,2&q5O-&&12&5o1&-2",
";*22&;e*O*;*-,&,-;&222&1&-2-&1&-2&<q24q;X&q&2<&O;&Oo&&&&&&222*2<",
"2qe1r2-;q*5o;-2&&2212r2&2<&2q4r;242oqr<OX2&,&2&o&-&1,*&&-&,2222&",
"r22122;5rO&q2;2&&1-&ooO;r;Xoo&2222ree&&1121&2&&o1O,-1&<<261;2*&5",
"-121&2r22,-2;2;<221q2q&,O&22&224,1@;22,&O14,,,O22X&212<&&,22;2<q",
"e21;;2;&2122&2;,;2&,<&21&2&o&5622-q12re&12<Xo4&1-*2-&,1,&&1o&<25",
"&4eqq2;2;2&&2o-;;;*2,4qoO1&&221222222&;-4122&;,-&12q&&;21&&&&;2e",
"q;rq-;q2&2;2r2&&**2q21&2e2qOqq&1-q21212-&22&,221,,&&*&o&22*22&12",
"q222--&2,,2&&1qe&12,oq*:;&&8;O52q2;;222&O&2&&&&**&,&&&&;&<22-2&1",
";&7;2&2t22*21&&&2222,2&2&&&22r4&q225-1,<-o&;&<&&-2,&&2&Oo&&oq422",
"e-<1222&26&;242&&&@2,2212&1&2222o-1q,2r2-&1&-2&;&&&oO&O&-2-&1,22"
};
