/* XPM */
static char *b3f2a244205a431ff963a73fcc3d4a196GjiDdiEY8fGVOHz[] = {
/* columns rows colors chars-per-pixel */
"64 64 41 1 ",
"  c #876E4D",
". c #896E4E",
"X c #87704E",
"o c #8A714E",
"O c #8A6F51",
"+ c #8D7353",
"@ c #8F7A55",
"# c #8E7458",
"$ c #8F7958",
"% c #917655",
"& c #937A57",
"* c #987D57",
"= c #937759",
"- c #967C5A",
"; c #987E5B",
": c #987B5C",
"> c #987E5C",
", c #9A7F5E",
"< c #9C7F5C",
"1 c #997F60",
"2 c #9C7F61",
"3 c #97805C",
"4 c #9A805B",
"5 c #99805C",
"6 c #9B835E",
"7 c #9D815F",
"8 c #9D845F",
"9 c #9A8060",
"0 c #9C8261",
"q c #9B8460",
"w c #9F8460",
"e c #9D8463",
"r c #9E8463",
"t c #9D8564",
"y c #9F8863",
"u c #A18363",
"i c #A18563",
"p c #A18665",
"a c #A28966",
"s c #A1876A",
"d c #A48B6C",
/* pixels */
"-,9,-,5-,,-,,--,,,,,,,5-,,--7,-5,5,,;-4,5,,-,5,,,----7,5,,9=-504",
"9-&,,,5-;<,,,,;57,,--,,-5-,0,,-;,,,5,:55,,,3,5,q9w5-0055,,,,,5,9",
";5--,-,,-,--,,---,-,,,&,,,,7,-,,,,5570-79w7<57,7555755,-5;-,5;-,",
",-,,&,;,-5;&,-5,,,&&,,--,,,0,,:0,5-;559w,-;9u,5;7,9550,9,--5577w",
",,555w,0-55-5-;,54,-,--5,;-955w-;5,0w09w957,50,,,,00,00;-5w0,5&p",
",-5,5;,,-&,5;0-;;w5;,;,5,&,559-,00,9-,5w;0,,7--;w,,q,0;;7;,,;955",
",,,-,,-5,-55;,;;,,,,5;,99&--5,7,0110w055,,5,595,,5,,-95w5705705,",
"--;,:7,&,77,--0;-,,-5--,+%75,-,,,0w7,277005,;,05w,09wp55,55w;,5-",
"-50,,,,0,-----*,-,-;---&+&----9005w55,,,,5;5<59-50---,9,-58w915;",
",0-,-,59--,,w559w,,--=++&%+%&&p9,057,ww5,755,53-50w5035ww,-5-,,5",
",,;5,,59;-,0-%-w7,-&+#%%&+%--%0,9wpi95909-;;,,099055,0i;7-;;1%5,",
";-,5,-55--,--57-=%&&--&%&%%&-&055qp500q00005,p;5--w7;-73,w;5,-5,",
",---,,&-,--,5,5&++&&--&%&=+%&-5,,95w7,4790w,;-,w50w,-557-055,---",
"0-,05-30,&-7,,&%&&+%&-&+#++++,505wi01,4w5-555,55-90-59599,,&-,&&",
"5555-5,-0,-,&*&5-----=&,&=-+-p03,7p5005055595,,9,;-,,535;-5-,*--",
"-95,5955--9;;&-%&%%---++%--+&7,07w7,,77,-5;4&--,,-,-,-&9;,w--9--",
"0,,0,;05-,;-*;-+=%+%%#%52-&-90070pa5-0-w0--5-,,7,,-;,5;;;&-3,95%",
"95,5-5,50--7-;5w01-;-&7i0,9,,y*90w55,05--0;5--,-,-&5-,&7--;;-,&&",
"710,5,55-,550,;;515;w95-05559w99ww7759,505-&-5--,-,5,1,;----0,&-",
"w7--,53,-,0;,-27,0,;5,-0,5,5w75507;5,-,5*5&&-,;-9-5,,,;--,-;0---",
";;,,5--,,-,,-,,5-9--,-5-57;;0,wpw-7-&-,-&,&%+%%-,,--,,-,-,,&,,-;",
",;w905,--,,;,55,,,0-,09,-,,,9070,-5-,,---,-9,&-,-,-&5-4,9-9,5--&",
"w&,5-,5,,,--,,--,-;-,5&-,,--79w,----5,,,,---5---:,,;;,5,,,,w--;-",
"970-3w,01-,,1,,7w57,,<,,:,197i&&50-,-,,-9-,,,-5,,&,-%%&,,5,-,9w-",
"557-,5;;,,5-1-,&-,77,,,57,5555-,--,------5,,--,&,-%-;1,,,-&50-,0",
"-95-&,*,0079759-,-;1;73,5591---,-&-,5--,9,*-=--&-&,5,&-w,-,-,,-7",
"w0;&&,--0750,,0w9,-,9-5;,i557&--&-&-&&3-&&&-&&-,----,-5---,-5;,-",
",,&45&9-9w,90-,5,,047<7-55,,,-&&-,-%--,,=,4&--,,-1--%;;5-,,,55;,",
"-,355&&,9t,<2,5-505-;,,&,5-&-----,-,-;,-;5--&*--&;,,--*,----,5,-",
"555,+:5--,0,,,0--,,*,,w5-&&-;-+-*---&%%&&-&----%-,-9,,&;-;5-,9-,",
"-,--&,0-,5;055-,9,,7,,-*&&5-,5-,,9,&&;---,,--;&-1,-1%-%79&9,-5,,",
"79,,0--,17,,-8,-0-&,;,---,---,--&-&--,&&,,------*%-,-*55-,0;,,w5",
",,--;,,-5,;,-95,,;,-5-,=,,----,-,;&&---&---;-,&;,----;+&,--;95;-",
",,,-0-,-,,55,,5,,54-5;&&2,0,0&--&-&7w,,---*+-&,&%,,-5;-59---3,,0",
";,w5*94-,,;;707,,,7;;--;,,5;&%%&-;,--,--,-&&-%-&-,--;-&--&5--,,-",
",,,&-,,-07;;-5590:59&&--,5-,-&&+-;-----7&&%&--&--;-&+&-:,&-,;,5&",
",,9-5,1,--50,55,,,,7,%;%-,&&,,,------,--&5----5;%---&-*&&&,&-;--",
",0-5,;---5,-,97;55-,,-5-&-,&=+,-&-&&--*---&%-&4%;--%&+&&-%*%&*%&",
",,-;5,,-,1w5,,509&,,57--,%%%,=--+,=--%%+&&,-,,&&,-;--,&&%-%-&-%,",
"*-w,9,7&,-&5--&;-&59--%--%,&+%&%+-#o #o++ ++&&,&%-;&&+-,&--%+&-;",
",57,-,&,,-,--,0--,3-,-&-=;&&%%+o.+oo.%+++#+++,%%--&--&&%%%&&-&&,",
"-w4,--,&-,5,-&5,05,99:&+-&&%#%+%=%+%%=+.O=++-&%---,&%-+&&%&&-*&-",
";7,,-,--,,--5-,,;7&-<;7-&+=+#.#+#&++%O++++++&;-&&&%&&%-&---&&,5-",
";,,,,-;0-3-5,50,--75954-&+&+++++.++O ++++++%-,,------*&%=-;-,,-&",
"9,--w5,,-,-5-,---,5;,5&5,%+++++X%=++#%++++o&%-5--;-&+&&&-&*-,5w5",
"9905,,75,5w0,-500&-5-,,-;-&++%=%.++%-+o+ #++++%&;%&&&;-&--5,&-50",
",,,-,,5553,5-5-5*;,5173-,-5%%%o+&&-++%++o+++%%+%;0--*&*--&,;,55-",
"575,,0,0,;,,,,--,-;,,;,,&---++&&++&-&-&5-+%&-:%-59&%-%---,--,9w5",
"i54-5;-95775,,557;&07,-;,35;--%--=--,,,-&,&-,%-w9555,057,05-iw,,",
"5&,,95,,,-,;&75q,&,,7,,,,&,53;%;---&&-+%-&-3++0,,-40518w0iw,pwaw",
";,,7,-*,,-5;;-555;-5,w0----,,--&%5,&,--&-&&-=&;-,-,5---ww07wp07-",
"w05w,&,3,-,75,,&;,5,5,7,&,,55,,&-=&&+&&,--&$@0-1=90,,,wi,570;,,0",
"0--15--,9,,5--757*;5--&5,,;0ww4-,-&-&0&&--&5i<;59,-50,50050w9;7,",
"0,09-5,;--,,,&--,-57,-95&,5,7w7i,,,=-&%&;%3,,25,,50,,i5wi,w70w05",
",,0,,0-,---9,*---,,,7,w----5950,5;53&-*5www0120,;5u7uu8,5i0-;w,,",
";w,--5;*,-5,;&-0-&,--,*;5;7,3&,,150,w095,5,:p1-,w055,,8059w85077",
"05--5=-;:,5,;,&--,,,;*;7,99,w,7,,070-0w-7055,;00575qw5959;ap0,07",
",9,5,&,,,--;,55,7---,7,,-0,-,5;-72,75,,0p0w0ww0;;w7ww,90w5w5550;",
",--5,,4-,,7,,,,--,---;-,,,:--3-,55s0ww0,,5,05,0,waww0a7wa9557957",
"-,9,-&-0,-,5-,-=&-,&,,,-,,-0,9&w557w,90707yw;q50w5w0dwi0w<,55,,4",
"-97;355--=%--,----,---,-05,9-25w7,5,5009,,5w79u50,wsi9pw15w90wwi",
"&9,----,--,1-*;---&-,;5-,,,,,07595w9,5wwq7900ww0w595,-95ww,508,0",
",-;,,,-1,%,,--5,--5,-,-,--;:1w0900,070w,50apw9w90-1wwi,w9,-50059",
",9,-&,-,,=-&-,,--<-,;---,53w,,,w0w5,55w9w077t50wpww5w0950w,7059,"
};
