/* XPM */
static char *_e38c3cb78c245bac22e83ffcf85c4587q8bVmG17bSSo60m[] = {
/* columns rows colors chars-per-pixel */
"64 64 50 1 ",
"  c #7F6342",
". c #836645",
"X c #856846",
"o c #886A47",
"O c #856649",
"+ c #89674A",
"@ c #866A4A",
"# c #8B6D4D",
"$ c #906E4E",
"% c #8E714E",
"& c #91724F",
"* c #8D6E51",
"= c #916F51",
"- c #8E7151",
"; c #947354",
": c #927455",
"> c #937555",
", c #937754",
"< c #947454",
"1 c #947554",
"2 c #977554",
"3 c #977654",
"4 c #977755",
"5 c #967457",
"6 c #947852",
"7 c #967852",
"8 c #947857",
"9 c #967857",
"0 c #977B57",
"q c #9A7857",
"w c #9B7D57",
"e c #967759",
"r c #9A7758",
"t c #937858",
"y c #977858",
"u c #997A59",
"i c #98795B",
"p c #9C7A5A",
"a c #9A7C59",
"s c #9C7D5B",
"d c #9D7E5B",
"f c #9B7B5C",
"g c #9C7F5C",
"h c #A17F5D",
"j c #9D7D60",
"k c #A17F60",
"l c #9D815D",
"z c #A1815E",
"x c #9F8160",
"c c #A18361",
/* pixels */
"9u4;%>>&>994u9>4d4449u96qd4 @*@-@#@%#r>4uq;#>e6%>44u4e444>4;944>",
"44>ee;4>$4-;;#44euy44u99ua4##o##@#@##uuyud%u4;4;>44;#q4;11yu>444",
"449444-44y>94444&uyy4tq9euu>#%*#*#@#>4gaua-9%;>q4>;%4444u;-94944",
"4q>444;44449949;44y494>9ggy##*####@O4u9qydd4%;9>>441r4>4>9>;44>&",
">4;u4%;>>4;94->;4pu>>d4uug4.####o##%>;uuurqu;4&4>;q94>4>4u49;4%>",
";446q;>>>;->->>>u94u9ugu9aeO@-####o-#uwu9>d94;>;4>;;#;44>14u4444",
"449>;;>;>u44444#4949y49l4d9@@##O#-#@4ga9adwl4;>-&4-%4e>4;4y4;4y>",
"4;94;4;-44e>44&&4qu999aurdq@##@#*#oX*h9dlaad>;94;%>-499u4;4>4e4#",
"494499%4>>;4u4;>;4y9uu944ado#**>#o@@-d9ydgad%;>4-#464>44449q4444",
"44>4>--9444>4;4>4444apquud9########@#uqaguul%>>44>44>49;44;;;;>9",
"449>4=%9444449>>4uu9>494tu>.O-####.#-uquu9aq;>4e#-94>;4944uq44&;",
"q44q&y444;&414944r94yay9ad4##*#O#%##*d4ya4wq>4*9>-;4;4&49;9;994u",
"u;;44y4;;;;4;>444qu9u4999uu##%##@o@#-gduuulgo*#46>;4&;44>4>944&q",
"4q>>=4%u4->44;&a4u>4uyuu9u>@@*#-#*###dwaaaqz-4;44>4>>>444>4u444>",
"u949y4;4;;49;499uu9u4gau4du#*##-##@#4da94gaq%;>>4;&#ue4444;4;>u>",
"e444>4;>4>4;444qa>u944qdy>4###*###@o#guggudq>--;44;>9;9;$>9%444>",
"4;94444-e>>;4;44q4q4urqa9g-#X%#@#;.@4q>qpggu;4u4;>9>;414>;4>;944",
">44>994444u64>>9;9uu9yu4ud4;X-#%*#o@4dd9qqgl#;4%9;;>;e;4>>;44;4a",
";94;4u44;;444>>4uuu>9fu4u44o#*XX#@X##jy9gupd->>>->y>;4>qu#;44&>;",
"y4>u4;;>4&>44e4;u4444q94uuy X#*##>#o-uaaagly->;9r>4&>9>9;>6q4494",
">q44;44y494e4>44u44ay>44qd-@O*#@X>@#=49udzqu%;-;44;>;44&%;9994>&",
"r9464g44499>99y>96aqdq4u4u4o#-#####-449dgd9a%%;%;46>44>44>q>;*96",
"9u-q9uy4496y;u>4yqy44;u9q;>;X##X@*#X%u9uduad>;4;444;49644414;49>",
"4>44;;494;>u>4;94y494;944q>@##*##-@@#9ag4ulq>4e$49#>49;4;4>;44y#",
"4944>>46r;u4;uy;9ad9;499&ddo#-#####@>99guqdl>*94>;;;4>-9;;>4&;%4",
"4y994;4u9449;94;>;uu;4494uuX@#--###@>u9al9du44%4e->44>&q&&9944#>",
"q>49-444494uo;4u4ua>4uw4uk9#.#@o@#O#;udauua4*e>-4>%;--;>4>4>4;q;",
"944a4uyay;yy94944449449u4u4o@########g9uuyd9-=&;4>444e>;>>49>44>",
">4e%>4#uu4444444;e44u99qpa9XO*#o*####uu9d4cl;;4;4>%>;;&4;u>&-u%>",
"49u49=%u4;quu>4>;9uy4;9qua4#X####+@#-d9uuau9;44-9>>4;44;;4;444->",
"u;4u4>y4*u944uy;;ayquy4>4gu-@##o-##@>dduqga64;-*yy>4;;444>;>>9;=",
"9q&4u4;4;9y>;;44u9yqe;qquda@X#4@#@#.>u9c44zl;;>-4;&>4>>q4e>>44;;",
"4>444u9d4944;yu4&4444u9q49y@.;-###@#4gau9a9q;4>u4%49>--9%4>44;%#",
"44q44>%4>44444494444>y9qdudo@#*#X#@#4zdadgla4>4>e>>;4;-4>u4>44>#",
"4;;pq;>4;>au>;46444uyu94ug9%@#%-*#@Xyudag9lp->u#--;4;&>4r>4>$4-%",
">4;4%q;>>>>94494;9uy4y>4ya9o########4d4uluu4#>e-;4;44;>;44u9;4-X",
"499444>y>4->49y44r4>444qug9*-#-##@#@4gdgdgld944>4;%;y>>>;44qu;#%",
">u;4gp949q49>4-;u444;9y9agu#O#;o#;X#4lyxd9y9>;;eu44u>494>4944#4#",
"44;;>4444q>>499>y;444>9aug>;#-##o#X#ed4gdqad;4>;>>>%44>494>4>;-&",
"y9>u44>44>>u4u>9>ye4;uu9qq&oX@####*#9daggyqr%;4%>94>449>>444;;*;",
"y;>y94q4u4yuu>>4;>qugga49xu@.#@o##-.>adlygay>a>4y>>4&444-44u;-%-",
"u4;44>4;4>>44>9944a4quyaraqO@o##%#o#9a4ajaay;49#>44>444e>uu>>-;>",
";;4#>>44>#4;->494444464qagyO##*--O@@#a9ad9dy=;#4u;;9>>14$4-#-#&;",
"949ey9y>e4a4;>4;4uyg9y>pyyd;@##o@##.ud9guaaa#;>y4;444>144499;;>;",
"994ey94;q;>->>%>u4>94uu49luX#>#@###O9uagudw44>u;;;;4;;qu;494;>%-",
";44&44;;4>>94444qda>4u4qdau#X@;@--##4u99a9gd;-9-r;44444;4u;44#4#",
">>>9u4u9;>>9>>4qeuqa4eau9au+.####-@.>adggal4>*9->e;994;uau>y4>9-",
"qu444;yy44uu>>64uu9a9quq49>%#-#-###X>yqudua444444;;&4q9>#4;4-#>%",
"44q4>e4;>y444444u94a4udu9qu# ###### >d9ag9a444>%4>;>&449494u>;44",
"6>4>1944e;4>4>4uuqda9aalqqu*@#@####.>u9dxdy4e4u4;4yu944>44494u-4",
"4949>44pe;4%&;euuq4aa9aa4du@@#*@#*Oo9faaaduy-*4e;#444yy;4449>4;;",
"e;yw4;4;;>49t94u49quuq>44zu#X@#@##.X;qu9udq44q4#;4>>4p;4u444>%4;",
"e9;;>4u%>4>e>;4y4auu4q6hdduO@-####@-;e9xgdw9-u>->u49>qq>4>9>9>>4",
"a&4q4r64r4;>4;qa99dpduqqauq;X##--#O@>ja9lca4#u944>449e%;>4;;444;",
"e949u>;>444y44;9a9ququqqqua#.@#o*#@#4cua9cd;-;>444444u>;;444uu44",
"rru>9e44e4;4;e49449uguuud4doO#o@####4u99qgp#;44y44444u4>u4y&4e49",
"u;44u494>d44449alugyuuldgyy##@#@@#.#9guwgdl944;q>444;49>4q44q44;",
"44yuy4q9-;444494ad4&uqwaq9y@#+o*##.@4j4ddu9->9u4;4e44rq94;>;44q4",
"44a4%>44u49499u4q4yuauaq4ug%#####*@#>g>auga9>9>94-44&4444q4>4q4>",
"4494949>4449q&4uc9qdu4yarueoX######@;gadaqq44>%94444q4444uqu44>9",
"444944>u4>>4uq4uu9uaufudug>@#;O#%#O@dd94dgg9&4>>>4494;>y4;qq4q9>",
"uygu;e>4>4>q444q9yu96q44azu#@#O#-@.->gauadg4;;;&&>44&4-9449a4;q>",
"uq44ue9;;444>4u44w9uuquu4ag###@##>#-4uuuyg4&49;>44-94;>4;y49u499",
"uq&&;>4u44>ydqup9q4y99yu444#@-###*O@4zyguaa>444y-4>99u6>4qe44uuq"
};
