/* XPM */
static char *_76671c7c4de4886e25ece56119537b4hwbnOTp8SlMM9KuJ[] = {
/* columns rows colors chars-per-pixel */
"64 64 50 1 ",
"  c #96754C",
". c #99774E",
"X c #97794E",
"o c #9A7A4E",
"O c #997750",
"+ c #977951",
"@ c #9D7C53",
"# c #9F7F58",
"$ c #A27E54",
"% c #A37E59",
"& c #9E8055",
"* c #9F8058",
"= c #A48256",
"- c #A88457",
"; c #A28258",
": c #A48258",
"> c #A6825A",
", c #A38458",
"< c #A68458",
"1 c #A4855A",
"2 c #A7845A",
"3 c #A6835C",
"4 c #A7845C",
"5 c #A8835B",
"6 c #A8855A",
"7 c #AC865A",
"8 c #A9845C",
"9 c #A9865C",
"0 c #AD875C",
"q c #AD875F",
"w c #A78859",
"e c #A7885E",
"r c #A9885C",
"t c #AA8A5D",
"y c #AC885D",
"u c #AE8A5E",
"i c #B18B5E",
"p c #AB8760",
"a c #AC8762",
"s c #AD8A60",
"d c #AE8B62",
"f c #B08764",
"g c #B08B60",
"h c #B28F60",
"j c #B28D62",
"k c #B48C68",
"l c #B59164",
"z c #B99167",
"x c #B59369",
"c c #B89468",
/* pixels */
"t6=22e266t49t>>>2$664e=&2==%++@@o=@=966>2t>6>>>=63;9yy>>66>q>66q",
">t>6>2t222=t>9>22@>>>>@;22$$.@@@$+;@626q296q>9$6t=$99>>>$>s6>559",
"$t229>24;629>>4>>>>99>=2;e==@@+@@@@==t226>>5w>>52626>=66y>7>>666",
"9>a92y9;26y>>5>>66>t6$29=2$>@$=@.@$=46tt>>>y=>y22>5$>q629>6$2=>y",
">$>;s26222>29>>2>>>42@@622@>@>;+X@*@g29j926=$$>$6266$5>>$>6>>>6>",
"9666,t299$6t2=t2>>$>>=>2>&=>@.%$@.+$y666>$2>=9>>2>>2>>>>9>7q>>>6",
"y>>>=222=>y6999>$6>66222e=@;=+Oo@o;$t>>>s6>922>>>=5=65>62=>66y9t",
"96>9t99>t>2>=>@2>=262==@>4>@2=.+@@@@4t2$t6>%=>$>>>2-=266-6>5>>=$",
">2>2>2>=>,>7t9>9=2>5t=>>9;$@&&@$..@>66>s@29>=999=>9766>9>ty266>>",
"-59>69>2y>>22s%>62>t=>@%=;=$@;+@&@ $ttt6=2>>$s6$22$2>=9t6=$q62=6",
"q$$2>=@>$>4>$$6>>2>>22=94==9&o@@$@O@,2>66>>6==26$2$69$6>>>625>5>",
"$>2>966t4;26t2$$>==$2o$=>,=;@@@+=+@@>2222>22>>>>=6y>66>>6>=9>>6>",
"2>6>$>$>6>2>$422>6222o=>&>,3@2@#@=o+4226t==@=>->>25>622;>5>9>6>6",
">6>>2>>>>>$;=;$>$>$2o@$====>;;o@o@ O=>=2>4=66=>>5>66;>562y62>y5q",
"2>9>99>692>26=>$@>@@@=@@@=%@@$@o@;@++=>=yy$@=y>>>5>>=95>y6>$>q26",
">$2=>=>>$;y5==>>6@@@@=&@=$@$=4>+@@ @@>>$@>22-6%-=2>>29>>66656>>=",
"$6=2222==2@>t$=>6$=2@o@@$;$>;==+++o@@$>=6=t62>55>6%>2>>66>>2-q>5",
">=22@=6>62>2>>2;@2=$@@+=&@;$@=>@@+ @o@@$$jy2;@$$>2$,$t669>6y-692",
">$>>>92$>>62=>$$>>@o+@@o@@@$>@;=@@X@@@$@>>y>6>>>6t2t26>t6=>t2262",
"$6962>>=2=$6$>>$&==@@;@@;;&@,;4%@$+o +>@@@>665>6>$>6>$>-tt2t66=y",
">22>>>>5266q222=>=@=,$$@,;=$2,4@;&@++@@@$$2tt2t6@$622265662662>$",
">56>>>22wy2>$;$$@.$2@@@==@=t2=>;@o@@@@.@=@o=-666>62t>6>=>66>=->6",
"66>>62922$@@$o.@@$@@o&$=@@==2$@4;=+.@@@X@@o@q>>>>>$>$>669;2666y9",
">o$>4$@$@+@@oX&@o@o@&@@$@@2@=2==>$+@oo+ @==@@2626==t6>92q6yyt@6q",
"@o++@o@@@+..o&@.@@o@+o@;>&=5,>>$,=+@$@+@@@o=@>>>6y6yy2t$95i52655",
"$@oo@@@@.@$*o@@@; @$#o@$@@@%,>23$>$O+@o@ X$@@ @>>29;;5j7i9qq>6q>",
">O=$@o@@ oX+@@@+ @$&@@@+o@4>@=29$=$@@@@$..@@@;@o@@>=$@>=6t-->6ty",
".o@@@+o@.&oo$$@+X$$@o@@@+$=$$;;$;$;>$@+@@+ o.+@;@@$@$;=.$@$@=>39",
"@o@@+@@@O=@@+@@@o@X@@@+2==2;$29>2=26@==@$>;@@oo%@@;$@;$.o==>@=@@",
"@.+@=@@+@oo$@@@@oo==@@@;$===2e$=29@>=2=@@+$@;X$+X o @;$@22@oo$@$",
"@@+o@@o@@o$@&@@>@o,=.@;>@2ee22=2@;26>2$@@.O.++;=@o@@@>@@$=>@>@>>",
"+$@@o&=$@@.@@.+,++=;;;&,92=2=,>===>>@=>y22@@,@o@@>$=@@=@o@$@>@@.",
"XX+@@.o@@@@%@=,o@$@#2$>,>2=2=2224>262==$$2t>w@+@@..+@=@;$@$@  $+",
"+@@@@@@&&@++@oo@+$2$>266=>2$2wtt;e@>t,6>,24$w=>>$;$2$>=o;@$@o@@@",
"=o@@@@@@ X@o@@$t=2st22$6-622262,9e=,2=9y=,=26=,9>2$@@o=@@@>=>@+@",
"&@$@.o@@==o=4&ts=29=>t=9=,>p;42=22>;w4>>t2=26=2==2o=&@$=+.+@o$==",
"@o@>2222st>24=>>>9t>>,@2>>42>$9e222=2,,>5,==22=22;24y2>622%>=$>@",
"2t2=t=6,2;6s2=y=@4,22>=y6>29y22>,29s4;st=,2>4==&>96>=@==,=>>&@&=",
"&t;2@=2&2>>==26=@62,292s2tt2t6>6;=@242=>e2=9=tt$64=2tt29$;t>=2==",
"2>;$@$=>6>26,2t2j4y==s26>t624=64>2>62e2twt2=>9;69=t2>>>94e4429>t",
"2$$=6$529>t6462>9;4226@=t22ss2tt24622wse=&t9=t22=>tw4;9>=22>>6>$",
"2=>i>>9;22>26>>;>>2>w=;e222@==;$,=,>22@=2=&>&=@,&@=,t=$>22t9ty24",
"sty6jtytty6622y>6966t62>2=;22692t226t9936t$;>=222;2=@>$>=22e2tt2",
"t6yy9gllljsjyysjyjljljjjlllxlijjlssjjsjjyjs9y>6yjjy9tyss2tt994$2",
"yityyyjssssljjljjiyj7ljyljysqyjqt6yiyijjjjjlllj6t2y-yyt>>@$@>;>>",
"tiiyjjqijiyj6jsssjjyjy9y9jjjtjgiijjjjyjijijt76js6->->6t62tss2>6>",
"jjijlyyjijlzllylsjjiiljjissjjjjsyyjjyjgjljjjjljyllyjy>9jjxljcjjc",
"syiyyijlllyjllgyjssgjjyjlsljl6jjsyigqljyitqjjjgs6jizjyyy6syijjjs",
"jtijijzsijlxjyjlt9jsqjjistyjlcjyyit7siyy7ljyyyjlyjqqyjijijstsqyy",
"ygsygjj6ys-7jyjjjjj5666jtyy9-jjly6jsjiqljyiiijijyjsgjjjljj69qygl",
"ljtyyqg6jy>6ygq6qsyy6yjyyy6y-jiiijjyjjjgj6jjlyljysljj7ygjjjklyjg",
"t9>996g>>6iy65$9>>yyjq69t966jlyytlyjq6jjislq26sjyjjyjysiljjjljij",
"5qq>62>>y6$6=yt6q2t65>>9;66yw9s6>yyjjlj77yy-6ysyi7q66266q6q6yjii",
"6>>6669>>2>7>t569>6t2225>6666t666=>>9>iii662>92>$$>6-->96>>66s6>",
"t9>926>62y>5t>69t>6-tt66t666>>666>2>>>@@=t=9>2-7>$ssyy7666y7$tq2",
"66g62>6>=y>62q->w266t6$5>6>st$6->66>6>27>t2q699y656$>66652yy66yy",
">$66>266==6q652>6>656y6>>>t>269y6$>>6-66>6$$>>69yy>6q>6q9ytq7-qy",
"y>$>566>tt;6t9t6>56>y6-t>>y5,69=2t96666sttj9yyty6699yt6q626f66yi",
">6-2622=@26>=>>>6->2>>29=q>6>>956>>>9=6=5669=-5->>6qyt6626-q9i56",
"-=666t>>=6>629962>52>>>>2265yy556$262y56662526-9t6tyt695t96q>6-q",
"$2$69$>>t62$==6>2>$$6t>6-69-699$>9$6>s5666>56966666-26>y62y=t699",
">$>$22$56>==>6=2>-6>6$5$666526262>6>>>=5-76>@=925t5=>>y2t2yj6>>y",
">6>=>=252>=%2$>>95>>22>6>6=>>9>$=2>=62$$56>$>>t666>>=>q>922gt6>9",
"22562>>>;4>6>=9>2=6>=>>6$6>>>$>$>9>2>>2$526622>=y>2tt6>=y26y6ty9"
};
