/* XPM */
static char *ac4f57a63c02437ff9d85629b0790bfdOD8BiPFszySjm2Ik[] = {
/* columns rows colors chars-per-pixel */
"64 64 48 1 ",
"  c #553F2E",
". c #56422E",
"X c #5A442F",
"o c #5C4533",
"O c #5E4935",
"+ c #5F4938",
"@ c #614734",
"# c #634B36",
"$ c #694E37",
"% c #624738",
"& c #654D3A",
"* c #694E3B",
"= c #6C4E3C",
"- c #704F3E",
"; c #675037",
": c #64503B",
"> c #67503A",
", c #66503C",
"< c #64523C",
"1 c #6A503B",
"2 c #6A543B",
"3 c #6B543B",
"4 c #68533C",
"5 c #68503E",
"6 c #6E523C",
"7 c #6D533E",
"8 c #6A543C",
"9 c #6C543D",
"0 c #6D583F",
"q c #71533E",
"w c #70553E",
"e c #73583F",
"r c #6B4F40",
"t c #665140",
"y c #6A5240",
"u c #6D5341",
"i c #6C5540",
"p c #6F5744",
"a c #6F5841",
"s c #735541",
"d c #705740",
"f c #715742",
"g c #785741",
"h c #715A43",
"j c #745943",
"k c #715A44",
"l c #795944",
"z c #745A49",
/* pixels */
"*5&*855,>11>,1*5955u*#&5*>151,5>5i5#5571557715i55&1y>**85*5&#*5y",
"5#**1&&**,i*,5*55>*&&*5*>1**1**519i71u998>*7=75i>&5&y***5#5**&**",
"&5**1>&*&,,,*>,##57,*&,1*&**5;&*3*575*&55f58755185,*5&5#*55,0#*&",
"***&58***5***,,*##,#*5*#1*95155791i51**9&*575551iu***5i55y*#&#*i",
"#y*5*>515*&**#5&,5,**i*15**1>5=&17555y555551&fku*5u5*555*>#&55**",
"51****,1**5,5&*>*#*5**&55,19h&*753**>5575i5u,7**ii9i55>>5y5p9*5*",
"5#&5#1*&*i*&&5,&11*5*#u5***>i5w71*i7#11*51iy*97517775*5i5iiu1*,*",
">&5,*>**#**>*8,#*5*555i,*5*119p**1>*1955a*55*55i855**59*&555*&y*",
"&5**#8555*11,>i*55*55u*&1>75*75i975589ui9555*i5*155>55155*##**#y",
"75*1>#555*&***#&*5>,5>**5*5y&5>5u95i>*&*5*yu15i5***yi58*5&*&*>*&",
"5&*5>1**1555*&**&51#*5y5&*5*55$&*1**>u*y7u75*1i5*8&****##515>,&,",
"*5,*55**51****5**55y1&5y*****575*1571*7*yu7u*5#u&&5,#,y,#&#@,>*,",
",55*57*155&**555555,5i5&>5,i5>*f555*77*i5#5*15#55i5&*5,**55**##5",
"17#&,5551555>5*#771>>*5&#*,5*5***51*5575>,*&*5****751*#*#*i&,>#1",
"*557&***5**u**,*575#5*,55*&**75&5&*i*575*95,*5*****1,5*5*****,,*",
"*>5&*&55171*y5u5&1*5*5**>5*55555*i5*9155*5*7&77**#55#>&*#5>,*#**",
">&&555*55&5517&55*,5#*85#,*,55*1*5*#5*555**5**55555&##*y>&>**&*7",
"&5*&555*58&#***,**5,7*,55*i**#>*y7555*51>&>,>>,,5**58,+*#i&**#5*",
"5&****i**9555*5*&&*5u*&&**i*5995*##555&&*#>&i*>&**&5*>5#++*5##&&",
"****&**715*&5***55*#15*y>******1u8iu1315,75*@55*15&#,y**5,&&+,*#",
"5>**5>*1585*5#*7>15r5,*5*&5*7*&5>u**#55*&**#5***75,>&5**#****,,*",
"*5,5&1***#*****155*&,#755,5755*>5**5*y&*5**&815***&*>***#*5*,#&&",
"#&*&**55y*u*5i*5>7**8*5i5**&#*5*u11*>**5>1*y**5&,>&&##5*8*##>>##",
">t&#&*#5*5#,,&5>5*5&51955*i&8**>5,*71>>1*****#5***5i>*5&,5**+,>&",
"*&&&*&y,5*,55*5**#5**15*f1*5#**#&**>&,&&155*#&*#&&*&*>**#*1t##*1",
"*#,*,,y*&5*&*#5,&**>5&5y#***#****#5&***###**>#>1,1>*,,##&#&&,,7*",
">>###&*&&5**7*&&*,y**55#,*,*&#O***#u**#5&**#*&5****&###&>>#*##*#",
"***5*58*5*55*555t#**1*&#5#o**>#*,#o*O>#*##*****#*#**5##*&##**#>&",
"##*&O1>,*555*5**1,5u1*##*#5*#&*&**#*&*>*#5>#*****&*#>5***>**&51*",
"#**###&*O&5&*55*5*>&5*#&o&#*+##+O##&#++&&**,**8##,*#55u5*,&555>*",
"&o#**#&&,5i>,ii*&55#>##&*##,++#&##o@+o+#Oo+##++o*+#*#o&o###+#5**",
"oooo##&y*+*####&+#O&#o++o&#oo#+&#Ooo+OOo+OooXo OoXXooooo.oOoO+O+",
".Xo... .+oo##o+OXoOOo+++ooO+o++o.ooO++o..+O+o#++.ooO oo+ooo.oooO",
".Ooo+&oOoooO++o&+++#+o+++#oo#*+o#>++oo+&#+OOOooOO*&+ooooOo&++ooo",
"&#,##+++++O#+&O&##&O#*&oo#+&o+,,*#*&&###&>+&y#o&#o#&#*&###O#&o&#",
"*###++&+#&O&#>&+o+#+#*,#51>>,5*&5&*#*,*+oo&#&,#*5#&u,#*,,5*,8i,*",
"*5,*,5i,*#*#>#&t*#*,&#*8#>***#*&&***&5&>>*5*&*>*>1#5,5**>551#>*&",
"*#,**#*5,55,,++y5>&55##5#+59,,555715*&*,>*5*5#***&#&+**#>#*##***",
",**Oo#*&##o>*****>,>&*5&&#***>#*>5*&>#*#5*#*58&5&*551155*177*&*1",
"#####&,###*>#&i&#,5&*5*88557555##855>i5*>5#@8>&5,>*u*77>&,&&t>,,",
"5*5955*>5555####**##5*#5*1i88&5*595*@*5*&,&y**55***7*#***#&#**7$",
"jhff9f*hkzf7fi9*99915*&55*5&,*>,5#@y#*&,+#***7&*51*f&7555*=777qq",
"99558fff**$7hf9iq199579*55*y*5555*&7>&751ihiwlfflfjgflfflflljjll",
">1&w9iy*377i79f9fw9qjf71ii79kh9i7fk*,,i57flfehjljj7fellwflfljjqq",
"7f71**#85577*79>57753a95977711*i*1u9,,*9**ffhfwqqflfqqllwklf7qqq",
"**978719*8*1915555h1&5fhh1hf75u7&i9&,5&1*7fq7f*hqlf-lgffwqlfflqf",
"75*f$1i151&5i5i7*5785955huf#5775*&*&****5*=jff7fwfwqjfg=lfqfqwqq",
"5*>5>,5>57>8i,*55$9*1i15if95>1>5ii8*>5***#*ff5ewqllqfqfqjfqww$ff",
"*155>*,,>>&,***y55i815u5#5991*i51>&5>&&*>&fq7**wqeffjffflwffhjfj",
"*7751,5#1y,##191155558*71uaf75i55>*#>*555*=q7q7fwffffjw7lffq7f=f",
"558*>&5*&5>5,8875575>i8*uiu5u91**i5*&+&&*7u-fwj7jq=fw7qfq7qfffqq",
">5151*555&>5*,5151*5&>15755ii799>**5#+#*#*q779qqf7wqwwff=wffqff7",
"38y5*5*,>#55y5*5,>1789i*i9997978**y*&*&+*7jf977q77=wfqwwqff=fwj=",
"y1*5*&5i#5*51*9i>5*5i5*5***997*i&9*5#+*#,57q=5*7wwfq7q7f9q7=qwfq",
"*857*ii**515#>>18>,**&58*555,179#y#####&#*7=*7*f7777wwfqw7fq=7==",
"**&&****#y,>#>8*,&>;17**5a5&9if75*O>#&#+*7f=97ff77q-uq7==fqq7=q7",
"&*y&,*#58>**y5*&*&538**5**59iu7i555+&##o*57q7q*ff7jf=f7q7=qq77=7",
"588,5*#*5*&$*>i***5*i*u5>i7517i**7*#+##*#*w7=u==7qqf==f77wq77wfq",
"1&#5#55#>&i>#,#,5,*75**5&&&5775#1&*#&##+*5q7fqw7==qffwqq=777q7fq",
"&>#*#59,>51#59*>##*5>i#55u77ijiii&*#,5++1*q7jqf=wf==$=7wf=q*q7q=",
"1157&>&*5555i117u*5y,*#5,&y8=f*#,>###o&*#5f=7=77qfffq7f7f7q7ff7=",
"**#&,#&&85&1*5115>1i>y57**5119&&y#,##o%#*&q77f777qqfq=qf7fq=fq77",
"51155&55&,5955i7&9uii5**,*1*9i555>*,#,&#*7f7557fff77q7f7q=7q7777",
"*>i***,*8355>85*1i15555>*5*if7i,#,&5##*O&lf779juuq=7qf=*q7f79f7*"
};
