/* XPM */
static char *_e455e95372e4b59e0e27df52a988f7dkPktHmBJhLaAN5KO[] = {
/* columns rows colors chars-per-pixel */
"64 64 50 1 ",
"  c #594B36",
". c #5B4D3B",
"X c #5E513E",
"o c #61543E",
"O c #5F5341",
"+ c #635643",
"@ c #685744",
"# c #665A45",
"$ c #6A5C46",
"% c #675748",
"& c #675B48",
"* c #6C5D49",
"= c #705F4B",
"- c #6E614B",
"; c #73644D",
": c #78664E",
"> c #75684E",
", c #78694F",
"< c #6F6150",
"1 c #756651",
"2 c #756851",
"3 c #776B53",
"4 c #766854",
"5 c #776A54",
"6 c #776C55",
"7 c #786850",
"8 c #786853",
"9 c #7A6953",
"0 c #7C6B52",
"q c #7A6C52",
"w c #796B54",
"e c #7C6A55",
"r c #7A6C57",
"t c #7A6D57",
"y c #7C6D54",
"u c #7D6C56",
"i c #7B6D58",
"p c #7D6D59",
"a c #7C7055",
"s c #7F7157",
"d c #7E7059",
"f c #7E7159",
"g c #806E56",
"h c #816F58",
"j c #817157",
"k c #807059",
"l c #82735B",
"z c #837760",
"x c #847860",
"c c #897961",
/* pixels */
"91>2912wq12>2t292w2t>quw9w>992>2t;2->2t92>>22wtt2>92212295>5>9q2",
"2>299t512,9>29;>twwuu09qt99tt;q2t>;2t;12w2;991>2>>>;;,92w9999;2t",
"111w25299>>2299sutu12w22>222tw2;>wt922w19;1;>2129;2s9-9>1>2qt>22",
"92>>1w1212e29uut929tt29wi>1;td;129>9t21;;91221w1291;;2>tt192>t52",
"1u2292999w9tq>t2uw>q9uu292w2;>-w2>2>q>;>9922->9>;9>2>>2>w92>>e>q",
"tp1>15t;t21t1wq;q29te2>2t29922iw9t>>wt99999;9t>2>w>222;1995>9219",
"w2>>9wt262itkww;9qwt92212291w9>>;922t9w>;95t922>999t>929q>92ww5>",
"22>w11pt2>>9w1>22w1u1>9;22121w122;q>w212292;>12t219992p2>>2>992;",
"wt9292192q99w12p222t29tq2>9;29>>129;>9292292q>92tw>229;299u91;91",
"2w11ws929uttt92;9w2;1t>291q;91;2>qu992>;2w29>2119>2q9>>it2922u92",
"9;229tu2utq921;2w29>229;;29>12tq2,>w2>9wu>221t9>9;>9q>2tt29;2w>>",
"q;12;>92>>9,9;9>22q15t122t299w1;;1>;q2;;>1uq2ww11q99qwt22992w192",
"1>25u999>2u2:2922>;>2w2>>919w92>2>w>999>12w92>199>tq99w922q9w012",
"2wt;995q929229>www999w922t1>>;21299q;wq222>9w21tt2t>9221w15>>e>2",
"t912>219>,w99w29w912w11;21;>>;>>>;;>>q95t9>2>wt2>222>22w11>>we20",
"1>>wt>;9w9>2255;;9w21211i1>>5>>>,9t;;>99i2us9ww9>;>2;9>5w2>>;>92",
"w99>wtt>t2wtw1;2uw95w9i9>>w2>199u>229>91;;9221>t>2111ut1>9992ww9",
"et59>1w>2926wu12t>>2>>99;9w>>2;;>;2>;;1u22w112t1w1>2;1w1tu2>w999",
">>;121;w9t;;;=;2992>2>9912222122;>t>tw9tt22225;1>9125w1112999>>u",
"u>;;;>21>>;1-;>>q;e9ut:9219999>1t;929t1;2t9udt92;;12w1122;e;1>29",
"dikzkkpt;;wqsu2pppu2d9uut299;5110>i2wt1>;11>9t2q2199t21q21w>99w2",
"#o$;;51;-;11we1;*19>9;5tt>>qdtuewwtpttdkkkkut9;tkitu;19utt561;5$",
"++#X X.X#O@$.o@++###$**$$$*--;1>111>2;;wte59tw2>111>;22*;;#$-+$$",
"##$*$-$$#+$#$+$*&#$+&$#@$$@$$$**-$---*-;$$*$-;$X#++$*@$+X+@#&$$$",
"$######&#&@$-+##+#&*$%#$#-**$++#$#+#*-*$&$$--$+@#$#$#@#&##$##*##",
"#+#+X$#+#&@++##+#@$###$$$$@++$&#+++XX+##$&#+&$$&###&#$$&*#+#++##",
"&@+#++$&+X###&##$&+##+o#o+@#+#++##$&##$$$#+##$$&$+$*#+$$o@+##+#+",
"$$#$-*#*$&#$#+@#$@o*$$+###@$$$###$@+o++@++++#+O+#+++#+##$&$*$$$$",
"-;;$&--oo#@#***#*###@*&--1$--1;--$$*$#&$*##**#*#**$*-*$-&#+###+$",
";1-1-15;1--;**=*$-***$*-$$$**$+-=;1*-1-*$*-;*$;;*-$##$-$****----",
"$##$*$$*--;11111*##;#*$$$*$-$$*$#$*#$$$#*;$***<-#**$;--;1;;;;*1*",
"25ttt>:1--*##$**;*;-**;*-$*--1---**;---*$$$$*$$$$*$#$&#$$*@$*#$*",
"udkkkkkkdkxk9t;;**$$-;----*-;;-*-$***--*--#**$$-$1;*;;---*;$;*-*",
"dd>jkdukdukdukkkku;--***$;;*$+*1##;;--**-11*#;;--*-*--+#$$$**$;$",
"kuk9uukuusw9uetdwpc>-*--1;$$-;$--1;---$*;*$;$-;*-1*$-;;-;w9;>2>;",
"sqwu92ptqee299t>9tkq;1--;*$***-**1*--$-$*--;;$*;-;;1>tu9u91>;>2;",
"uk9qutut9t9qdwwp999uk$----;--*1*$*11----$#*-;;---*;uujuuuwpke999",
";2wqtwww52ke99qqutduk2*$;;*-$-$$$$*$*-;$-*;;$;*;;9uu>2>,>999;>90",
"1-;22;2259hu929q995upe2$--$;1$*1$*$*****1--1*$wd>:;2->:9;>;>1;1>",
"1;9w219;529w999uu9uw>ue-#*1;;*;--$&*-*-*;11-$>u>;1>;;t09>9wtuw19",
";2w5>999;>q-2kuqupwwtp2w-*;;1;;*-;;$-*;1*-$-;1q2uwkus9>9u9912>9t",
";1w;222p219;9dttue>uhu192#*;;*;-*;@$**1*$--#tpktuupu21;9>92;1;>;",
"221211112uuq2>;kupu999>q;+**;-;*;*$-;$@#>pkd>2t9>:02ww1wt;9951;1",
"2t19>2w2;;919e22u1e9ui9t-;***$$*;$#--*$>dsupw>1w0u919tq9919q;>>2",
">22t2t>29w22w11>>p9ut292;-*--=---$#&;;wstt91>tpuuu;2912wt>>221;2",
"22w1;2>1111u22w2292w9w9>;$$*-*;$=*$$;>uq9u,9>99>9uu;29;>->>22www",
";219w12t2;;1>u2;2wp>wwww;1#$*--*--$;;;u>9999u92wweuu;>>12t>>21w;",
"1112tw>2921;u225>9ptw9t5$1*-****;$$*;;kq9q9u9>1291>u;91192;>$**;",
"912:22q2>12;t>22>uu229qt-;$**-**;*#**>,,ut99w99;9ugw99;>-*;;-1;;",
"1121225t1-2;;;52t2w5pu91#******#***#*tt0099>9>t>992w1;=;;;;-;;1-",
"w111>2221212t5>w>9u222uw;*$$;*$-;-***9u9>29>9w9>99-$$;;;*;--;1;*",
";;1;2w1p9>1;90;9>>et2tk21;#$;-*$$$*#$299>wequu9;w;-;;-;1*;*-;;-;",
"19929211>9152w2ww9ttwpp1;-+#-$$*#$-**wp22w9uu;=-;1;;-;1-;;---;;1",
"11w>;;9q;99wtu9tw;1>-ww;>1##***;-#+$;99;22;;;;;-;-**1;;19;1$;;;-",
";11191;1w21259999;1tw9p>;;*&-$**-*$*-q9;>9w2-;;;9>*;;;;--;11--;;",
"19199>;12>9999;w>12u92w1;$&$1*$$$#&**tu9t-;>21;-$19;-*$-1;;;;2;;",
"9w>>;;;t1*152u9t52u2195t1-***$**#-#*19>;>;;;;>;;->2;;1-;2---;;;1",
"1;;1t;;1>;>659wt999299u21;$--**$$;*$;tq2;;>;:;1;;;1;*;--;1;>1;1;",
">29212-1>1>2tt;92>1tt9w>;*$$-$**-$#@;9u>www>;;9;;1;;;-;1*51;>;;2",
">99;2t9>u>122992q>2>weup21$$$*;-$$##*p:;2w1>;22-111*=-;-1;;;;>-;",
">151211st>;>1tq122w2;wt>;1$--$$$*#+**29:>1;q11;;*;;>1;>-->;;;-;;",
";129;1;2;;;qw2tdt21t>puw>-@-*$-#*$@+-2991;121;*;;;;-1;*-;;1;1;-;",
">;;21;;;*;111292>2tt>t99w;$&*#;;#$**->91>9111;1>>;;1>;;;-2;>111;",
";1>>1291-;1>9q9ww9;d;>k;-2#&-**-#$$*1299>>;;21-;;;;-;1;115-;-*;1"
};
